;FLAVOR:Marlin
;TIME:7037
;Filament used: 2.13994m
;Layer height: 0.16
;MINX:64.354
;MINY:13.558
;MINZ:0.16
;MAXX:155.646
;MAXY:106.441
;MAXZ:2.92
;Generated with Cura_SteamEngine 4.4.0
M140 S80
M105
M190 S80
M104 S220
M105
M109 S220
M82 ;absolute extrusion mode
M201 X500.00 Y500.00 Z100.00 E5000.00 ;Setup machine max acceleration
M203 X500.00 Y500.00 Z10.00 E50.00 ;Setup machine max feedrate
M204 P500.00 R1000.00 T500.00 ;Setup Print/Retract/Travel acceleration
M205 X8.00 Y8.00 Z0.40 E5.00 ;Setup Jerk
M220 S100 ;Reset Feedrate
M221 S100 ;Reset Flowrate

G28 ;Home

G92 E0 ;Reset Extruder
G1 Z2.0 F3000 ;Move Z Axis up
G1 X10.1 Y20 Z0.28 F5000.0 ;Move to start position
G1 X10.1 Y200.0 Z0.28 F1500.0 E15 ;Draw the first line
G1 X10.4 Y200.0 Z0.28 F5000.0 ;Move to side a little
G1 X10.4 Y20 Z0.28 F1500.0 E30 ;Draw the second line
G92 E0 ;Reset Extruder
G1 Z2.0 F3000 ;Move Z Axis up

G92 E0
G92 E0
G1 F1500 E-2
;LAYER_COUNT:12
;LAYER:0
M107
G1 F300 Z1.16
;MESH:9f529f77-236d-49d9-80b4-1a991c07d4b7.stl
G0 F6000 X87.887 Y72.173 Z1.16
;TYPE:WALL-INNER
G1 F300 Z0.16
G1 F1500 E0
G1 F600 X87.956 Y72.305 E0.00416
G1 X88.543 Y73.3 E0.03645
G1 X89.172 Y74.265 E0.06865
G1 X89.843 Y75.202 E0.10086
G1 X90.57 Y76.119 E0.13356
G1 X91.337 Y77.003 E0.16627
G1 X92.146 Y77.852 E0.19905
G1 X92.991 Y78.661 E0.23175
G1 X93.875 Y79.429 E0.26448
G1 X94.793 Y80.155 E0.29719
G1 X95.744 Y80.839 E0.32993
G1 X96.723 Y81.477 E0.36259
G1 X97.736 Y82.072 E0.39542
G1 X98.771 Y82.615 E0.42809
G1 X99.832 Y83.112 E0.46083
G1 X100.913 Y83.559 E0.49353
G1 X102.015 Y83.957 E0.52628
G1 X103.134 Y84.3 E0.55899
G1 X104.266 Y84.593 E0.59167
G1 X105.416 Y84.834 E0.62451
G1 X106.639 Y85.025 E0.6591
G1 X107.765 Y85.154 E0.69078
G1 X109.042 Y85.231 E0.72654
G1 X109.093 Y85.235 E0.72797
G1 X109.433 Y85.169 E0.73765
G1 X109.706 Y85.067 E0.74579
G1 X109.947 Y84.925 E0.75361
G1 X110.005 Y84.878 E0.7557
G1 X110.069 Y84.929 E0.75798
G1 X110.301 Y85.066 E0.76551
G1 X110.567 Y85.167 E0.77347
G1 X110.821 Y85.217 E0.7807
G1 X110.857 Y85.225 E0.78173
G1 X111.087 Y85.229 E0.78816
G1 X111.214 Y85.222 E0.79172
G1 X112.319 Y85.145 E0.82268
G1 X113.549 Y85.001 E0.85729
G1 X114.699 Y84.811 E0.88987
G1 X115.732 Y84.597 E0.91935
G1 X116.865 Y84.304 E0.95206
G1 X117.983 Y83.959 E0.98476
G1 X119.187 Y83.523 E1.02055
G1 X120.162 Y83.12 E1.05003
G1 X121.224 Y82.624 E1.08279
G1 X122.354 Y82.024 E1.11855
G1 X123.364 Y81.43 E1.1513
G1 X124.341 Y80.786 E1.18401
G1 X125.285 Y80.099 E1.21664
G1 X126.198 Y79.372 E1.24926
G1 X127.079 Y78.603 E1.28194
G1 X127.92 Y77.792 E1.31459
G1 X128.725 Y76.942 E1.34731
G1 X129.488 Y76.058 E1.37995
G1 X130.206 Y75.145 E1.41242
G1 X130.883 Y74.199 E1.44493
G1 X131.515 Y73.221 E1.47747
G1 X132.1 Y72.218 E1.50993
G1 X132.641 Y71.186 E1.54249
G1 X133.13 Y70.131 E1.57499
G1 X133.572 Y69.058 E1.60743
G1 X133.965 Y67.962 E1.63997
G1 X134.305 Y66.849 E1.67249
G1 X134.595 Y65.726 E1.70491
G1 X134.832 Y64.587 E1.73743
G1 X135.015 Y63.439 E1.76992
G1 X135.149 Y62.281 E1.8025
G1 X135.228 Y60.969 E1.83923
G1 X135.232 Y60.918 E1.84066
G1 X135.191 Y60.708 E1.84664
G1 X135.186 Y60.683 E1.84736
G1 X135.232 Y60.683
G1 X135.316 Y60.683 E1.8487
G1 X135.176 Y58.067 E1.92192
G1 X135.058 Y56.896 E1.95481
G1 X134.885 Y55.732 E1.9877
G1 X134.66 Y54.578 E2.02056
G1 X134.38 Y53.436 E2.05343
G1 X134.047 Y52.305 E2.08638
G1 X133.62 Y51.089 E2.1224
G1 X133.18 Y50.003 E2.15515
G1 X132.693 Y48.936 E2.18793
G1 X132.153 Y47.894 E2.22073
G1 X131.568 Y46.878 E2.2535
G1 X130.935 Y45.889 E2.28632
G1 X130.255 Y44.933 E2.31911
G1 X129.529 Y44.004 E2.35206
G1 X128.761 Y43.111 E2.38498
G1 X127.952 Y42.255 E2.4179
G1 X127.105 Y41.437 E2.45081
G1 X126.218 Y40.657 E2.48382
G1 X125.298 Y39.923 E2.51671
G1 X124.345 Y39.23 E2.54965
G1 X123.36 Y38.582 E2.5826
G1 X122.343 Y37.983 E2.61559
G1 X121.302 Y37.431 E2.64852
G1 X120.235 Y36.928 E2.68149
G1 X119.148 Y36.477 E2.71438
G1 X118.039 Y36.075 E2.74735
G1 X116.912 Y35.727 E2.78032
G1 X115.774 Y35.43 E2.81319
G1 X114.617 Y35.188 E2.84623
G1 X113.384 Y34.993 E2.88112
G1 X112.266 Y34.867 E2.91256
G1 X112.256 Y34.865 E2.91285
G1 X111.076 Y34.783 E2.94591
G1 X110.841 Y34.795 E2.95248
G1 X110.577 Y34.847 E2.96
G1 X110.315 Y34.945 E2.96782
G1 X110.073 Y35.082 E2.97559
G1 X110.005 Y35.137 E2.97804
G1 X109.93 Y35.076 E2.98074
G1 X109.698 Y34.949 E2.98813
G1 X109.443 Y34.847 E2.99581
G1 X109.161 Y34.793 E3.00383
G1 X108.941 Y34.786 E3.00998
G1 X108.796 Y34.793 E3.01404
G1 X107.69 Y34.871 E3.04503
G1 X106.46 Y35.015 E3.07964
G1 X105.31 Y35.205 E3.11222
G1 X104.277 Y35.419 E3.1417
G1 X103.144 Y35.711 E3.17441
G1 X102.024 Y36.055 E3.20715
G1 X100.924 Y36.451 E3.23983
G1 X99.741 Y36.944 E3.27565
G1 X98.682 Y37.444 E3.30838
G1 X97.65 Y37.994 E3.34106
G1 X96.644 Y38.589 E3.37373
G1 X95.671 Y39.228 E3.40626
G1 X94.814 Y39.844 E3.43576
G1 X93.895 Y40.572 E3.46853
G1 X92.932 Y41.416 E3.50432
G1 X92.09 Y42.222 E3.5369
G1 X91.359 Y42.988 E3.56649
G1 X90.519 Y43.96 E3.60239
G1 X89.802 Y44.873 E3.63484
G1 X89.125 Y45.82 E3.66738
G1 X88.494 Y46.798 E3.69991
G1 X87.909 Y47.8 E3.73233
G1 X87.368 Y48.832 E3.7649
G1 X86.878 Y49.886 E3.79739
G1 X86.435 Y50.962 E3.82991
G1 X86.045 Y52.055 E3.86234
G1 X85.704 Y53.165 E3.8948
G1 X85.414 Y54.292 E3.92732
G1 X85.177 Y55.432 E3.95987
G1 X84.995 Y56.579 E3.99233
G1 X84.866 Y57.723 E4.0245
G1 X84.864 Y57.733 E4.02479
G1 X84.78 Y58.933 E4.05841
G1 X84.789 Y59.167 E4.06495
G1 X84.845 Y59.449 E4.07299
G1 X84.946 Y59.704 E4.08065
G1 X85.074 Y59.933 E4.08799
G1 X85.135 Y60.009 E4.09071
G1 X85.08 Y60.077 E4.09316
G1 X84.942 Y60.318 E4.10092
G1 X84.844 Y60.58 E4.10874
G1 X84.792 Y60.845 E4.11628
G1 X84.78 Y61.083 E4.12294
G1 X84.875 Y62.383 E4.15937
G1 X85.008 Y63.525 E4.19151
G1 X85.194 Y64.665 E4.22379
G1 X85.434 Y65.792 E4.256
G1 X85.721 Y66.905 E4.28812
G1 X86.062 Y68.006 E4.32034
G1 X86.223 Y68.452 E4.33359
G1 X86.294 Y68.65 E4.33947
G1 X86.092 Y68.71 E4.34322
G1 X85.575 Y68.864 E4.3583
G1 X84.617 Y69.132 E4.3861
G1 X83.606 Y69.399 E4.41532
G1 X82.605 Y69.65 E4.44417
G1 X82.198 Y69.852 E4.45687
G1 X81.813 Y70.23 E4.47195
G1 X81.563 Y70.73 E4.48757
G1 X81.496 Y71.263 E4.50258
G1 X81.588 Y71.804 E4.51792
G1 X81.88 Y72.299 E4.53398
G1 X82.299 Y72.659 E4.54942
G1 X82.757 Y72.842 E4.56321
G1 X83.146 Y72.894 E4.57418
G1 X84.461 Y72.757 E4.61113
G1 X85.586 Y72.605 E4.64286
G1 X86.681 Y72.421 E4.67389
G1 X87.887 Y72.173 E4.7083
G0 F6000 X88.306 Y72.11
G1 F600 X88.883 Y73.089 E4.74006
G1 X89.502 Y74.039 E4.77176
G1 X90.163 Y74.961 E4.80346
G1 X90.878 Y75.864 E4.83565
G1 X91.633 Y76.734 E4.86785
G1 X92.429 Y77.569 E4.90009
G1 X93.261 Y78.365 E4.93227
G1 X94.13 Y79.121 E4.96447
G1 X95.034 Y79.836 E4.99668
G1 X95.97 Y80.509 E5.0289
G1 X96.934 Y81.137 E5.06106
G1 X97.93 Y81.722 E5.09334
G1 X98.949 Y82.257 E5.12551
G1 X99.993 Y82.746 E5.15773
G1 X101.057 Y83.186 E5.18991
G1 X102.142 Y83.577 E5.22214
G1 X103.243 Y83.915 E5.25433
G1 X104.357 Y84.203 E5.28649
G1 X105.488 Y84.44 E5.31879
G1 X106.693 Y84.629 E5.35288
G1 X107.8 Y84.755 E5.38402
G1 X109.016 Y84.829 E5.41807
G1 X109.067 Y84.833 E5.4195
G1 X109.324 Y84.783 E5.42682
G1 X109.533 Y84.705 E5.43305
G1 X109.717 Y84.596 E5.43903
G1 X109.875 Y84.467 E5.44473
G1 X109.989 Y84.339 E5.44952
G1 X110.004 Y84.322 E5.45015
G1 X110.018 Y84.338
G1 X110.137 Y84.47 E5.45327
G1 X110.297 Y84.599 E5.45902
G1 X110.475 Y84.704 E5.46479
G1 X110.678 Y84.781 E5.47086
G1 X110.9 Y84.826 E5.47719
G1 X111.079 Y84.829 E5.4822
G1 X111.189 Y84.823 E5.48528
G1 X112.282 Y84.747 E5.5159
G1 X113.493 Y84.605 E5.54998
G1 X114.626 Y84.418 E5.58207
G1 X115.641 Y84.207 E5.61105
G1 X116.756 Y83.919 E5.64323
G1 X117.856 Y83.58 E5.6754
G1 X119.042 Y83.15 E5.71066
G1 X120.001 Y82.754 E5.73966
G1 X121.045 Y82.266 E5.77187
G1 X122.159 Y81.675 E5.80712
G1 X123.152 Y81.09 E5.83933
G1 X124.113 Y80.457 E5.87149
G1 X125.043 Y79.781 E5.90362
G1 X125.942 Y79.065 E5.93574
G1 X126.808 Y78.308 E5.96789
G1 X127.636 Y77.51 E6.00003
G1 X128.428 Y76.674 E6.03222
G1 X129.179 Y75.804 E6.06434
G1 X129.886 Y74.905 E6.09631
G1 X130.552 Y73.974 E6.1283
G1 X131.174 Y73.012 E6.16032
G1 X131.75 Y72.024 E6.19228
G1 X132.282 Y71.009 E6.22431
G1 X132.763 Y69.971 E6.25628
G1 X133.199 Y68.914 E6.28824
G1 X133.585 Y67.836 E6.32024
G1 X133.92 Y66.741 E6.35225
G1 X134.205 Y65.635 E6.38417
G1 X134.438 Y64.515 E6.41614
G1 X134.619 Y63.384 E6.44816
G1 X134.75 Y62.246 E6.48017
G1 X134.826 Y60.996 E6.51517
G1 X134.83 Y60.944 E6.51663
G1 X134.78 Y60.688 E6.52392
G1 X134.702 Y60.48 E6.53013
G1 X134.667 Y60.422 E6.53202
G1 X134.604 Y60.319 E6.5354
G1 X134.582 Y60.283 E6.53658
G1 X134.702 Y60.283 E6.53769
G1 X134.894 Y60.283 E6.54099
G1 X134.894 Y60.267
G1 X134.777 Y58.098 E6.6017
G1 X134.661 Y56.945 E6.63409
G1 X134.491 Y55.8 E6.66644
G1 X134.269 Y54.664 E6.69879
G1 X133.994 Y53.54 E6.73113
G1 X133.666 Y52.428 E6.76354
G1 X133.246 Y51.23 E6.79902
G1 X132.813 Y50.161 E6.83125
G1 X132.333 Y49.111 E6.86352
G1 X131.802 Y48.086 E6.89579
G1 X131.226 Y47.086 E6.92804
G1 X130.603 Y46.113 E6.96033
G1 X129.934 Y45.172 E6.9926
G1 X129.22 Y44.258 E7.02502
G1 X128.464 Y43.379 E7.05742
G1 X127.668 Y42.536 E7.08983
G1 X126.834 Y41.731 E7.12222
G1 X125.961 Y40.964 E7.1547
G1 X125.056 Y40.241 E7.18708
G1 X124.117 Y39.559 E7.21951
G1 X123.148 Y38.922 E7.25192
G1 X122.148 Y38.332 E7.28437
G1 X121.123 Y37.789 E7.31679
G1 X120.073 Y37.294 E7.34924
G1 X119.003 Y36.85 E7.38162
G1 X117.912 Y36.454 E7.41405
G1 X116.803 Y36.112 E7.44649
G1 X115.683 Y35.82 E7.47884
G1 X114.545 Y35.582 E7.51133
G1 X113.33 Y35.389 E7.54572
G1 X112.23 Y35.265 E7.57666
G1 X112.22 Y35.263 E7.57694
G1 X111.072 Y35.184 E7.6091
G1 X110.89 Y35.193 E7.6142
G1 X110.686 Y35.233 E7.62001
G1 X110.485 Y35.308 E7.626
G1 X110.299 Y35.414 E7.63199
G1 X110.133 Y35.548 E7.63795
G1 X110.021 Y35.675 E7.64268
G1 X110.006 Y35.692 E7.64332
G1 X109.992 Y35.677
G1 X109.872 Y35.545 E7.64645
G1 X109.705 Y35.409 E7.65247
G1 X109.527 Y35.311 E7.65814
G1 X109.331 Y35.233 E7.66404
G1 X109.116 Y35.192 E7.67016
G1 X108.944 Y35.186 E7.67497
G1 X108.82 Y35.192 E7.67844
G1 X107.727 Y35.269 E7.70906
G1 X106.516 Y35.411 E7.74314
G1 X105.383 Y35.598 E7.77523
G1 X104.368 Y35.809 E7.80421
G1 X103.253 Y36.096 E7.83639
G1 X102.151 Y36.435 E7.86861
G1 X101.069 Y36.824 E7.90075
G1 X99.903 Y37.31 E7.93606
G1 X98.862 Y37.802 E7.96824
G1 X97.846 Y38.343 E8.00041
G1 X96.856 Y38.928 E8.03255
G1 X95.898 Y39.558 E8.06459
G1 X95.055 Y40.163 E8.09359
G1 X94.151 Y40.879 E8.12582
G1 X93.202 Y41.711 E8.1611
G1 X92.373 Y42.505 E8.19318
G1 X91.655 Y43.257 E8.22224
G1 X90.828 Y44.214 E8.25759
G1 X90.122 Y45.113 E8.28954
G1 X89.456 Y46.045 E8.32156
G1 X88.835 Y47.007 E8.35356
G1 X88.259 Y47.994 E8.3855
G1 X87.727 Y49.009 E8.41753
G1 X87.244 Y50.047 E8.44953
G1 X86.809 Y51.105 E8.4815
G1 X86.425 Y52.181 E8.51343
G1 X86.089 Y53.274 E8.54539
G1 X85.804 Y54.383 E8.57739
G1 X85.571 Y55.504 E8.60939
G1 X85.391 Y56.633 E8.64134
G1 X85.264 Y57.759 E8.67301
G1 X85.262 Y57.769 E8.6733
G1 X85.181 Y58.939 E8.70608
G1 X85.188 Y59.121 E8.71117
G1 X85.23 Y59.336 E8.71729
G1 X85.308 Y59.532 E8.72319
G1 X85.407 Y59.709 E8.72886
G1 X85.545 Y59.881 E8.73502
G1 X85.671 Y59.991 E8.73969
G1 X85.691 Y60.008 E8.74043
G1 X85.673 Y60.024
G1 X85.545 Y60.137 E8.7434
G1 X85.411 Y60.303 E8.74936
G1 X85.305 Y60.488 E8.75532
G1 X85.23 Y60.689 E8.76132
G1 X85.19 Y60.893 E8.76713
G1 X85.181 Y61.078 E8.7723
G1 X85.273 Y62.345 E8.80781
G1 X85.404 Y63.47 E8.83946
G1 X85.587 Y64.591 E8.87121
G1 X85.823 Y65.7 E8.9029
G1 X86.106 Y66.796 E8.93453
G1 X86.441 Y67.879 E8.96622
G1 X86.669 Y68.514 E8.98508
G1 X86.812 Y68.909 E8.99682
G1 X86.628 Y68.967 E9.00221
G1 X86.409 Y69.032 E9.00859
G1 X85.683 Y69.249 E9.02977
G1 X84.719 Y69.519 E9.05775
G1 X83.708 Y69.786 E9.08698
G1 X82.744 Y70.028 E9.11476
G1 X82.433 Y70.182 E9.12446
G1 X82.141 Y70.469 E9.1359
G1 X81.951 Y70.848 E9.14775
G1 X81.9 Y71.254 E9.15918
G1 X81.97 Y71.664 E9.17081
G1 X82.191 Y72.039 E9.18298
G1 X82.509 Y72.312 E9.19469
G1 X82.859 Y72.452 E9.20522
G1 X83.152 Y72.491 E9.21349
G1 X84.413 Y72.36 E9.24892
G1 X85.526 Y72.209 E9.28031
G1 X86.608 Y72.028 E9.31097
G1 X88.101 Y71.72 E9.35358
G1 X88.306 Y72.11 E9.36589
G0 F6000 X88.656 Y71.915
G1 F600 X89.223 Y72.878 E9.39713
G1 X89.832 Y73.813 E9.42831
G1 X90.483 Y74.72 E9.45952
G1 X91.186 Y75.609 E9.4912
G1 X91.929 Y76.465 E9.52288
G1 X92.712 Y77.286 E9.55458
G1 X93.531 Y78.069 E9.58625
G1 X94.386 Y78.813 E9.61793
G1 X95.275 Y79.517 E9.64962
G1 X96.196 Y80.179 E9.68132
G1 X97.145 Y80.797 E9.71298
G1 X98.124 Y81.372 E9.74471
G1 X99.127 Y81.899 E9.77638
G1 X100.154 Y82.38 E9.80807
G1 X101.201 Y82.813 E9.83974
G1 X102.269 Y83.197 E9.87146
G1 X103.352 Y83.53 E9.90313
G1 X104.448 Y83.813 E9.93476
G1 X105.56 Y84.046 E9.96652
G1 X106.747 Y84.233 E10.0001
G1 X107.835 Y84.356 E10.03071
G1 X109.041 Y84.431 E10.06448
G1 X109.215 Y84.397 E10.06943
G1 X109.359 Y84.343 E10.07373
G1 X109.487 Y84.267 E10.07789
G1 X109.597 Y84.177 E10.08186
G1 X109.696 Y84.066 E10.08602
G1 X109.774 Y83.942 E10.09011
G1 X109.833 Y83.807 E10.09423
G1 X109.851 Y83.73 E10.09644
G1 X109.868 Y83.661 E10.09843
G1 X109.871 Y83.617 E10.09966
G1 X109.878 Y83.539 E10.10185
G1 X109.875 Y81.942 E10.14649
G1 X109.874 Y81.833 E10.14953
G1 X109.85 Y81.738 E10.15227
G1 X109.83 Y81.658 E10.15458
G1 X109.764 Y81.512 E10.15905
G1 X109.675 Y81.383 E10.16343
G1 X109.568 Y81.273 E10.16772
G1 X109.447 Y81.184 E10.17192
G1 X109.311 Y81.113 E10.17621
G1 X109.149 Y81.062 E10.18096
G1 X108.972 Y81.046 E10.18592
G1 X107.96 Y80.972 E10.21428
G1 X106.951 Y80.847 E10.2427
G1 X105.988 Y80.685 E10.26999
G1 X105 Y80.467 E10.29827
G1 X104.045 Y80.21 E10.32591
G1 X103.09 Y79.902 E10.35396
G1 X102.149 Y79.551 E10.38203
G1 X101.24 Y79.159 E10.40969
G1 X100.33 Y78.716 E10.43798
G1 X99.457 Y78.239 E10.46579
G1 X98.615 Y77.726 E10.49334
G1 X97.784 Y77.162 E10.52141
G1 X96.972 Y76.555 E10.54975
G1 X96.219 Y75.931 E10.57708
G1 X95.475 Y75.255 E10.60518
G1 X94.764 Y74.545 E10.63326
G1 X94.086 Y73.799 E10.66143
G1 X93.457 Y73.039 E10.68901
G1 X92.86 Y72.241 E10.71686
G1 X92.305 Y71.425 E10.74444
G1 X91.849 Y70.681 E10.76883
G1 X91.792 Y70.588 E10.77188
G1 X91.678 Y70.38 E10.77851
G1 X91.727 Y70.366
G1 X91.831 Y70.336 E10.78103
G1 X93.57 Y69.827 E10.83167
G1 X95.564 Y69.203 E10.89007
G1 X97.349 Y68.605 E10.94268
G1 X98.338 Y68.252 E10.97203
G1 X99.412 Y67.851 E11.00407
G1 X100.461 Y67.439 E11.03557
G1 X101.412 Y67.052 E11.06427
G1 X102.541 Y66.57 E11.09858
G1 X103.596 Y66.102 E11.13083
G1 X104.646 Y65.618 E11.16315
G1 X105.688 Y65.122 E11.1954
G1 X106.724 Y64.612 E11.22768
G1 X107.756 Y64.088 E11.26002
G1 X108.921 Y63.478 E11.29678
G1 X110.079 Y62.85 E11.3336
G1 X110.378 Y62.683 E11.34317
G1 X110.413 Y62.663 E11.3443
G1 X110.475 Y62.628 E11.34629
G1 X110.554 Y62.583 E11.34883
G1 X110.638 Y62.535 E11.35153
G1 X110.597 Y62.658 E11.35251
G1 X110.578 Y62.81 E11.35485
G1 X110.579 Y62.958 E11.35814
G1 X110.587 Y62.998 E11.35921
G1 X110.611 Y63.117 E11.36261
G1 X110.666 Y63.258 E11.36684
G1 X110.739 Y63.383 E11.37088
G1 X110.835 Y63.5 E11.37511
G1 X110.931 Y63.583 E11.37866
G1 X114.583 Y66.271 E11.5054
G1 X114.745 Y66.34 E11.51032
G1 X114.888 Y66.371 E11.51441
G1 X115.008 Y66.381 E11.51777
G1 X120.718 Y66.32 E11.67737
G1 X120.886 Y66.274 E11.68224
G1 X121.027 Y66.211 E11.68656
G1 X121.155 Y66.122 E11.69091
G1 X121.258 Y66.025 E11.69487
G1 X121.352 Y65.904 E11.69915
G1 X121.426 Y65.761 E11.70365
G1 X121.471 Y65.619 E11.70781
G1 X121.493 Y65.474 E11.71191
G1 X121.492 Y65.315 E11.71636
G1 X121.461 Y65.164 E11.72067
G1 X121.41 Y65.025 E11.7248
G1 X121.334 Y64.892 E11.72908
G1 X121.239 Y64.775 E11.7333
G1 X121.144 Y64.691 E11.73684
G1 X115.124 Y60.238 E11.94612
G1 X115.097 Y60.218 E11.94706
G1 X114.937 Y60.151 E11.95191
G1 X114.786 Y60.115 E11.95625
G1 X114.634 Y60.106 E11.96051
G1 X114.734 Y60.039 E11.96067
G1 X114.822 Y59.98 E11.96239
G1 X114.901 Y59.927 E11.9633
G1 X114.929 Y59.909 E11.96419
G1 X115.584 Y59.468 E11.98626
G1 X116.663 Y58.705 E12.02319
G1 X117.899 Y57.776 E12.06641
G1 X118.988 Y56.9 E12.10547
G1 X119.548 Y56.423 E12.12603
G1 X120.097 Y55.935 E12.14656
G1 X120.638 Y55.434 E12.16716
G1 X121.427 Y54.657 E12.19811
G1 X122.141 Y53.908 E12.22704
G1 X122.268 Y53.714 E12.23352
