;FLAVOR:Marlin
;TIME:282
;Filament used: 0.10095m
;Layer height: 0.16
;MINX:86.373
;MINY:36.378
;MINZ:0.16
;MAXX:133.614
;MAXY:83.622
;MAXZ:1.8
;Generated with Cura_SteamEngine 4.4.0
M140 S80
M105
M190 S80
M104 S220
M105
M109 S220
M82 ;absolute extrusion mode
M201 X500.00 Y500.00 Z100.00 E5000.00 ;Setup machine max acceleration
M203 X500.00 Y500.00 Z10.00 E50.00 ;Setup machine max feedrate
M204 P500.00 R1000.00 T500.00 ;Setup Print/Retract/Travel acceleration
M205 X8.00 Y8.00 Z0.40 E5.00 ;Setup Jerk
M220 S100 ;Reset Feedrate
M221 S100 ;Reset Flowrate

G28 ;Home

G92 E0 ;Reset Extruder
G1 Z2.0 F3000 ;Move Z Axis up
G1 X10.1 Y20 Z0.28 F5000.0 ;Move to start position
G1 X10.1 Y200.0 Z0.28 F1500.0 E15 ;Draw the first line
G1 X10.4 Y200.0 Z0.28 F5000.0 ;Move to side a little
G1 X10.4 Y20 Z0.28 F1500.0 E30 ;Draw the second line
G92 E0 ;Reset Extruder
G1 Z2.0 F3000 ;Move Z Axis up

G92 E0
G92 E0
G1 F1500 E-2
;LAYER_COUNT:5
;LAYER:0
M107
G1 F300 Z1.16
;MESH:gold.stl
G0 F6000 X87.229 Y61.726 Z1.16
;TYPE:WALL-INNER
G1 F300 Z0.16
G1 F1500 E0
G1 F600 X87.41 Y61.726 E0.00506
G1 X87.485 Y62.617 E0.03005
G1 X87.496 Y62.739 E0.03347
G1 X87.726 Y64.187 E0.07445
G1 X87.759 Y64.393 E0.08028
G1 X88.074 Y65.727 E0.11859
G1 X88.143 Y66.018 E0.12695
G1 X88.54 Y67.274 E0.16377
G1 X88.648 Y67.615 E0.17376
G1 X89.106 Y68.764 E0.20833
G1 X89.267 Y69.167 E0.22046
G1 X89.776 Y70.213 E0.25298
G1 X89.999 Y70.669 E0.26716
G1 X90.547 Y71.611 E0.29762
G1 X90.841 Y72.116 E0.31395
G1 X91.418 Y72.959 E0.34251
G1 X91.784 Y73.494 E0.36062
G1 X92.38 Y74.238 E0.38727
G1 X92.83 Y74.8 E0.40739
G1 X93.421 Y75.437 E0.43167
G1 X93.968 Y76.026 E0.45414
G1 X94.556 Y76.572 E0.47657
G1 X95.194 Y77.164 E0.50089
G1 X95.754 Y77.612 E0.52094
G1 X96.5 Y78.209 E0.54764
G1 X97.032 Y78.573 E0.56566
G1 X97.878 Y79.153 E0.59433
G1 X98.393 Y79.452 E0.61097
G1 X99.325 Y79.995 E0.64112
G1 X99.763 Y80.208 E0.65473
G1 X100.827 Y80.727 E0.68782
G1 X101.24 Y80.892 E0.70025
G1 X102.381 Y81.347 E0.73458
G1 X102.721 Y81.454 E0.74454
G1 X103.976 Y81.85 E0.78132
G1 X104.266 Y81.918 E0.78965
G1 X105.601 Y82.235 E0.828
G1 X105.806 Y82.267 E0.8338
G1 X107.253 Y82.497 E0.87475
G1 X107.377 Y82.507 E0.87822
G1 X108.265 Y82.585 E0.90314
G1 X108.265 Y82.765 E0.90817
G1 X108.251 Y82.764
G1 X107.361 Y82.692 E0.91955
G1 X107.227 Y82.672 E0.92135
G1 X105.777 Y82.452 E0.94
G1 X105.564 Y82.405 E0.94284
G1 X104.223 Y82.104 E0.96033
G1 X103.927 Y82.015 E0.96434
G1 X102.664 Y81.635 E0.98103
G1 X102.322 Y81.506 E0.98568
G1 X101.169 Y81.072 E1.00131
G1 X100.756 Y80.881 E1.00717
G1 X99.679 Y80.383 E1.02227
G1 X99.244 Y80.144 E1.02865
G1 X98.295 Y79.622 E1.04253
G1 X97.788 Y79.294 E1.05026
G1 X96.922 Y78.735 E1.06336
G1 X96.4 Y78.343 E1.07169
G1 X95.632 Y77.766 E1.08394
G1 X95.085 Y77.291 E1.09321
G1 X94.423 Y76.716 E1.1044
G1 X93.851 Y76.144 E1.11469
G1 X93.278 Y75.57 E1.12501
G1 X92.705 Y74.91 E1.13611
G1 X92.228 Y74.361 E1.14536
G1 X91.652 Y73.594 E1.1575
G1 X91.257 Y73.07 E1.16584
G1 X90.7 Y72.208 E1.17893
G1 X90.379 Y71.71 E1.18652
G1 X89.852 Y70.751 E1.20047
G1 X89.603 Y70.298 E1.20705
G1 X89.113 Y69.239 E1.22186
G1 X88.927 Y68.836 E1.22755
G1 X88.488 Y67.676 E1.24335
G1 X88.358 Y67.332 E1.24808
G1 X87.979 Y66.068 E1.26482
G1 X87.89 Y65.771 E1.26883
G1 X87.59 Y64.431 E1.28626
G1 X87.542 Y64.217 E1.2891
G1 X87.323 Y62.766 E1.30766
G1 X87.302 Y62.633 E1.30944
G1 X87.231 Y61.741 E1.32078
G1 X87.229 Y61.726
G0 F6000 X87.012 Y61.326
G1 F600 X87.778 Y61.326 E1.34219
G1 X87.893 Y62.691 E1.38048
G1 X88.152 Y64.315 E1.42644
G1 X88.529 Y65.912 E1.4723
G1 X89.025 Y67.48 E1.51826
G1 X89.633 Y69.005 E1.56415
G1 X90.352 Y70.481 E1.61004
G1 X91.179 Y71.902 E1.65599
G1 X92.106 Y73.256 E1.70185
G1 X93.133 Y74.539 E1.74778
G1 X94.251 Y75.743 E1.7937
G1 X95.455 Y76.861 E1.83963
G1 X96.738 Y77.887 E1.88554
G1 X98.092 Y78.815 E1.93142
G1 X99.513 Y79.642 E1.97737
G1 X100.989 Y80.361 E2.02326
G1 X102.515 Y80.97 E2.06918
G1 X104.082 Y81.464 E2.1151
G1 X105.679 Y81.842 E2.16097
G1 X107.302 Y82.1 E2.2069
G1 X108.666 Y82.219 E2.24517
G1 X108.664 Y82.983 E2.26652
G1 X108.664 Y82.984 E2.26655
G1 X108.664 Y83.198 E2.27253
G1 X108.45 Y83.181 E2.27633
G1 X107.326 Y83.091 E2.30784
G1 X105.703 Y82.845 E2.35372
G1 X104.118 Y82.49 E2.39912
G1 X102.538 Y82.015 E2.44523
G1 X101.011 Y81.439 E2.49085
G1 X99.502 Y80.742 E2.5373
G1 X98.086 Y79.963 E2.58247
G1 X96.693 Y79.063 E2.62883
G1 X95.383 Y78.079 E2.67462
G1 X94.146 Y77.005 E2.7204
G1 X92.989 Y75.847 E2.76615
G1 X91.915 Y74.611 E2.81192
G1 X90.929 Y73.299 E2.85779
G1 X90.031 Y71.908 E2.90406
G1 X89.252 Y70.491 E2.94926
G1 X88.558 Y68.99 E2.99548
G1 X87.98 Y67.463 E3.04111
G1 X87.976 Y67.447 E3.04157
G1 X87.504 Y65.876 E3.08742
G1 X87.501 Y65.859 E3.0879
G1 X87.153 Y64.305 E3.13241
G1 X87.149 Y64.291 E3.13282
G1 X86.903 Y62.668 E3.1787
G1 X86.813 Y61.541 E3.2103
G1 X86.796 Y61.326 E3.21632
G1 X87.011 Y61.326 E3.22012
G1 X87.012 Y61.326 E3.22015
G0 F6000 X86.395 Y60.975
;TYPE:WALL-OUTER
G1 F600 X86.434 Y60.941 E3.2216
G1 X86.466 Y60.93 E3.22254
G1 X86.496 Y60.926 E3.22339
G1 X88.026 Y60.926 E3.26615
G1 X88.069 Y60.932 E3.26737
G1 X88.117 Y60.958 E3.26889
G1 X88.138 Y60.984 E3.26983
G1 X88.148 Y61.006 E3.2705
G1 X88.158 Y61.062 E3.27209
G1 X88.29 Y62.643 E3.31643
G1 X88.545 Y64.237 E3.36155
G1 X88.915 Y65.806 E3.4066
G1 X89.402 Y67.345 E3.45172
G1 X89.999 Y68.843 E3.49679
G1 X90.705 Y70.293 E3.54187
G1 X91.517 Y71.688 E3.58698
G1 X92.428 Y73.018 E3.63204
G1 X93.436 Y74.278 E3.67713
G1 X94.534 Y75.46 E3.72222
G1 X95.716 Y76.558 E3.76731
G1 X96.976 Y77.565 E3.8124
G1 X98.306 Y78.477 E3.85747
G1 X99.701 Y79.289 E3.90258
G1 X101.151 Y79.995 E3.94766
G1 X102.649 Y80.593 E3.99274
G1 X104.188 Y81.078 E4.03784
G1 X105.757 Y81.449 E4.0829
G1 X107.351 Y81.703 E4.12801
G1 X108.986 Y81.846 E4.17388
G1 X109.009 Y81.856 E4.17458
G1 X109.036 Y81.878 E4.17556
G1 X109.052 Y81.899 E4.17629
G1 X109.062 Y81.925 E4.17707
G1 X109.067 Y81.963 E4.17814
G1 X109.063 Y83.533 E4.22202
G1 X109.054 Y83.556 E4.22271
G1 X109.023 Y83.596 E4.22413
G1 X108.997 Y83.612 E4.22498
G1 X108.973 Y83.619 E4.22568
G1 X108.938 Y83.622 E4.22666
G1 X107.291 Y83.49 E4.27284
G1 X105.629 Y83.238 E4.31982
G1 X104.013 Y82.876 E4.36611
G1 X102.402 Y82.392 E4.41312
G1 X102.258 Y82.337 E4.41743
G1 X100.853 Y81.806 E4.45941
G1 X99.326 Y81.101 E4.50642
G1 X97.877 Y80.304 E4.55264
G1 X96.464 Y79.391 E4.59966
G1 X95.134 Y78.392 E4.64615
G1 X93.869 Y77.294 E4.69297
G1 X92.7 Y76.124 E4.73919
G1 X91.602 Y74.86 E4.78599
G1 X90.601 Y73.528 E4.83256
G1 X89.69 Y72.117 E4.8795
G1 X88.893 Y70.668 E4.92572
G1 X88.187 Y69.14 E4.97276
G1 X88.132 Y68.996 E4.97707
G1 X87.6 Y67.589 E5.01911
G1 X87.118 Y65.981 E5.06603
G1 X86.756 Y64.365 E5.11231
G1 X86.504 Y62.703 E5.1593
G1 X86.373 Y61.06 E5.20536
G1 X86.375 Y61.021 E5.20645
G1 X86.395 Y60.975 E5.20786
G1 F1500 E3.20786
G1 F300 Z1.16
G0 F6000 X111.721 Y82.765 Z1.16
;TYPE:WALL-INNER
G1 F300 Z0.16
G1 F1500 E5.20786
G1 F600 X111.722 Y82.584 E5.21292
G1 X112.609 Y82.509 E5.23779
G1 X112.732 Y82.498 E5.24125
G1 X114.179 Y82.268 E5.2822
G1 X114.385 Y82.235 E5.28803
G1 X115.721 Y81.92 E5.32639
G1 X116.011 Y81.851 E5.33472
G1 X117.267 Y81.455 E5.37153
G1 X117.605 Y81.348 E5.38144
G1 X118.757 Y80.889 E5.4161
G1 X119.16 Y80.728 E5.42823
G1 X120.223 Y80.21 E5.46128
G1 X120.662 Y79.996 E5.47493
G1 X121.593 Y79.454 E5.50504
G1 X122.109 Y79.154 E5.52172
G1 X122.955 Y78.575 E5.55037
G1 X123.487 Y78.21 E5.5684
G1 X124.232 Y77.614 E5.59507
G1 X124.793 Y77.165 E5.61515
G1 X125.43 Y76.574 E5.63944
G1 X126.02 Y76.027 E5.66192
G1 X126.566 Y75.438 E5.68437
G1 X127.157 Y74.801 E5.70866
G1 X127.606 Y74.24 E5.72874
G1 X128.203 Y73.494 E5.75544
G1 X128.568 Y72.961 E5.7735
G1 X129.147 Y72.116 E5.80213
G1 X129.447 Y71.601 E5.81879
G1 X129.989 Y70.67 E5.8489
G1 X130.202 Y70.232 E5.86251
G1 X130.721 Y69.168 E5.8956
G1 X130.883 Y68.761 E5.90784
G1 X131.341 Y67.613 E5.94238
G1 X131.448 Y67.271 E5.9524
G1 X131.844 Y66.018 E5.98913
G1 X131.911 Y65.733 E5.99731
G1 X132.229 Y64.393 E6.0358
G1 X132.262 Y64.18 E6.04183
G1 X132.491 Y62.741 E6.08255
G1 X132.501 Y62.617 E6.08603
G1 X132.579 Y61.728 E6.11097
G1 X132.758 Y61.728 E6.11597
G1 X132.757 Y61.742
G1 X132.686 Y62.633 E6.12734
G1 X132.666 Y62.767 E6.12913
G1 X132.448 Y64.209 E6.14773
G1 X132.398 Y64.431 E6.1507
G1 X132.095 Y65.776 E6.16814
G1 X132.008 Y66.067 E6.17204
G1 X131.631 Y67.328 E6.18874
G1 X131.501 Y67.673 E6.19348
G1 X131.062 Y68.832 E6.20922
G1 X130.875 Y69.238 E6.21493
G1 X130.377 Y70.316 E6.23005
G1 X130.138 Y70.751 E6.23643
G1 X129.616 Y71.699 E6.25026
G1 X129.288 Y72.207 E6.25799
G1 X128.73 Y73.071 E6.27106
G1 X128.337 Y73.594 E6.27942
G1 X127.76 Y74.362 E6.29168
G1 X127.284 Y74.91 E6.30095
G1 X126.71 Y75.571 E6.31213
G1 X126.137 Y76.144 E6.32242
G1 X125.564 Y76.717 E6.33269
G1 X124.903 Y77.291 E6.34383
G1 X124.355 Y77.766 E6.35308
G1 X123.587 Y78.342 E6.36524
G1 X123.065 Y78.735 E6.37352
G1 X122.2 Y79.294 E6.38653
G1 X121.692 Y79.623 E6.39425
G1 X120.744 Y80.144 E6.40808
G1 X120.309 Y80.384 E6.41445
G1 X119.231 Y80.881 E6.42954
G1 X118.829 Y81.067 E6.43519
G1 X117.666 Y81.507 E6.45098
G1 X117.325 Y81.636 E6.45565
G1 X116.061 Y82.015 E6.47235
G1 X115.765 Y82.104 E6.47634
G1 X114.423 Y82.404 E6.4938
G1 X114.209 Y82.452 E6.49664
G1 X112.759 Y82.671 E6.51519
G1 X112.625 Y82.692 E6.51698
G1 X111.737 Y82.763 E6.52828
G1 X111.721 Y82.765
G0 F6000 X111.32 Y82.983
G1 F600 X111.323 Y82.216 E6.54971
G1 X112.684 Y82.101 E6.58789
G1 X114.307 Y81.842 E6.63382
G1 X115.905 Y81.465 E6.67971
G1 X117.471 Y80.971 E6.72561
G1 X118.998 Y80.362 E6.77155
G1 X120.474 Y79.643 E6.81744
G1 X121.895 Y78.816 E6.86339
G1 X123.249 Y77.888 E6.90927
G1 X124.532 Y76.862 E6.95519
G1 X125.737 Y75.744 E7.00113
G1 X126.854 Y74.54 E7.04703
G1 X127.881 Y73.256 E7.09298
G1 X128.809 Y71.902 E7.13886
G1 X129.636 Y70.482 E7.18479
G1 X130.355 Y69.006 E7.23068
G1 X130.964 Y67.479 E7.27662
G1 X131.458 Y65.912 E7.32255
G1 X131.836 Y64.315 E7.36841
G1 X132.094 Y62.692 E7.41434
G1 X132.213 Y61.327 E7.45264
G1 X132.976 Y61.329 E7.47397
G1 X132.977 Y61.329 E7.47399
G1 X133.191 Y61.329 E7.47997
G1 X133.175 Y61.543 E7.48377
G1 X133.085 Y62.668 E7.51532
G1 X132.84 Y64.287 E7.56108
G1 X132.482 Y65.879 E7.60669
G1 X132.009 Y67.458 E7.65276
G1 X131.431 Y68.986 E7.69842
G1 X130.736 Y70.492 E7.74477
G1 X129.957 Y71.908 E7.78994
G1 X129.058 Y73.3 E7.83626
G1 X128.073 Y74.611 E7.88209
G1 X126.999 Y75.848 E7.92787
G1 X125.841 Y77.006 E7.97364
G1 X124.604 Y78.079 E8.01941
G1 X123.294 Y79.063 E8.0652
G1 X121.901 Y79.964 E8.11157
G1 X120.502 Y80.733 E8.15619
G1 X120.485 Y80.743 E8.15674
G1 X118.983 Y81.436 E8.20297
G1 X117.456 Y82.014 E8.24861
G1 X117.44 Y82.018 E8.24907
G1 X115.87 Y82.49 E8.29489
G1 X115.853 Y82.493 E8.29537
G1 X114.297 Y82.841 E8.33993
G1 X114.283 Y82.845 E8.34034
G1 X112.66 Y83.091 E8.38622
G1 X111.535 Y83.182 E8.41777
G1 X111.32 Y83.199 E8.42379
G1 X111.32 Y82.984 E8.42759
G1 X111.32 Y82.983 E8.42762
G0 F6000 X110.949 Y83.583
;TYPE:WALL-OUTER
G1 F600 X110.923 Y83.533 E8.4292
G1 X110.919 Y83.49 E8.4304
G1 X110.924 Y81.926 E8.47412
G1 X110.935 Y81.899 E8.47493
G1 X110.951 Y81.877 E8.47569
G1 X110.976 Y81.857 E8.47659
G1 X111 Y81.846 E8.47733
G1 X111.049 Y81.837 E8.47872
G1 X112.636 Y81.704 E8.52323
G1 X114.229 Y81.449 E8.56832
G1 X115.799 Y81.079 E8.6134
G1 X117.337 Y80.594 E8.65847
G1 X118.836 Y79.996 E8.70358
G1 X120.286 Y79.29 E8.74865
G1 X121.681 Y78.478 E8.79377
G1 X123.011 Y77.566 E8.83884
G1 X124.271 Y76.559 E8.88392
G1 X125.454 Y75.461 E8.92903
G1 X126.551 Y74.279 E8.9741
G1 X127.559 Y73.018 E9.01922
G1 X128.471 Y71.688 E9.0643
G1 X129.283 Y70.294 E9.10938
G1 X129.989 Y68.844 E9.15446
G1 X130.587 Y67.345 E9.19957
G1 X131.072 Y65.806 E9.24466
G1 X131.443 Y64.237 E9.28973
G1 X131.697 Y62.643 E9.33484
G1 X131.84 Y61.006 E9.38077
G1 X131.85 Y60.984 E9.38144
G1 X131.872 Y60.956 E9.38244
G1 X131.89 Y60.943 E9.38306
G1 X131.918 Y60.932 E9.3839
G1 X131.961 Y60.926 E9.38511
G1 X133.522 Y60.93 E9.42874
G1 X133.571 Y60.952 E9.43024
G1 X133.593 Y60.974 E9.43111
G1 X133.605 Y60.994 E9.43176
G1 X133.611 Y61.015 E9.43237
G1 X133.614 Y61.06 E9.43363
G1 X133.484 Y62.703 E9.4797
G1 X133.232 Y64.365 E9.52668
G1 X132.869 Y65.982 E9.573
G1 X132.387 Y67.589 E9.61989
G1 X131.8 Y69.14 E9.66624
G1 X131.095 Y70.668 E9.71327
G1 X130.298 Y72.117 E9.75949
G1 X129.386 Y73.529 E9.80647
G1 X128.386 Y74.86 E9.853
G1 X127.288 Y76.125 E9.89982
G1 X126.118 Y77.295 E9.94607
G1 X124.853 Y78.392 E9.99286
G1 X123.523 Y79.391 E10.03935
G1 X122.11 Y80.305 E10.08639
G1 X120.661 Y81.102 E10.13261
G1 X119.133 Y81.807 E10.17964
G1 X118.989 Y81.862 E10.18395
G1 X117.582 Y82.394 E10.22599
G1 X115.975 Y82.876 E10.27288
G1 X114.357 Y83.238 E10.31922
G1 X112.695 Y83.49 E10.3662
G1 X111.048 Y83.622 E10.41238
G1 X110.989 Y83.612 E10.41406
G1 X110.949 Y83.583 E10.41544
G1 F1500 E8.41544
G1 F300 Z1.16
G0 F6000 X132.76 Y58.275 Z1.16
;TYPE:WALL-INNER
G1 F300 Z0.16
G1 F1500 E10.41544
G1 F600 X132.577 Y58.275 E10.42055
G1 X132.536 Y57.687 E10.43703
G1 X132.526 Y57.558 E10.44064
G1 X132.315 Y56.102 E10.48176
G1 X132.283 Y55.887 E10.48784
G1 X131.974 Y54.505 E10.52742
G1 X131.914 Y54.239 E10.53504
G1 X131.539 Y53.004 E10.57111
G1 X131.423 Y52.625 E10.58219
G1 X130.971 Y51.451 E10.61735
G1 X130.816 Y51.05 E10.62936
G1 X130.312 Y49.988 E10.66222
G1 X130.092 Y49.526 E10.67652
G1 X129.547 Y48.568 E10.70733
G1 X129.256 Y48.058 E10.72374
G1 X128.691 Y47.217 E10.75205
G1 X128.315 Y46.657 E10.77091
G1 X127.713 Y45.892 E10.79811
G1 X127.271 Y45.331 E10.81808
G1 X126.675 Y44.68 E10.84274
G1 X126.13 Y44.086 E10.86527
G1 X125.551 Y43.542 E10.88748
G1 X124.913 Y42.942 E10.91196
G1 X124.902 Y42.931 E10.91239
G1 X124.31 Y42.451 E10.93369
G1 X123.589 Y41.867 E10.95963
G1 X123.056 Y41.497 E10.97776
G1 X122.203 Y40.905 E11.00678
G1 X121.703 Y40.612 E11.02298
G1 X120.747 Y40.05 E11.05397
G1 X120.289 Y39.825 E11.06823
G1 X119.232 Y39.304 E11.10117
G1 X118.836 Y39.145 E11.1131
G1 X117.668 Y38.674 E11.1483
G1 X117.309 Y38.56 E11.15882
G1 X116.058 Y38.161 E11.19552
G1 X115.773 Y38.094 E11.20371
G1 X114.415 Y37.771 E11.24272
G1 X114.204 Y37.738 E11.24869
G1 X112.749 Y37.504 E11.28988
G1 X112.625 Y37.494 E11.29335
G1 X111.722 Y37.415 E11.31869
G1 X111.722 Y37.236 E11.32369
G1 X111.736 Y37.237
G1 X112.64 Y37.31 E11.33518
G1 X112.775 Y37.33 E11.33699
G1 X114.233 Y37.552 E11.35574
G1 X114.453 Y37.601 E11.35869
G1 X115.816 Y37.91 E11.37642
G1 X116.107 Y37.998 E11.38032
G1 X117.366 Y38.379 E11.39688
G1 X117.727 Y38.517 E11.40177
G1 X118.907 Y38.967 E11.41762
G1 X119.303 Y39.151 E11.42318
G1 X120.374 Y39.65 E11.43819
G1 X120.828 Y39.902 E11.44484
G1 X121.801 Y40.443 E11.45902
G1 X122.294 Y40.765 E11.46653
G1 X123.167 Y41.336 E11.47976
G1 X123.69 Y41.733 E11.48814
G1 X124.433 Y42.298 E11.50004
G1 X125.011 Y42.806 E11.50982
G1 X125.685 Y43.398 E11.5214
G1 X126.248 Y43.969 E11.53161
G1 X126.819 Y44.547 E11.54196
G1 X127.396 Y45.223 E11.55323
G1 X127.865 Y45.771 E11.56236
G1 X128.447 Y46.559 E11.57468
G1 X128.852 Y47.108 E11.5833
G1 X129.396 Y47.968 E11.59616
G1 X129.715 Y48.471 E11.60371
G1 X130.24 Y49.446 E11.61775
G1 X130.487 Y49.904 E11.62442
G1 X130.97 Y50.98 E11.63944
G1 X131.15 Y51.381 E11.64507
G1 X131.583 Y52.566 E11.66109
G1 X131.723 Y52.947 E11.6663
G1 X132.08 Y54.191 E11.68283
G1 X132.158 Y54.463 E11.68647
G1 X132.451 Y55.851 E11.70432
G1 X132.499 Y56.075 E11.70727
G1 X132.7 Y57.533 E11.72583
G1 X132.72 Y57.673 E11.7277
G1 X132.759 Y58.262 E11.73529
G1 X132.76 Y58.275
G0 F6000 X133.158 Y58.248
G1 F600 X133.173 Y58.462 E11.74129
G1 X133.187 Y58.675 E11.74725
G1 X132.974 Y58.675 E11.75103
G1 X132.204 Y58.675 E11.77255
G1 X132.128 Y57.601 E11.80265
G1 X131.889 Y55.96 E11.84899
G1 X131.527 Y54.341 E11.89536
G1 X131.045 Y52.755 E11.94169
G1 X130.448 Y51.208 E11.98804
G1 X129.737 Y49.711 E12.03435
G1 X128.916 Y48.269 E12.08073
G1 X127.991 Y46.893 E12.12707
G1 X126.966 Y45.59 E12.17341
G1 X125.845 Y44.367 E12.21978
G1 X124.639 Y43.232 E12.26606
G1 X123.349 Y42.187 E12.31246
G1 X121.987 Y41.242 E12.35879
G1 X120.557 Y40.402 E12.40515
G1 X119.069 Y39.669 E12.45151
G1 X117.532 Y39.051 E12.49781
G1 X115.951 Y38.547 E12.54419
G1 X114.337 Y38.164 E12.59055
G1 X112.7 Y37.901 E12.63689
