;FLAVOR:Marlin
;TIME:760
;Filament used: 0.289747m
;Layer height: 0.16
;MINX:62.69
;MINY:12.686
;MINZ:0.16
;MAXX:157.31
;MAXY:107.314
;MAXZ:1.8
;Generated with Cura_SteamEngine 4.4.0
M140 S80
M105
M190 S80
M104 S220
M105
M109 S220
M82 ;absolute extrusion mode
M201 X500.00 Y500.00 Z100.00 E5000.00 ;Setup machine max acceleration
M203 X500.00 Y500.00 Z10.00 E50.00 ;Setup machine max feedrate
M204 P500.00 R1000.00 T500.00 ;Setup Print/Retract/Travel acceleration
M205 X8.00 Y8.00 Z0.40 E5.00 ;Setup Jerk
M220 S100 ;Reset Feedrate
M221 S100 ;Reset Flowrate

G28 ;Home

G92 E0 ;Reset Extruder
G1 Z2.0 F3000 ;Move Z Axis up
G1 X10.1 Y20 Z0.28 F5000.0 ;Move to start position
G1 X10.1 Y200.0 Z0.28 F1500.0 E15 ;Draw the first line
G1 X10.4 Y200.0 Z0.28 F5000.0 ;Move to side a little
G1 X10.4 Y20 Z0.28 F1500.0 E30 ;Draw the second line
G92 E0 ;Reset Extruder
G1 Z2.0 F3000 ;Move Z Axis up

G92 E0
G92 E0
G1 F1500 E-2
;LAYER_COUNT:5
;LAYER:0
M107
G1 F300 Z1.16
;MESH:white.stl
G0 F6000 X88.343 Y70.43 Z1.16
;TYPE:WALL-OUTER
G1 F300 Z0.16
G1 F1500 E0
G1 F600 X87.43 Y70.637 E0.02617
G1 X86.375 Y70.844 E0.05621
G1 X85.323 Y71.018 E0.08602
G1 X84.26 Y71.162 E0.116
G1 X83.201 Y71.274 E0.14576
G1 X83.155 Y71.272 E0.14705
G1 X83.129 Y71.253 E0.14795
G1 X83.114 Y71.212 E0.14917
G1 X83.117 Y71.194 E0.14968
G1 X83.129 Y71.174 E0.15033
G1 X83.143 Y71.162 E0.15084
G1 X83.162 Y71.153 E0.15143
G1 X85.073 Y70.66 E0.20659
G1 X86.793 Y70.163 E0.25663
G1 X88.04 Y69.775 E0.29313
G1 X88.343 Y70.43 E0.3133
G1 F1500 E-1.6867
G1 F300 Z1.16
G0 F6000 X106.452 Y62.501 Z1.16
;TYPE:WALL-INNER
G1 F300 Z0.16
G1 F1500 E0.3133
G1 F600 X106.521 Y62.459 E0.31556
G1 X106.696 Y62.345 E0.3214
G1 X108.023 Y61.48 E0.36567
G1 X108.824 Y60.912 E0.39311
G1 X109.486 Y60.443 E0.41579
G1 X109.62 Y60.34 E0.42051
G1 X110.905 Y59.352 E0.46582
G1 X112.131 Y58.34 E0.51025
G1 X113.319 Y57.292 E0.55452
G1 X114.474 Y56.209 E0.59878
G1 X116.285 Y54.402 E0.67028
G1 X118.28 Y54.401 E0.72604
G1 X118.769 Y54.401 E0.73971
G1 X118.807 Y54.4 E0.74077
G1 X118.77 Y54.435 E0.74106
G1 X118.401 Y54.755 E0.74886
G1 X117.723 Y55.343 E0.77394
G1 X116.598 Y56.247 E0.81428
G1 X115.481 Y57.086 E0.85332
G1 X113.411 Y58.513 E0.92359
G1 X111.242 Y59.87 E0.9951
G1 X109.821 Y60.685 E1.04088
G1 X109.674 Y60.769 E1.04548
G1 X108.998 Y61.157 E1.06387
G1 X108.104 Y61.632 E1.0808
G1 X106.713 Y62.371 E1.09194
G1 X106.525 Y62.465 E1.09228
G1 X106.452 Y62.501 E1.0923
G0 F6000 X106.63 Y62.858
G1 F600 X104.899 Y63.72 E1.14635
G1 X102.886 Y64.661 E1.20846
G1 X102.278 Y64.925 E1.22698
G1 X102.204 Y64.957 E1.22923
G1 X100.82 Y65.558 E1.27141
G1 X99.28 Y66.174 E1.31776
G1 X98.765 Y66.38 E1.33327
G1 X97.904 Y66.693 E1.35887
G1 X98.728 Y66.303 E1.36155
G1 X99.235 Y66.063 E1.36561
G1 X100.688 Y65.307 E1.38854
G1 X102.048 Y64.599 E1.42474
G1 X102.118 Y64.559 E1.42697
G1 X104.792 Y63.029 E1.51307
G1 X106.309 Y62.12 E1.5625
G1 X107.798 Y61.149 E1.61219
G1 X109.248 Y60.121 E1.66186
G1 X110.656 Y59.039 E1.71149
G1 X111.871 Y58.036 E1.75553
G1 X113.05 Y56.996 E1.79947
G1 X114.196 Y55.921 E1.84338
G1 X116.029 Y54.092 E1.91576
G1 X116.146 Y54.002 E1.91988
G1 X119.309 Y53.999 E2.00828
G1 X119.31 Y53.999 E2.00831
G1 X119.809 Y53.999 E2.02226
G1 X119.447 Y54.343 E2.02973
G1 X119.082 Y54.689 E2.04379
G1 X119.032 Y54.737 E2.04573
G1 X117.974 Y55.655 E2.08488
G1 X116.849 Y56.559 E2.12521
G1 X115.72 Y57.407 E2.16468
G1 X113.638 Y58.841 E2.23534
G1 X113.623 Y58.852 E2.23586
G1 X111.454 Y60.208 E2.30735
G1 X111.441 Y60.217 E2.30779
G1 X109.193 Y61.506 E2.38022
G1 X106.9 Y62.724 E2.45278
G1 X106.63 Y62.858 E2.46121
G0 F6000 X106.097 Y61.781
G1 F600 X107.573 Y60.818 E2.51047
G1 X109.01 Y59.799 E2.5597
G1 X110.407 Y58.726 E2.60893
G1 X111.611 Y57.732 E2.65257
G1 X112.781 Y56.7 E2.69617
G1 X113.918 Y55.633 E2.73975
G1 X115.768 Y53.788 E2.81278
G1 X116.01 Y53.602 E2.82131
G1 X120.301 Y53.598 E2.94124
G1 X120.302 Y53.598 E2.94127
G1 X120.77 Y53.598 E2.95435
G1 X120.445 Y53.936 E2.96142
G1 X120.331 Y54.054 E2.966
G1 X119.294 Y55.039 E3.00598
G1 X118.225 Y55.967 E3.04554
G1 X117.1 Y56.871 E3.08588
G1 X115.959 Y57.727 E3.12575
G1 X115.947 Y57.735 E3.12615
G1 X113.85 Y59.18 E3.19733
G1 X113.835 Y59.191 E3.19785
G1 X111.653 Y60.555 E3.26977
G1 X111.64 Y60.564 E3.27021
G1 X109.388 Y61.855 E3.34276
G1 X107.087 Y63.077 E3.41558
G1 X105.077 Y64.078 E3.47834
G1 X103.045 Y65.028 E3.54103
G1 X100.979 Y65.925 E3.60398
G1 X98.914 Y66.75 E3.66613
G1 X98.902 Y66.755 E3.66649
G1 X96.955 Y67.464 E3.72441
G1 X95.002 Y68.118 E3.78197
G1 X93.981 Y68.436 E3.81186
G1 X93.403 Y68.615 E3.82877
G1 X93.022 Y68.734 E3.83992
G1 X91.103 Y69.288 E3.89575
G1 X91.04 Y69.154 E3.89989
G1 X91.05 Y69.151
G1 X92.91 Y68.442 E3.93193
G1 X93.302 Y68.293 E3.94152
G1 X93.859 Y68.056 E3.95712
G1 X96.204 Y67.054 E4.0284
G1 X99.057 Y65.705 E4.1166
G1 X101.856 Y64.248 E4.20479
G1 X104.59 Y62.684 E4.29283
G1 X106.097 Y61.781 E4.34193
G1 F1500 E2.34193
G1 F300 Z1.16
G0 F6000 X90.493 Y68.934 Z1.16
;TYPE:WALL-OUTER
G1 F300 Z0.16
G1 F1500 E4.34193
G1 F600 X93.152 Y67.922 E4.42144
G1 X96.04 Y66.689 E4.50921
G1 X98.879 Y65.347 E4.59698
G1 X101.664 Y63.897 E4.68473
G1 X104.388 Y62.339 E4.77244
G1 X105.885 Y61.442 E4.82122
G1 X107.348 Y60.487 E4.87005
G1 X108.772 Y59.477 E4.91884
G1 X110.158 Y58.413 E4.96768
G1 X111.351 Y57.428 E5.01092
G1 X112.512 Y56.404 E5.05418
G1 X113.64 Y55.345 E5.09743
G1 X115.507 Y53.484 E5.1711
G1 X115.874 Y53.202 E5.18404
G1 X121.427 Y53.197 E5.33924
G1 X121.466 Y53.202 E5.34034
G1 X121.495 Y53.214 E5.34122
G1 X121.518 Y53.231 E5.34202
G1 X121.535 Y53.253 E5.34279
G1 X121.548 Y53.283 E5.34371
G1 X121.553 Y53.309 E5.34445
G1 X121.55 Y53.336 E5.34521
G1 X121.539 Y53.366 E5.3461
G1 X121.517 Y53.397 E5.34716
G1 X120.606 Y54.344 E5.38389
G1 X119.556 Y55.341 E5.42436
G1 X118.476 Y56.279 E5.46434
G1 X117.351 Y57.183 E5.50467
G1 X116.198 Y58.047 E5.54494
G1 X114.047 Y59.53 E5.61796
G1 X111.839 Y60.911 E5.69075
G1 X109.583 Y62.204 E5.76343
G1 X107.274 Y63.43 E5.8365
G1 X105.255 Y64.436 E5.89954
G1 X103.204 Y65.395 E5.96282
G1 X101.138 Y66.292 E6.02577
G1 X99.039 Y67.13 E6.08894
G1 X97.092 Y67.84 E6.14686
G1 X95.121 Y68.5 E6.20496
G1 X93.141 Y69.116 E6.26291
G1 X90.895 Y69.764 E6.32825
G1 X90.772 Y69.522 E6.33583
G1 X90.493 Y68.934 E6.35402
G1 F1500 E4.35402
G1 F300 Z1.16
G0 F6000 X111.1 Y59.593 Z1.16
;TYPE:SKIN
G1 F300 Z0.16
G1 F1500 E6.35402
G1 F600 X112.332 Y58.576 E6.38081
G1 X113.528 Y57.521 E6.40756
G1 X114.689 Y56.432 E6.43425
G1 X116.414 Y54.712 E6.4751
G1 X117.979 Y54.71 E6.50135
G1 X117.529 Y55.101 E6.51134
G1 X116.409 Y56.001 E6.53544
G1 X115.305 Y56.83 E6.55859
G1 X113.235 Y58.257 E6.60075
G1 X111.1 Y59.593 E6.64299
G1 F1500 E4.64299
G1 F300 Z1.16
G0 F6000 X116.46 Y55.344 Z1.16
G1 F300 Z0.16
G1 F1500 E6.64299
G1 F600 X116.613 Y55.192 E6.6466
G1 X116.649 Y55.192 E6.64721
G1 X116.46 Y55.344 E6.65127
G0 F6000 X116.514 Y54.952
G1 F600 X117.332 Y54.951 E6.66499
G1 X116.259 Y55.813 E6.68807
G1 X115.169 Y56.632 E6.71094
G1 X113.88 Y57.521 E6.73719
G1 X114.855 Y56.604 E6.75964
G1 X116.514 Y54.952 E6.7989
G0 F6000 X116.746 Y55.087
;TYPE:SKIN
G1 F600 X116.835 Y55.175 E6.80065
G0 F6000 X116.365 Y55.553
G1 F600 X116.233 Y55.422 E6.80325
G0 F6000 X116.092 Y55.563
G1 F600 X116.208 Y55.679 E6.80554
G0 F6000 X116.047 Y55.802
G1 F600 X115.949 Y55.704 E6.80748
G0 F6000 X115.808 Y55.845
G1 F600 X115.885 Y55.922 E6.809
G0 F6000 X115.724 Y56.044
G1 F600 X115.666 Y55.986 E6.81015
G0 F6000 X115.524 Y56.128
G1 F600 X115.562 Y56.165 E6.81089
G1 F1500 E4.81089
G1 F300 Z1.16
G0 F6000 X113.754 Y57.751 Z1.16
G1 F300 Z0.16
G1 F1500 E6.81089
G1 F600 X113.611 Y57.608 E6.81371
G0 F6000 X113.46 Y57.74
G1 F600 X113.586 Y57.866 E6.8162
G0 F6000 X113.419 Y57.982
G1 F600 X113.31 Y57.873 E6.81836
G0 F6000 X113.16 Y58.006
G1 F600 X113.252 Y58.098 E6.82018
G0 F6000 X113.081 Y58.209
G1 F600 X113.009 Y58.138 E6.82159
G0 F6000 X112.859 Y58.271
G1 F600 X112.907 Y58.318 E6.82253
G1 F1500 E4.82253
G1 F300 Z1.16
G0 F6000 X110.981 Y59.787 Z1.16
G1 F300 Z0.16
G1 F1500 E6.82253
G1 F600 X110.845 Y59.65 E6.82523
G0 F6000 X110.685 Y59.773
G1 F600 X110.802 Y59.89 E6.82754
G0 F6000 X110.622 Y59.993
G1 F600 X110.525 Y59.896 E6.82946
G0 F6000 X110.365 Y60.019
G1 F600 X110.443 Y60.097 E6.831
G0 F6000 X110.263 Y60.2
G1 F600 X110.205 Y60.142 E6.83214
G0 F6000 X110.045 Y60.265
G1 F600 X110.083 Y60.303 E6.83289
G1 F1500 E4.83289
G1 F300 Z1.16
G0 F6000 X106.197 Y62.64 Z1.16
G1 F300 Z0.16
G1 F1500 E6.83289
G1 F600 X106.015 Y62.74 E6.83612
G1 X102.87 Y64.403 E6.89131
G1 F1500 E4.89131
G1 F300 Z1.16
G0 F6000 X97.636 Y66.806 Z1.16
G1 F300 Z0.16
G1 F1500 E6.89131
G1 F600 X97.437 Y66.89 E6.89457
G1 X94.793 Y67.923 E6.93748
G1 X94.587 Y67.999 E6.9408
G1 F1500 E4.9408
G1 F300 Z1.16
G0 F6000 X118.984 Y54.213 Z1.16
G1 F300 Z0.16
G1 F1500 E6.9408
G1 F600 X119.123 Y54.352 E6.94355
G0 F6000 X119.998 Y53.813
G1 F600 X120.131 Y53.945 E6.94617
G0 F6000 X121.011 Y53.412
G1 F600 X121.109 Y53.51 E6.9481
G1 F1500 E4.9481
G1 F300 Z1.16
G0 F6000 X106.666 Y57.943 Z1.16
;TYPE:WALL-INNER
G1 F300 Z0.16
G1 F1500 E6.9481
G1 F600 X102.329 Y54.742 E7.09876
G1 X101.843 Y54.384 E7.11563
G1 X102.446 Y54.384 E7.12447
G1 X102.447 Y54.383 E7.12451
G1 X103.875 Y54.38 E7.16443
G1 X107.425 Y57.009 E7.28789
G1 X107.426 Y57.01 E7.28793
G1 X107.631 Y57.161 E7.29505
G1 X107.432 Y57.322 E7.29937
G1 X106.666 Y57.943 E7.32693
G0 F6000 X106.678 Y58.449
G1 F600 X101.116 Y54.344 E7.52013
G1 X100.63 Y53.986 E7.53701
G1 X101.233 Y53.986 E7.54585
G1 X101.234 Y53.985 E7.54589
G1 X104.007 Y53.98 E7.62339
G1 X108.078 Y56.994 E7.76496
G1 X108.079 Y56.995 E7.765
G1 X108.284 Y57.146 E7.77212
G1 X108.085 Y57.307 E7.77644
G1 X106.678 Y58.449 E7.82709
G0 F6000 X106.689 Y58.955
G1 F600 X99.902 Y53.946 E8.06285
G1 X99.417 Y53.588 E8.07969
G1 X100.019 Y53.588 E8.08853
G1 X100.021 Y53.587 E8.08859
G1 X104.139 Y53.58 E8.20368
G1 X108.732 Y56.98 E8.3634
G1 X108.733 Y56.981 E8.36344
G1 X108.938 Y57.132 E8.37056
G1 X108.739 Y57.293 E8.37488
G1 X106.689 Y58.955 E8.44864
G0 F6000 X106.741 Y59.428
;TYPE:WALL-OUTER
G1 F600 X106.683 Y59.432 E8.45026
G1 X106.668 Y59.427 E8.4507
G1 X106.625 Y59.404 E8.45207
G1 X98.454 Y53.375 E8.73588
G1 X98.439 Y53.351 E8.73667
G1 X98.432 Y53.33 E8.73729
G1 X98.43 Y53.296 E8.73824
G1 X98.435 Y53.269 E8.739
G1 X98.446 Y53.246 E8.73972
G1 X98.486 Y53.206 E8.7413
G1 X98.517 Y53.194 E8.74223
G1 X98.552 Y53.19 E8.74321
G1 X104.252 Y53.18 E8.90252
G1 X104.306 Y53.206 E8.9042
G1 X109.463 Y57.023 E9.08352
G1 X109.495 Y57.053 E9.08474
G1 X109.508 Y57.074 E9.08543
G1 X109.517 Y57.105 E9.08634
G1 X109.517 Y57.133 E9.08712
G1 X109.511 Y57.16 E9.08789
G1 X109.496 Y57.188 E9.08878
G1 X109.464 Y57.221 E9.09006
G1 X106.741 Y59.428 E9.18803
G0 F6000 X106.674 Y58.894
G0 X106.658 Y57.551
;TYPE:SKIN
G1 F600 X102.784 Y54.692 E9.26877
G1 X103.774 Y54.69 E9.28537
G1 X107.126 Y57.172 E9.35531
G1 X106.658 Y57.551 E9.36541
G0 F6000 X106.735 Y57.18
G1 F600 X106.652 Y57.247 E9.3672
G1 X103.512 Y54.93 E9.43264
G1 X103.697 Y54.93 E9.43574
G1 X106.735 Y57.18 E9.49914
G1 F1500 E7.49914
G1 F300 Z1.16
G0 F6000 X103.259 Y54.893 Z1.16
;TYPE:SKIN
G1 F300 Z0.16
G1 F1500 E9.49914
G1 F600 X103.177 Y54.811 E9.50076
G1 F1500 E7.50076
G1 F300 Z1.16
G0 F6000 X101.628 Y54.394 Z1.16
G1 F300 Z0.16
G1 F1500 E9.50076
G1 F600 X101.434 Y54.199 E9.50461
G0 F6000 X100.407 Y54.021
G1 F600 X100.188 Y53.802 E9.50893
G0 F6000 X99.239 Y53.419
G1 F600 X99.063 Y53.526 E9.5144
G1 F1500 E7.5144
G1 F300 Z1.16
G0 F6000 X117.335 Y64.348 Z1.16
;TYPE:WALL-INNER
G1 F300 Z0.16
G1 F1500 E9.5144
G1 F600 X116.741 Y64.352 E9.531
G1 X116.74 Y64.353 E9.53104
G1 X115.375 Y64.366 E9.56919
G1 X113.713 Y63.141 E9.6269
G1 X113.47 Y62.962 E9.63533
G1 X113.73 Y62.811 E9.64021
G1 X113.731 Y62.81 E9.64025
G1 X114.587 Y62.312 E9.66793
G1 X116.857 Y63.994 E9.74689
G1 X117.335 Y64.348 E9.75563
G0 F6000 X117.937 Y64.742
G1 F600 X115.246 Y64.767 E9.83085
G1 X112.985 Y63.101 E9.90934
G1 X112.742 Y62.922 E9.91778
G1 X113.002 Y62.771 E9.92266
G1 X113.003 Y62.77 E9.9227
G1 X114.613 Y61.834 E9.97475
G1 X118.054 Y64.383 E10.09443
G1 X118.532 Y64.737 E10.11106
G1 X117.938 Y64.741 E10.11979
G1 X117.937 Y64.742 E10.11982
G0 F6000 X119.134 Y65.131
G1 F600 X115.116 Y65.168 E10.23213
G1 X112.257 Y63.061 E10.33139
G1 X112.014 Y62.882 E10.33983
G1 X112.274 Y62.731 E10.34471
G1 X112.275 Y62.73 E10.34475
G1 X114.639 Y61.356 E10.42117
G1 X119.251 Y64.772 E10.58158
G1 X119.729 Y65.126 E10.5982
G1 X119.135 Y65.13 E10.60693
G1 X119.134 Y65.131 E10.60697
G1 F1500 E8.60697
G1 F300 Z1.16
G0 F6000 X120.692 Y65.377 Z1.16
;TYPE:WALL-OUTER
G1 F300 Z0.16
G1 F1500 E10.60697
G1 F600 X120.694 Y65.41 E10.60789
G1 X120.688 Y65.441 E10.60878
G1 X120.679 Y65.46 E10.60936
G1 X120.659 Y65.485 E10.61026
G1 X120.637 Y65.501 E10.61102
G1 X120.61 Y65.512 E10.61183
G1 X120.569 Y65.518 E10.61299
G1 X115.005 Y65.569 E10.76851
G1 X114.98 Y65.561 E10.76924
G1 X114.958 Y65.548 E10.76995
G1 X111.437 Y62.953 E10.8922
G1 X111.408 Y62.925 E10.89333
G1 X111.392 Y62.9 E10.89416
G1 X111.385 Y62.877 E10.89483
G1 X111.383 Y62.847 E10.89567
G1 X111.388 Y62.816 E10.89655
G1 X111.398 Y62.794 E10.89722
G1 X111.416 Y62.772 E10.89802
G1 X111.448 Y62.748 E10.89914
G1 X114.587 Y60.923 E11.00062
G1 X114.625 Y60.907 E11.00177
G1 X114.651 Y60.902 E11.00251
G1 X114.677 Y60.904 E11.00324
G1 X114.735 Y60.93 E11.00502
G1 X120.639 Y65.302 E11.21035
G1 X120.669 Y65.331 E11.21151
G1 X120.692 Y65.377 E11.21295
G1 F1500 E9.21295
G1 F300 Z1.16
G0 F6000 X116.408 Y64.046 Z1.16
;TYPE:SKIN
G1 F300 Z0.16
G1 F1500 E11.21295
G1 F600 X115.476 Y64.055 E11.22858
G1 X114.034 Y62.993 E11.25861
G1 X114.567 Y62.682 E11.26896
G1 X116.408 Y64.046 E11.30738
G0 F6000 X115.693 Y63.813
G1 F600 X115.554 Y63.815 E11.30971
G1 X114.471 Y63.017 E11.33227
G1 X114.553 Y62.969 E11.33387
G1 X115.693 Y63.813 E11.35765
G0 F6000 X115.838 Y63.795
;TYPE:SKIN
G1 F600 X115.972 Y63.929 E11.3603
G1 F1500 E9.3603
G1 F300 Z1.16
G0 F6000 X117.539 Y64.365 Z1.16
G1 F300 Z0.16
G1 F1500 E11.3603
G1 F600 X117.703 Y64.529 E11.36354
G0 F6000 X118.745 Y64.722
G1 F600 X118.941 Y64.918 E11.36742
G0 F6000 X119.953 Y65.082
G1 F600 X120.178 Y65.306 E11.37185
G1 F1500 E9.37185
G1 F300 Z1.16
G0 F6000 X137.794 Y96.792 Z1.16
;TYPE:WALL-INNER
G1 F300 Z0.16
G1 F1500 E11.37185
G1 F600 X137.887 Y96.718 E11.37517
G1 X138.002 Y96.625 E11.37931
G1 X139.669 Y95.295 E11.43891
G1 X139.696 Y95.274 E11.43987
G1 X139.725 Y95.248 E11.44096
G1 X141.488 Y93.681 E11.50688
G1 X141.514 Y93.658 E11.50785
G1 X141.541 Y93.631 E11.50892
G1 X143.219 Y91.975 E11.57481
G1 X143.246 Y91.949 E11.57586
G1 X143.271 Y91.921 E11.57691
G1 X144.808 Y90.239 E11.64059
G1 X144.888 Y90.151 E11.64391
G1 X144.951 Y90.074 E11.64669
G1 X146.401 Y88.302 E11.71069
G1 X146.43 Y88.267 E11.71196
G1 X146.448 Y88.242 E11.71282
G1 X147.871 Y86.305 E11.77999
G1 X149.206 Y84.271 E11.84799
G1 X150.433 Y82.167 E11.91607
G1 X151.546 Y80.005 E11.98403
G1 X152.544 Y77.783 E12.05211
G1 X153.423 Y75.515 E12.12009
G1 X154.181 Y73.202 E12.18812
G1 X154.817 Y70.851 E12.25619
G1 X155.324 Y68.482 E12.3239
G1 X155.327 Y68.472 E12.3242
G1 X155.711 Y66.069 E12.39221
G1 X155.967 Y63.648 E12.46025
G1 X156.096 Y61.218 E12.52826
G1 X156.096 Y58.782 E12.59635
G1 X155.967 Y56.352 E12.66436
G1 X155.711 Y53.931 E12.7324
G1 X155.668 Y53.669 E12.73982
G1 X155.327 Y51.529 E12.80039
G1 X154.817 Y49.149 E12.86842
G1 X154.181 Y46.798 E12.93649
G1 X153.423 Y44.485 E13.00452
G1 X152.544 Y42.217 E13.0725
G1 X151.546 Y39.995 E13.14058
G1 X150.433 Y37.833 E13.20854
G1 X149.206 Y35.729 E13.27662
G1 X147.888 Y33.72 E13.34377
G1 X147.871 Y33.695 E13.34462
G1 X147.844 Y33.658 E13.3459
G1 X146.448 Y31.758 E13.41179
G1 X146.43 Y31.733 E13.41265
G1 X146.401 Y31.698 E13.41392
G1 X144.931 Y29.901 E13.47881
G1 X144.888 Y29.849 E13.4807
G1 X144.835 Y29.79 E13.48292
G1 X143.246 Y28.051 E13.54875
G1 X141.541 Y26.369 E13.61569
G1 X141.514 Y26.342 E13.61676
G1 X141.488 Y26.319 E13.61773
G1 X139.725 Y24.752 E13.68365
G1 X139.696 Y24.726 E13.68474
G1 X139.67 Y24.705 E13.68568
G1 X137.827 Y23.236 E13.75155
G1 X137.792 Y23.208 E13.7528
G1 X137.766 Y23.19 E13.75369
G1 X135.851 Y21.82 E13.81949
G1 X135.812 Y21.792 E13.82084
G1 X135.787 Y21.776 E13.82167
