;FLAVOR:Marlin
;TIME:720
;Filament used: 0.228617m
;Layer height: 0.16
;MINX:62.64
;MINY:17.636
;MINZ:0.16
;MAXX:157.36
;MAXY:112.364
;MAXZ:1.64
;Generated with Cura_SteamEngine 4.4.0
M140 S80
M105
M190 S80
M104 S220
M105
M109 S220
M82 ;absolute extrusion mode
M201 X500.00 Y500.00 Z100.00 E5000.00 ;Setup machine max acceleration
M203 X500.00 Y500.00 Z10.00 E50.00 ;Setup machine max feedrate
M204 P500.00 R1000.00 T500.00 ;Setup Print/Retract/Travel acceleration
M205 X8.00 Y8.00 Z0.40 E5.00 ;Setup Jerk
M220 S100 ;Reset Feedrate
M221 S100 ;Reset Flowrate

G28 ;Home

G92 E0 ;Reset Extruder
G1 Z2.0 F3000 ;Move Z Axis up
G1 X10.1 Y20 Z0.28 F5000.0 ;Move to start position
G1 X10.1 Y200.0 Z0.28 F1500.0 E15 ;Draw the first line
G1 X10.4 Y200.0 Z0.28 F5000.0 ;Move to side a little
G1 X10.4 Y20 Z0.28 F1500.0 E30 ;Draw the second line
G92 E0 ;Reset Extruder
G1 Z2.0 F3000 ;Move Z Axis up

G92 E0
G92 E0
G1 F1500 E-2
;LAYER_COUNT:4
;LAYER:0
M107
G1 F300 Z1.16
;MESH:white.stl
G0 F6000 X71.298 Y39.864 Z1.16
;TYPE:WALL-INNER
G1 F300 Z0.16
G1 F1500 E0
G1 F600 X70.037 Y41.923 E0.05061
G1 X68.885 Y44.047 E0.10126
G1 X67.844 Y46.228 E0.15192
G1 X66.92 Y48.458 E0.20252
G1 X66.113 Y50.737 E0.2532
G1 X65.426 Y53.053 E0.30384
G1 X64.86 Y55.405 E0.35455
G1 X64.423 Y57.78 E0.40517
G1 X64.108 Y60.176 E0.45582
G1 X63.916 Y62.583 E0.50644
G1 X63.854 Y65 E0.55712
G1 X63.916 Y67.417 E0.6078
G1 X64.108 Y69.824 E0.65842
G1 X64.423 Y72.22 E0.70907
G1 X64.86 Y74.595 E0.75969
G1 X65.426 Y76.947 E0.8104
G1 X66.113 Y79.263 E0.86104
G1 X66.92 Y81.542 E0.91172
G1 X67.844 Y83.772 E0.96232
G1 X68.885 Y85.953 E1.01298
G1 X70.037 Y88.077 E1.06363
G1 X71.298 Y90.136 E1.11424
G1 X72.668 Y92.127 E1.1649
G1 X74.139 Y94.046 E1.21559
G1 X75.708 Y95.883 E1.26623
G1 X77.372 Y97.635 E1.31688
G1 X79.058 Y99.237 E1.36563
G1 X79.124 Y99.3 E1.36754
G1 X79.232 Y99.392 E1.37051
G1 X80.936 Y100.846 E1.41747
G1 X80.962 Y100.868 E1.41818
G1 X80.996 Y100.894 E1.41908
G1 X82.854 Y102.32 E1.46818
G1 X82.88 Y102.34 E1.46886
G1 X82.915 Y102.364 E1.46975
G1 X84.755 Y103.63 E1.51657
G1 X84.871 Y103.709 E1.51951
G1 X85.013 Y103.796 E1.523
G1 X86.829 Y104.909 E1.56765
G1 X86.931 Y104.971 E1.57015
G1 X87.028 Y105.023 E1.57246
G1 X89.019 Y106.104 E1.61995
G1 X89.055 Y106.123 E1.6208
G1 X89.087 Y106.138 E1.62154
G1 X91.16 Y107.128 E1.6697
G1 X91.235 Y107.164 E1.67144
G1 X91.298 Y107.19 E1.67287
G1 X93.468 Y108.088 E1.7221
G1 X95.745 Y108.894 E1.77273
G1 X98.061 Y109.582 E1.82338
G1 X100.362 Y110.135 E1.87298
G1 X100.413 Y110.147 E1.87408
G1 X100.441 Y110.152 E1.87468
G1 X102.788 Y110.585 E1.92471
G1 X105.184 Y110.9 E1.97536
G1 X107.591 Y111.092 E2.02598
G1 X110.008 Y111.154 E2.07666
G1 X112.424 Y111.092 E2.12732
G1 X114.831 Y110.9 E2.17793
G1 X117.228 Y110.585 E2.22861
G1 X119.602 Y110.147 E2.27922
G1 X121.955 Y109.582 E2.32994
G1 X124.271 Y108.894 E2.38059
G1 X126.55 Y108.088 E2.43126
G1 X128.78 Y107.164 E2.48186
G1 X130.961 Y106.123 E2.53251
G1 X133.085 Y104.971 E2.58316
G1 X135.144 Y103.709 E2.63379
G1 X137.135 Y102.34 E2.68444
G1 X139.054 Y100.868 E2.73513
G1 X140.891 Y99.3 E2.78576
G1 X142.643 Y97.635 E2.83642
G1 X144.308 Y95.883 E2.88709
G1 X145.876 Y94.046 E2.93772
G1 X147.348 Y92.127 E2.98841
G1 X148.717 Y90.136 E3.03906
G1 X149.979 Y88.077 E3.08968
G1 X151.131 Y85.953 E3.14033
G1 X152.171 Y83.772 E3.19098
G1 X153.086 Y81.566 E3.24105
G1 X153.096 Y81.542 E3.24159
G1 X153.115 Y81.489 E3.24277
G1 X153.902 Y79.263 E3.29226
G1 X154.582 Y76.974 E3.34232
G1 X154.59 Y76.947 E3.34291
G1 X154.601 Y76.898 E3.34396
G1 X155.141 Y74.656 E3.3923
G1 X155.155 Y74.595 E3.39361
G1 X155.171 Y74.506 E3.39551
G1 X155.592 Y72.22 E3.44423
G1 X155.908 Y69.825 E3.49487
G1 X156.089 Y67.556 E3.54258
G1 X156.1 Y67.417 E3.54551
G1 X156.104 Y67.258 E3.54884
G1 X156.162 Y65.038 E3.59539
G1 X156.162 Y65 E3.59619
G1 X156.162 Y64.962 E3.59699
G1 X156.103 Y62.738 E3.64362
G1 X156.1 Y62.583 E3.64687
G1 X156.089 Y62.443 E3.64981
G1 X155.908 Y60.175 E3.69751
G1 X155.592 Y57.78 E3.74815
G1 X155.178 Y55.534 E3.79602
G1 X155.155 Y55.405 E3.79877
G1 X155.134 Y55.316 E3.80068
G1 X154.612 Y53.148 E3.84743
G1 X154.59 Y53.053 E3.84947
G1 X154.574 Y52.998 E3.85067
G1 X153.902 Y50.737 E3.90012
G1 X153.096 Y48.458 E3.95079
G1 X152.171 Y46.228 E4.00139
G1 X151.131 Y44.047 E4.05204
G1 X149.979 Y41.923 E4.10269
G1 X148.717 Y39.864 E4.15332
G1 X147.348 Y37.873 E4.20397
G1 X145.876 Y35.954 E4.25466
G1 X144.308 Y34.117 E4.30529
G1 X142.643 Y32.365 E4.35595
G1 X140.891 Y30.7 E4.40662
G1 X139.054 Y29.132 E4.45725
G1 X137.135 Y27.66 E4.50794
G1 X135.144 Y26.291 E4.55859
G1 X133.085 Y25.029 E4.60921
G1 X130.961 Y23.877 E4.65986
G1 X128.78 Y22.836 E4.71052
G1 X126.55 Y21.912 E4.76112
G1 X124.271 Y21.106 E4.81179
G1 X121.955 Y20.418 E4.86244
G1 X119.602 Y19.853 E4.91316
G1 X117.228 Y19.415 E4.96377
G1 X114.831 Y19.1 E5.01444
G1 X112.424 Y18.908 E5.06506
G1 X110.008 Y18.846 E5.11572
G1 X107.591 Y18.908 E5.1664
G1 X105.184 Y19.1 E5.21702
G1 X102.788 Y19.415 E5.26767
G1 X100.44 Y19.848 E5.31772
G1 X100.413 Y19.853 E5.3183
G1 X100.362 Y19.865 E5.3194
G1 X98.091 Y20.411 E5.36836
G1 X98.061 Y20.418 E5.369
G1 X98.017 Y20.431 E5.36996
G1 X95.745 Y21.106 E5.41965
G1 X93.529 Y21.891 E5.46893
G1 X93.468 Y21.912 E5.47028
G1 X93.385 Y21.946 E5.47216
G1 X91.297 Y22.81 E5.51953
G1 X91.235 Y22.836 E5.52094
G1 X91.161 Y22.871 E5.52265
G1 X89.086 Y23.862 E5.57085
G1 X89.055 Y23.877 E5.57158
G1 X89.02 Y23.896 E5.57241
G1 X87.026 Y24.978 E5.61997
G1 X86.931 Y25.029 E5.62223
G1 X86.832 Y25.09 E5.62466
G1 X85.008 Y26.207 E5.6695
G1 X84.871 Y26.291 E5.67287
G1 X84.756 Y26.37 E5.67579
G1 X82.95 Y27.612 E5.72174
G1 X82.88 Y27.66 E5.72352
G1 X82.827 Y27.7 E5.72491
G1 X81.033 Y29.078 E5.77233
G1 X80.962 Y29.132 E5.7742
G1 X80.913 Y29.174 E5.77555
G1 X79.229 Y30.611 E5.82195
G1 X79.124 Y30.7 E5.82484
G1 X79.058 Y30.763 E5.82675
G1 X77.372 Y32.365 E5.8755
G1 X75.708 Y34.117 E5.92615
G1 X74.139 Y35.954 E5.97679
G1 X72.668 Y37.873 E6.02748
G1 X71.298 Y39.864 E6.07814
G0 F6000 X71.55 Y40.027
G1 F600 X70.297 Y42.073 E6.12843
G1 X69.152 Y44.183 E6.17875
G1 X68.118 Y46.35 E6.22908
G1 X67.2 Y48.566 E6.27936
G1 X66.398 Y50.83 E6.32971
G1 X65.716 Y53.131 E6.38002
G1 X65.154 Y55.467 E6.43038
G1 X64.719 Y57.827 E6.48068
G1 X64.406 Y60.207 E6.531
G1 X64.216 Y62.599 E6.5813
G1 X64.154 Y65 E6.63165
G1 X64.216 Y67.401 E6.68199
G1 X64.406 Y69.793 E6.73229
G1 X64.719 Y72.173 E6.78261
G1 X65.154 Y74.533 E6.83292
G1 X65.716 Y76.869 E6.88328
G1 X66.398 Y79.17 E6.93359
G1 X67.2 Y81.434 E6.98393
G1 X68.118 Y83.65 E7.03421
G1 X69.152 Y85.817 E7.08454
G1 X70.297 Y87.927 E7.13487
G1 X71.55 Y89.973 E7.18516
G1 X72.911 Y91.951 E7.23549
G1 X74.372 Y93.857 E7.28583
G1 X75.931 Y95.682 E7.33614
G1 X77.584 Y97.423 E7.38647
G1 X79.325 Y99.077 E7.4368
G1 X81.151 Y100.635 E7.48712
G1 X83.056 Y102.097 E7.53746
G1 X85.034 Y103.457 E7.58777
G1 X87.081 Y104.711 E7.63809
G1 X89.191 Y105.856 E7.68842
G1 X91.357 Y106.89 E7.73873
G1 X93.575 Y107.808 E7.78905
G1 X95.838 Y108.609 E7.83937
G1 X98.139 Y109.292 E7.88968
G1 X100.475 Y109.853 E7.94004
G1 X102.835 Y110.289 E7.99035
G1 X105.215 Y110.602 E8.04066
G1 X107.607 Y110.792 E8.09096
G1 X110.008 Y110.854 E8.14131
G1 X112.408 Y110.792 E8.19163
G1 X114.8 Y110.602 E8.24193
G1 X117.181 Y110.289 E8.29227
G1 X119.54 Y109.853 E8.34256
G1 X121.877 Y109.292 E8.39294
G1 X124.178 Y108.609 E8.44325
G1 X126.442 Y107.808 E8.49359
G1 X128.658 Y106.89 E8.54387
G1 X130.825 Y105.856 E8.5942
G1 X132.935 Y104.711 E8.64453
G1 X134.981 Y103.457 E8.69483
G1 X136.959 Y102.097 E8.74515
G1 X138.865 Y100.635 E8.7955
G1 X140.69 Y99.077 E8.8458
G1 X142.431 Y97.423 E8.89614
G1 X144.085 Y95.682 E8.94647
G1 X145.643 Y93.857 E8.99677
G1 X147.105 Y91.951 E9.04713
G1 X148.465 Y89.973 E9.09745
G1 X149.719 Y87.927 E9.14775
G1 X150.864 Y85.817 E9.19807
G1 X151.897 Y83.65 E9.24839
G1 X152.816 Y81.434 E9.29868
G1 X153.617 Y79.17 E9.34902
G1 X154.3 Y76.869 E9.39933
G1 X154.861 Y74.533 E9.44969
G1 X155.296 Y72.173 E9.5
G1 X155.61 Y69.793 E9.55032
G1 X155.8 Y67.401 E9.60062
G1 X155.862 Y65 E9.65096
G1 X155.8 Y62.599 E9.70131
G1 X155.61 Y60.207 E9.75161
G1 X155.296 Y57.827 E9.80193
G1 X154.861 Y55.467 E9.85223
G1 X154.3 Y53.131 E9.90259
G1 X153.617 Y50.83 E9.9529
G1 X152.816 Y48.566 E10.00324
G1 X151.897 Y46.35 E10.05353
G1 X150.864 Y44.183 E10.10385
G1 X149.719 Y42.073 E10.15418
G1 X148.465 Y40.027 E10.20448
G1 X147.105 Y38.049 E10.2548
G1 X145.643 Y36.143 E10.30515
G1 X144.085 Y34.318 E10.35545
G1 X142.431 Y32.577 E10.40579
G1 X140.69 Y30.923 E10.45612
G1 X138.865 Y29.365 E10.50642
G1 X136.959 Y27.903 E10.55678
G1 X134.981 Y26.543 E10.6071
G1 X132.935 Y25.289 E10.6574
G1 X130.825 Y24.144 E10.70772
G1 X128.658 Y23.11 E10.75805
G1 X126.442 Y22.192 E10.80833
G1 X124.178 Y21.391 E10.85867
G1 X121.877 Y20.708 E10.90898
G1 X119.54 Y20.147 E10.95936
G1 X117.181 Y19.711 E11.00965
G1 X114.8 Y19.398 E11.05999
G1 X112.408 Y19.208 E11.11029
G1 X110.008 Y19.146 E11.16061
G1 X107.607 Y19.208 E11.21096
G1 X105.215 Y19.398 E11.26126
G1 X102.835 Y19.711 E11.31158
G1 X100.475 Y20.147 E11.36188
G1 X98.139 Y20.708 E11.41224
G1 X95.838 Y21.391 E11.46256
G1 X93.575 Y22.192 E11.51288
G1 X91.357 Y23.11 E11.5632
G1 X89.191 Y24.144 E11.61351
G1 X87.081 Y25.289 E11.66383
G1 X85.034 Y26.543 E11.71415
G1 X83.056 Y27.903 E11.76447
G1 X81.151 Y29.365 E11.8148
G1 X79.325 Y30.923 E11.86512
G1 X77.584 Y32.577 E11.91546
G1 X75.931 Y34.318 E11.96578
G1 X74.372 Y36.143 E12.01609
G1 X72.911 Y38.049 E12.06644
G1 X71.55 Y40.027 E12.11676
G0 F6000 X71.802 Y40.19
G1 F600 X70.557 Y42.223 E12.16674
G1 X69.419 Y44.319 E12.21673
G1 X68.392 Y46.472 E12.26673
G1 X67.48 Y48.674 E12.31669
G1 X66.683 Y50.923 E12.36671
G1 X66.006 Y53.209 E12.41669
G1 X65.448 Y55.529 E12.4667
G1 X65.015 Y57.874 E12.51669
G1 X64.704 Y60.238 E12.56667
G1 X64.516 Y62.615 E12.61665
G1 X64.454 Y65 E12.66666
G1 X64.516 Y67.385 E12.71668
G1 X64.704 Y69.762 E12.76666
G1 X65.015 Y72.126 E12.81664
G1 X65.448 Y74.471 E12.86662
G1 X66.006 Y76.791 E12.91664
G1 X66.683 Y79.077 E12.96662
G1 X67.48 Y81.326 E13.01663
G1 X68.392 Y83.528 E13.0666
G1 X69.419 Y85.681 E13.1166
G1 X70.557 Y87.777 E13.16659
G1 X71.802 Y89.81 E13.21656
G1 X73.154 Y91.775 E13.26656
G1 X74.605 Y93.668 E13.31656
G1 X76.154 Y95.481 E13.36654
G1 X77.796 Y97.211 E13.41654
G1 X79.526 Y98.854 E13.46655
G1 X81.34 Y100.402 E13.51654
G1 X83.232 Y101.854 E13.56654
G1 X85.197 Y103.205 E13.61652
G1 X87.231 Y104.451 E13.66652
G1 X89.327 Y105.589 E13.71652
G1 X91.479 Y106.616 E13.7665
G1 X93.682 Y107.528 E13.81648
G1 X95.931 Y108.324 E13.86649
G1 X98.217 Y109.002 E13.91647
G1 X100.537 Y109.559 E13.96648
G1 X102.882 Y109.993 E14.01647
G1 X105.246 Y110.304 E14.06645
G1 X107.623 Y110.492 E14.11644
G1 X110.008 Y110.554 E14.16645
G1 X112.392 Y110.492 E14.21644
G1 X114.769 Y110.304 E14.26642
G1 X117.134 Y109.993 E14.31642
G1 X119.478 Y109.559 E14.36639
G1 X121.799 Y109.002 E14.41642
G1 X124.085 Y108.324 E14.46641
G1 X126.334 Y107.528 E14.51642
G1 X128.536 Y106.616 E14.56638
G1 X130.689 Y105.589 E14.61638
G1 X132.785 Y104.451 E14.66637
G1 X134.818 Y103.205 E14.71636
G1 X136.783 Y101.854 E14.76634
G1 X138.676 Y100.402 E14.81635
G1 X140.489 Y98.854 E14.86632
G1 X142.219 Y97.211 E14.91634
G1 X143.862 Y95.481 E14.96635
G1 X145.41 Y93.668 E15.01632
G1 X146.862 Y91.775 E15.06633
G1 X148.213 Y89.81 E15.11632
G1 X149.459 Y87.777 E15.1663
G1 X150.597 Y85.681 E15.21629
G1 X151.623 Y83.528 E15.26629
G1 X152.536 Y81.326 E15.31625
G1 X153.332 Y79.077 E15.36626
G1 X154.01 Y76.791 E15.41625
G1 X154.567 Y74.471 E15.46626
G1 X155 Y72.126 E15.51625
G1 X155.312 Y69.762 E15.56623
G1 X155.5 Y67.385 E15.61621
G1 X155.562 Y65 E15.66622
G1 X155.5 Y62.615 E15.71623
G1 X155.312 Y60.238 E15.76621
G1 X155 Y57.874 E15.8162
G1 X154.567 Y55.529 E15.86618
G1 X154.01 Y53.209 E15.9162
G1 X153.332 Y50.923 E15.96618
G1 X152.536 Y48.674 E16.01619
G1 X151.623 Y46.472 E16.06616
G1 X150.597 Y44.319 E16.11615
G1 X149.459 Y42.223 E16.16615
G1 X148.213 Y40.19 E16.21613
G1 X146.862 Y38.225 E16.26611
G1 X145.41 Y36.332 E16.31612
G1 X143.862 Y34.519 E16.3661
G1 X142.219 Y32.789 E16.41611
G1 X140.489 Y31.146 E16.46612
G1 X138.676 Y29.598 E16.51609
G1 X136.783 Y28.146 E16.5661
G1 X134.818 Y26.795 E16.61609
G1 X132.785 Y25.549 E16.66607
G1 X130.689 Y24.411 E16.71606
G1 X128.536 Y23.384 E16.76607
G1 X126.334 Y22.472 E16.81603
G1 X124.085 Y21.676 E16.86604
G1 X121.799 Y20.998 E16.91602
G1 X119.478 Y20.441 E16.96605
G1 X117.134 Y20.007 E17.01602
G1 X114.769 Y19.696 E17.06602
G1 X112.392 Y19.508 E17.11601
G1 X110.008 Y19.446 E17.166
G1 X107.623 Y19.508 E17.21601
G1 X105.246 Y19.696 E17.26599
G1 X102.882 Y20.007 E17.31597
G1 X100.537 Y20.441 E17.36596
G1 X98.217 Y20.998 E17.41597
G1 X95.931 Y21.676 E17.46596
G1 X93.682 Y22.472 E17.51596
G1 X91.479 Y23.384 E17.56594
G1 X89.327 Y24.411 E17.61593
G1 X87.231 Y25.549 E17.66592
G1 X85.197 Y26.795 E17.71592
G1 X83.232 Y28.146 E17.76591
G1 X81.34 Y29.598 E17.8159
G1 X79.526 Y31.146 E17.86589
G1 X77.796 Y32.789 E17.9159
G1 X76.154 Y34.519 E17.9659
G1 X74.605 Y36.332 E18.01589
G1 X73.154 Y38.225 E18.06588
G1 X71.802 Y40.19 E18.11588
G0 F6000 X72.054 Y40.353
;TYPE:WALL-OUTER
G1 F600 X70.817 Y42.373 E18.16553
G1 X69.686 Y44.455 E18.2152
G1 X68.666 Y46.594 E18.26487
G1 X67.76 Y48.782 E18.31451
G1 X66.968 Y51.016 E18.3642
G1 X66.296 Y53.287 E18.41384
G1 X65.742 Y55.591 E18.46352
G1 X65.311 Y57.921 E18.51319
G1 X65.002 Y60.269 E18.56283
G1 X64.816 Y62.631 E18.61249
G1 X64.754 Y65 E18.66217
G1 X64.816 Y67.369 E18.71184
G1 X65.002 Y69.731 E18.76151
G1 X65.311 Y72.079 E18.81115
G1 X65.742 Y74.409 E18.86082
G1 X66.296 Y76.713 E18.91049
G1 X66.968 Y78.984 E18.96014
G1 X67.76 Y81.218 E19.00982
G1 X68.666 Y83.406 E19.05947
G1 X69.686 Y85.545 E19.10914
G1 X70.817 Y87.627 E19.15881
G1 X72.054 Y89.647 E19.20846
G1 X73.397 Y91.599 E19.25812
G1 X74.838 Y93.479 E19.30778
G1 X76.377 Y95.28 E19.35744
G1 X78.008 Y96.999 E19.40711
G1 X79.727 Y98.631 E19.45679
G1 X81.529 Y100.169 E19.50645
G1 X83.408 Y101.611 E19.5561
G1 X85.36 Y102.953 E19.60576
G1 X87.381 Y104.191 E19.65544
G1 X89.463 Y105.322 E19.70511
G1 X91.601 Y106.342 E19.75476
G1 X93.79 Y107.248 E19.80442
G1 X96.024 Y108.039 E19.8541
G1 X98.295 Y108.712 E19.90375
G1 X100.599 Y109.265 E19.95342
G1 X102.929 Y109.697 E20.00309
G1 X105.277 Y110.006 E20.05273
G1 X107.639 Y110.192 E20.1024
G1 X110.008 Y110.254 E20.15207
G1 X112.376 Y110.192 E20.20173
G1 X114.738 Y110.006 E20.25139
G1 X117.087 Y109.697 E20.30106
G1 X119.416 Y109.265 E20.35071
G1 X121.721 Y108.712 E20.4004
G1 X123.992 Y108.039 E20.45005
G1 X126.226 Y107.248 E20.49973
G1 X128.414 Y106.342 E20.54937
G1 X130.553 Y105.322 E20.59904
G1 X132.635 Y104.191 E20.64871
G1 X134.655 Y102.953 E20.69837
G1 X136.607 Y101.611 E20.74803
G1 X138.487 Y100.169 E20.79769
G1 X140.288 Y98.631 E20.84734
G1 X142.007 Y96.999 E20.89702
G1 X143.639 Y95.28 E20.94671
G1 X145.177 Y93.479 E20.99635
G1 X146.619 Y91.599 E21.04602
G1 X147.961 Y89.647 E21.09567
G1 X149.199 Y87.627 E21.14534
G1 X150.33 Y85.545 E21.195
G1 X151.349 Y83.406 E21.24467
G1 X152.256 Y81.218 E21.29432
G1 X153.047 Y78.984 E21.344
G1 X153.72 Y76.713 E21.39365
G1 X154.273 Y74.409 E21.44331
G1 X154.704 Y72.079 E21.49298
G1 X155.014 Y69.731 E21.54263
G1 X155.2 Y67.369 E21.59229
G1 X155.262 Y65 E21.64197
G1 X155.2 Y62.631 E21.69165
G1 X155.014 Y60.269 E21.74131
G1 X154.704 Y57.921 E21.79096
G1 X154.273 Y55.591 E21.84063
G1 X153.72 Y53.287 E21.89029
G1 X153.047 Y51.016 E21.93995
G1 X152.256 Y48.782 E21.98962
G1 X151.349 Y46.594 E22.03927
G1 X150.33 Y44.455 E22.08894
G1 X149.199 Y42.373 E22.1386
G1 X147.961 Y40.353 E22.18827
G1 X146.619 Y38.401 E22.23792
G1 X145.177 Y36.521 E22.28759
G1 X143.639 Y34.72 E22.33723
G1 X142.007 Y33.001 E22.38692
G1 X140.288 Y31.369 E22.4366
G1 X138.487 Y29.831 E22.48625
G1 X136.607 Y28.389 E22.53591
G1 X134.655 Y27.047 E22.58557
G1 X132.635 Y25.809 E22.63523
G1 X130.553 Y24.678 E22.6849
G1 X128.414 Y23.658 E22.73457
G1 X126.226 Y22.752 E22.78421
G1 X123.992 Y21.961 E22.83389
G1 X121.721 Y21.288 E22.88354
G1 X119.416 Y20.735 E22.93323
G1 X117.087 Y20.303 E22.98288
G1 X114.738 Y19.994 E23.03255
G1 X112.376 Y19.808 E23.08221
G1 X110.008 Y19.746 E23.13187
