;FLAVOR:Marlin
;TIME:140
;Filament used: 0.0324982m
;Layer height: 0.12
;MINX:87.521
;MINY:42.513
;MINZ:0.16
;MAXX:132.493
;MAXY:87.487
;MAXZ:0.28
;Generated with Cura_SteamEngine 4.4.0
M140 S80
M105
M190 S80
M104 S220
M105
M109 S220
M82 ;absolute extrusion mode
M201 X500.00 Y500.00 Z100.00 E5000.00 ;Setup machine max acceleration
M203 X500.00 Y500.00 Z10.00 E50.00 ;Setup machine max feedrate
M204 P500.00 R1000.00 T500.00 ;Setup Print/Retract/Travel acceleration
M205 X8.00 Y8.00 Z0.40 E5.00 ;Setup Jerk
M220 S100 ;Reset Feedrate
M221 S100 ;Reset Flowrate

G28 ;Home

G92 E0 ;Reset Extruder
G1 Z2.0 F3000 ;Move Z Axis up
G1 X10.1 Y20 Z0.28 F5000.0 ;Move to start position
G1 X10.1 Y200.0 Z0.28 F1500.0 E15 ;Draw the first line
G1 X10.4 Y200.0 Z0.28 F5000.0 ;Move to side a little
G1 X10.4 Y20 Z0.28 F1500.0 E30 ;Draw the second line
G92 E0 ;Reset Extruder
G1 Z2.0 F3000 ;Move Z Axis up

G92 E0
G92 E0
G1 F1500 E-2
;LAYER_COUNT:2
;LAYER:0
M107
;MESH:gold.stl
G0 F6000 X88.373 Y63.31 Z0.16
;TYPE:WALL-INNER
G1 F1500 E0
G1 F600 X88.4 Y62.888 E0.01182
G1 X88.43 Y62.66 E0.01825
G1 X88.599 Y61.391 E0.05403
G1 X88.666 Y61.061 E0.06344
G1 X88.889 Y59.97 E0.09456
G1 X89.021 Y59.485 E0.10861
G1 X89.28 Y58.543 E0.13591
G1 X89.49 Y57.941 E0.15373
G1 X89.771 Y57.14 E0.17746
G1 X90.073 Y56.433 E0.19895
G1 X90.356 Y55.77 E0.21909
G1 X90.764 Y54.973 E0.24412
G1 X91.021 Y54.471 E0.25988
G1 X91.563 Y53.568 E0.28932
G1 X91.786 Y53.197 E0.30141
G1 X92.461 Y52.225 E0.33449
G1 X92.619 Y51.999 E0.3422
G1 X93.459 Y50.954 E0.37967
G1 X93.553 Y50.836 E0.38389
G1 X94.546 Y49.758 E0.42485
G1 X95.619 Y48.743 E0.46613
G1 X95.731 Y48.65 E0.4702
G1 X96.754 Y47.804 E0.5073
G1 X96.988 Y47.637 E0.51534
G1 X97.964 Y46.936 E0.54892
G1 X98.317 Y46.718 E0.56052
G1 X99.184 Y46.181 E0.58902
G1 X99.712 Y45.902 E0.60571
G1 X100.532 Y45.468 E0.63164
G1 X101.162 Y45.188 E0.65091
G1 X101.86 Y44.877 E0.67227
G1 X102.661 Y44.585 E0.6961
G1 X103.271 Y44.362 E0.71425
G1 X104.2 Y44.093 E0.74128
G1 X104.664 Y43.958 E0.75479
G1 X105.771 Y43.717 E0.78645
G1 X106.105 Y43.644 E0.79601
G1 X107.365 Y43.459 E0.8316
G1 X107.583 Y43.427 E0.83776
G1 X108.313 Y43.372 E0.85822
G1 X108.312 Y43.448 E0.86034
G1 X107.591 Y43.509 E0.86425
G1 X107.376 Y43.528 E0.86533
G1 X106.119 Y43.729 E0.87222
G1 X105.786 Y43.783 E0.87398
G1 X104.685 Y44.044 E0.8801
G1 X104.219 Y44.155 E0.88262
G1 X103.299 Y44.448 E0.8878
G1 X102.683 Y44.644 E0.89121
G1 X101.895 Y44.961 E0.89573
G1 X101.188 Y45.246 E0.89982
G1 X100.573 Y45.549 E0.90345
G1 X99.742 Y45.958 E0.9084
G1 X99.23 Y46.258 E0.91151
G1 X98.352 Y46.774 E0.91702
G1 X98.015 Y47.008 E0.91919
G1 X97.029 Y47.693 E0.92577
G1 X96.809 Y47.871 E0.92723
G1 X95.777 Y48.705 E0.93451
G1 X95.675 Y48.801 E0.93519
G1 X94.604 Y49.81 E0.94331
G1 X93.614 Y50.891 E0.95147
G1 X93.515 Y50.998 E0.95218
G1 X92.686 Y52.051 E0.95946
G1 X92.518 Y52.264 E0.96087
G1 X91.859 Y53.245 E0.96729
G1 X91.62 Y53.602 E0.96955
G1 X91.1 Y54.515 E0.97525
G1 X90.823 Y55.002 E0.97826
G1 X90.439 Y55.809 E0.98312
G1 X90.131 Y56.457 E0.98692
G1 X89.855 Y57.172 E0.99095
G1 X89.55 Y57.961 E0.99541
G1 X89.367 Y58.569 E0.99877
G1 X89.084 Y59.502 E1.00403
G1 X88.975 Y59.989 E1.00667
G1 X88.732 Y61.074 E1.01267
G1 X88.684 Y61.403 E1.01439
G1 X88.499 Y62.669 E1.02128
G1 X88.483 Y62.893 E1.02241
G1 X88.453 Y63.31 E1.02481
G1 X88.373 Y63.31 E1.02704
G0 F6000 X88.159 Y63.71
G1 F600 X88.158 Y63.71 E1.02707
G1 X87.947 Y63.71 E1.03297
G1 X87.96 Y63.499 E1.03673
G1 X88.003 Y62.835 E1.05533
G1 X88.203 Y61.331 E1.09773
G1 X88.5 Y59.874 E1.13929
G1 X88.898 Y58.423 E1.18134
G1 X89.396 Y56.999 E1.22351
G1 X89.992 Y55.604 E1.2659
G1 X90.673 Y54.273 E1.30769
G1 X91.449 Y52.98 E1.34984
G1 X92.297 Y51.762 E1.39132
G1 X93.25 Y50.575 E1.43386
G1 X94.267 Y49.471 E1.47582
G1 X95.348 Y48.448 E1.51741
G1 X96.51 Y47.487 E1.55956
G1 X97.739 Y46.605 E1.60184
G1 X98.997 Y45.827 E1.64318
G1 X100.349 Y45.112 E1.68592
G1 X101.697 Y44.513 E1.72715
G1 X101.716 Y44.504 E1.72774
G1 X103.14 Y43.984 E1.77011
G1 X104.572 Y43.569 E1.81178
G1 X106.034 Y43.25 E1.8536
G1 X107.537 Y43.029 E1.89606
G1 X108.5 Y42.956 E1.92305
G1 X108.714 Y42.94 E1.92905
G1 X108.714 Y43.154 E1.93284
G1 X108.714 Y43.155 E1.93287
G1 X108.711 Y43.816 E1.95134
G1 X107.425 Y43.925 E1.98741
G1 X105.864 Y44.176 E2.0316
G1 X104.326 Y44.541 E2.07578
G1 X102.818 Y45.021 E2.12001
G1 X101.351 Y45.611 E2.16421
G1 X99.932 Y46.31 E2.20842
G1 X98.568 Y47.111 E2.25263
G1 X97.269 Y48.013 E2.29683
G1 X96.04 Y49.007 E2.341
G1 X94.889 Y50.091 E2.38519
G1 X93.82 Y51.257 E2.42941
G1 X92.842 Y52.5 E2.47361
G1 X91.96 Y53.813 E2.51782
G1 X91.178 Y55.187 E2.56201
G1 X90.499 Y56.615 E2.6062
G1 X89.929 Y58.091 E2.65042
G1 X89.471 Y59.604 E2.6946
G1 X89.126 Y61.147 E2.73879
G1 X88.897 Y62.712 E2.783
G1 X88.826 Y63.71 E2.81096
G1 X88.159 Y63.71 E2.82961
G0 F6000 X87.521 Y64.11
;TYPE:WALL-OUTER
G1 F600 X87.606 Y62.782 E2.8668
G1 X87.806 Y61.278 E2.9092
G1 X88.111 Y59.778 E2.95199
G1 X88.516 Y58.302 E2.99476
G1 X89.021 Y56.858 E3.03752
G1 X89.628 Y55.438 E3.08068
G1 X90.325 Y54.075 E3.12347
G1 X91.106 Y52.774 E3.16588
G1 X91.98 Y51.518 E3.20864
G1 X92.947 Y50.314 E3.25181
G1 X93.98 Y49.192 E3.29443
G1 X95.085 Y48.146 E3.33696
G1 X96.266 Y47.17 E3.37978
G1 X97.514 Y46.274 E3.42272
G1 X98.81 Y45.473 E3.4653
G1 X100.172 Y44.752 E3.50837
G1 X101.565 Y44.133 E3.55097
G1 X103.009 Y43.606 E3.59394
G1 X104.48 Y43.18 E3.63674
G1 X105.963 Y42.856 E3.67917
G1 X107.491 Y42.631 E3.72233
G1 X109.033 Y42.515 E3.76555
G1 X109.089 Y42.548 E3.76737
G1 X109.111 Y42.591 E3.76872
G1 X109.115 Y42.627 E3.76973
G1 X109.11 Y44.116 E3.81135
G1 X109.101 Y44.139 E3.81204
G1 X109.085 Y44.161 E3.8128
G1 X109.067 Y44.176 E3.81345
G1 X109.046 Y44.185 E3.81409
G1 X109.001 Y44.193 E3.81537
G1 X107.474 Y44.322 E3.8582
G1 X105.942 Y44.569 E3.90157
G1 X104.433 Y44.927 E3.94492
G1 X102.953 Y45.398 E3.98833
G1 X101.514 Y45.977 E4.03168
G1 X100.122 Y46.662 E4.07504
G1 X98.784 Y47.448 E4.11841
G1 X97.509 Y48.333 E4.16179
G1 X96.303 Y49.309 E4.20515
G1 X95.174 Y50.372 E4.24849
G1 X94.125 Y51.516 E4.29187
G1 X93.166 Y52.736 E4.33524
G1 X92.3 Y54.024 E4.37862
G1 X91.533 Y55.372 E4.42197
G1 X90.867 Y56.773 E4.46532
G1 X90.308 Y58.221 E4.50871
G1 X89.858 Y59.706 E4.55207
G1 X89.52 Y61.22 E4.59543
G1 X89.295 Y62.755 E4.63879
G1 X89.199 Y64.11 E4.67676
G1 X87.521 Y64.11 E4.72366
G0 F6000 X88.026 Y63.51
G1 F1500 E2.72366
G0 F6000 X88.454 Y63.89
G0 X88.444 Y66.114
G0 X88.454 Y66.695
;TYPE:WALL-INNER
G1 F1500 E4.72366
G1 F600 X88.521 Y67.494 E4.74607
G1 X88.532 Y67.615 E4.74946
G1 X88.751 Y68.993 E4.78846
G1 X88.783 Y69.193 E4.79412
G1 X89.083 Y70.464 E4.83062
G1 X89.15 Y70.744 E4.83867
G1 X89.529 Y71.947 E4.87392
G1 X89.63 Y72.266 E4.88327
G1 X90.062 Y73.35 E4.91588
G1 X90.222 Y73.75 E4.92793
G1 X90.715 Y74.763 E4.95941
G1 X90.921 Y75.184 E4.97251
G1 X91.437 Y76.071 E5.00119
G1 X91.725 Y76.565 E5.01718
G1 X92.275 Y77.369 E5.0444
G1 X92.625 Y77.88 E5.06171
G1 X93.194 Y78.592 E5.08719
G1 X93.623 Y79.129 E5.1064
G1 X94.187 Y79.735 E5.12953
G1 X94.711 Y80.297 E5.15101
G1 X95.272 Y80.818 E5.17241
G1 X95.88 Y81.383 E5.1956
G1 X96.415 Y81.811 E5.21475
G1 X97.127 Y82.381 E5.24024
G1 X97.635 Y82.729 E5.25746
G1 X98.443 Y83.282 E5.28482
G1 X98.913 Y83.556 E5.30003
G1 X99.823 Y84.086 E5.32946
G1 X100.265 Y84.301 E5.3432
G1 X101.257 Y84.784 E5.37403
G1 X101.655 Y84.942 E5.386
G1 X102.741 Y85.376 E5.41869
G1 X103.056 Y85.475 E5.42792
G1 X104.263 Y85.856 E5.46329
G1 X104.543 Y85.922 E5.47133
G1 X105.814 Y86.223 E5.50784
G1 X106.012 Y86.254 E5.51344
G1 X107.391 Y86.474 E5.55247
G1 X107.511 Y86.484 E5.55584
G1 X108.313 Y86.554 E5.57834
G1 X108.313 Y86.629 E5.58043
G1 X107.505 Y86.564 E5.58496
G1 X107.381 Y86.546 E5.58568
G1 X106 Y86.336 E5.59323
G1 X105.799 Y86.292 E5.59438
G1 X104.524 Y86.006 E5.60152
G1 X104.244 Y85.922 E5.60315
G1 X103.031 Y85.557 E5.60994
G1 X102.718 Y85.439 E5.61176
G1 X101.622 Y85.026 E5.61823
G1 X101.23 Y84.845 E5.62062
G1 X100.227 Y84.38 E5.62657
G1 X99.793 Y84.142 E5.62919
G1 X98.868 Y83.634 E5.63487
G1 X98.408 Y83.337 E5.63787
G1 X97.584 Y82.804 E5.64322
G1 X97.089 Y82.433 E5.64658
G1 X96.358 Y81.884 E5.6516
G1 X95.838 Y81.432 E5.6554
G1 X95.21 Y80.886 E5.65998
G1 X94.666 Y80.342 E5.6642
G1 X94.121 Y79.797 E5.66835
G1 X93.576 Y79.17 E5.6728
G1 X93.123 Y78.649 E5.67653
G1 X92.575 Y77.919 E5.68146
G1 X92.201 Y77.421 E5.68483
G1 X91.671 Y76.6 E5.69013
G1 X91.359 Y76.117 E5.69328
G1 X90.864 Y75.216 E5.69888
G1 X90.636 Y74.802 E5.70145
G1 X90.163 Y73.778 E5.70749
G1 X89.98 Y73.384 E5.70987
G1 X89.568 Y72.29 E5.71621
G1 X89.448 Y71.973 E5.71803
G1 X89.085 Y70.764 E5.72481
G1 X89.001 Y70.484 E5.72641
G1 X88.716 Y69.209 E5.73338
G1 X88.67 Y69.006 E5.73454
G1 X88.461 Y67.626 E5.74201
G1 X88.442 Y67.501 E5.74273
G1 X88.379 Y66.694 E5.74717
G1 X88.454 Y66.695 E5.74927
G0 F6000 X88.163 Y66.293
G1 F600 X88.822 Y66.296 E5.76769
G1 X88.929 Y67.567 E5.80334
G1 X89.176 Y69.115 E5.84715
G1 X89.536 Y70.638 E5.89089
G1 X90.007 Y72.132 E5.93467
G1 X90.588 Y73.588 E5.97848
G1 X91.274 Y74.996 E6.02226
G1 X92.063 Y76.351 E6.06608
G1 X92.947 Y77.642 E6.10981
G1 X93.926 Y78.867 E6.15364
G1 X94.994 Y80.014 E6.19744
G1 X96.141 Y81.08 E6.24121
G1 X97.365 Y82.059 E6.28502
G1 X98.657 Y82.944 E6.32879
G1 X100.011 Y83.733 E6.37258
G1 X101.419 Y84.418 E6.41635
G1 X102.875 Y84.999 E6.46016
G1 X104.369 Y85.47 E6.50394
G1 X105.892 Y85.83 E6.54768
G1 X107.44 Y86.077 E6.5915
G1 X108.714 Y86.188 E6.62724
G1 X108.712 Y86.847 E6.64566
G1 X108.712 Y86.848 E6.64568
G1 X108.712 Y87.062 E6.65167
G1 X108.498 Y87.045 E6.65546
G1 X107.47 Y86.963 E6.68429
G1 X105.926 Y86.729 E6.72793
G1 X104.419 Y86.392 E6.77109
G1 X102.905 Y85.937 E6.81528
G1 X101.464 Y85.393 E6.85833
G1 X100.039 Y84.734 E6.90221
G1 X98.67 Y83.982 E6.94586
G1 X97.355 Y83.132 E6.98962
G1 X96.109 Y82.197 E7.03316
G1 X94.933 Y81.175 E7.07671
G1 X93.832 Y80.074 E7.12023
G1 X92.81 Y78.898 E7.16377
G1 X91.873 Y77.65 E7.20739
G1 X91.018 Y76.326 E7.25144
G1 X90.277 Y74.979 E7.29441
G1 X89.613 Y73.542 E7.33865
G1 X89.068 Y72.099 E7.38176
G1 X88.615 Y70.589 E7.42583
G1 X88.612 Y70.572 E7.42631
G1 X88.281 Y69.094 E7.46864
G1 X88.277 Y69.08 E7.46905
G1 X88.043 Y67.537 E7.51267
G1 X87.963 Y66.508 E7.54151
G1 X87.962 Y66.507 E7.54155
G1 X87.947 Y66.293 E7.54755
G1 X88.161 Y66.293 E7.55134
G1 X88.163 Y66.293 E7.5514
G0 F6000 X88.939 Y66.17
G0 X89.124 Y65.897
;TYPE:WALL-OUTER
G1 F600 X89.167 Y65.922 E7.55279
G1 X89.182 Y65.94 E7.55344
G1 X89.191 Y65.96 E7.55406
G1 X89.199 Y66.005 E7.55533
G1 X89.326 Y67.519 E7.5978
G1 X89.569 Y69.037 E7.64076
G1 X89.922 Y70.532 E7.6837
G1 X90.384 Y71.998 E7.72666
G1 X90.954 Y73.426 E7.76963
G1 X91.627 Y74.808 E7.81259
G1 X92.401 Y76.137 E7.85558
G1 X93.269 Y77.404 E7.8985
G1 X94.229 Y78.605 E7.94147
G1 X95.277 Y79.731 E7.98447
G1 X96.402 Y80.777 E8.0274
G1 X97.603 Y81.737 E8.07037
G1 X98.871 Y82.606 E8.11334
G1 X100.199 Y83.38 E8.1563
G1 X101.581 Y84.052 E8.19925
G1 X103.009 Y84.622 E8.24222
G1 X104.475 Y85.084 E8.28518
G1 X105.97 Y85.437 E8.32811
G1 X107.489 Y85.68 E8.37111
G1 X109.045 Y85.815 E8.41476
G1 X109.07 Y85.826 E8.41552
G1 X109.086 Y85.839 E8.4161
G1 X109.11 Y85.88 E8.41743
G1 X109.115 Y85.924 E8.41867
G1 X109.111 Y87.409 E8.46017
G1 X109.092 Y87.45 E8.46143
G1 X109.055 Y87.478 E8.46273
G1 X109.034 Y87.485 E8.46335
G1 X109.004 Y87.487 E8.46419
G1 X107.435 Y87.362 E8.50818
G1 X105.852 Y87.122 E8.55293
G1 X104.314 Y86.778 E8.59698
G1 X102.779 Y86.317 E8.64177
G1 X101.305 Y85.76 E8.68581
G1 X99.851 Y85.088 E8.73058
G1 X98.472 Y84.33 E8.77456
G1 X97.126 Y83.46 E8.81935
G1 X95.86 Y82.51 E8.86359
G1 X94.656 Y81.464 E8.90817
G1 X93.543 Y80.351 E8.95216
G1 X92.497 Y79.147 E8.99674
G1 X91.545 Y77.879 E9.04105
G1 X90.677 Y76.535 E9.08577
G1 X89.918 Y75.156 E9.12976
G1 X89.246 Y73.701 E9.17456
G1 X88.688 Y72.225 E9.21866
G1 X88.229 Y70.694 E9.26333
G1 X87.884 Y69.155 E9.30741
G1 X87.644 Y67.573 E9.35214
G1 X87.521 Y65.973 E9.39699
G1 X87.539 Y65.934 E9.39819
G1 X87.556 Y65.915 E9.3989
G1 X87.572 Y65.905 E9.39943
G1 X87.597 Y65.896 E9.40017
G1 X87.633 Y65.892 E9.40118
G1 X89.124 Y65.897 E9.44285
G0 F6000 X88.785 Y66.338
G0 X88.626 Y66.495
G1 F1500 E7.44285
G0 F6000 X89.354 Y69.079
G0 X90.417 Y68.864
G0 X110.267 Y85.29
G0 X111.117 Y86.013
G0 X111.7 Y86.627
;TYPE:WALL-INNER
G1 F1500 E9.44285
G1 F600 X111.701 Y86.552 E9.44495
G1 X112.5 Y86.484 E9.46736
G1 X112.62 Y86.473 E9.47073
G1 X113.999 Y86.255 E9.50975
G1 X114.198 Y86.223 E9.51538
G1 X115.471 Y85.922 E9.55194
G1 X115.75 Y85.856 E9.55996
G1 X116.953 Y85.477 E9.59521
G1 X117.272 Y85.376 E9.60456
G1 X118.357 Y84.943 E9.63721
G1 X118.756 Y84.784 E9.64922
G1 X119.769 Y84.291 E9.6807
G1 X120.191 Y84.085 E9.69383
G1 X121.082 Y83.566 E9.72265
G1 X121.57 Y83.281 E9.73844
G1 X122.368 Y82.735 E9.76547
G1 X122.886 Y82.381 E9.783
G1 X123.596 Y81.812 E9.80843
G1 X124.132 Y81.383 E9.82762
G1 X124.739 Y80.82 E9.85076
G1 X125.303 Y80.297 E9.87226
G1 X125.824 Y79.735 E9.89368
G1 X126.389 Y79.126 E9.9169
G1 X126.818 Y78.591 E9.93606
G1 X127.387 Y77.88 E9.96151
G1 X127.735 Y77.37 E9.97877
G1 X128.287 Y76.564 E10.00607
G1 X128.574 Y76.072 E10.02199
G1 X129.091 Y75.185 E10.05069
G1 X129.296 Y74.764 E10.06377
G1 X129.79 Y73.75 E10.0953
G1 X129.945 Y73.361 E10.107
G1 X130.382 Y72.266 E10.13995
G1 X130.485 Y71.938 E10.14956
G1 X130.862 Y70.744 E10.18456
G1 X130.928 Y70.465 E10.19257
G1 X131.229 Y69.192 E10.22913
G1 X131.26 Y68.993 E10.23476
G1 X131.479 Y67.614 E10.27379
G1 X131.488 Y67.497 E10.27707
G1 X131.557 Y66.694 E10.29959
G1 X131.635 Y66.694 E10.30177
G1 X131.57 Y67.503 E10.30645
G1 X131.552 Y67.625 E10.30719
G1 X131.342 Y69.005 E10.31476
G1 X131.297 Y69.207 E10.3159
G1 X131.011 Y70.484 E10.32296
G1 X130.928 Y70.763 E10.32457
G1 X130.568 Y71.964 E10.33135
G1 X130.445 Y72.289 E10.33324
G1 X130.027 Y73.393 E10.33966
G1 X129.85 Y73.777 E10.34196
G1 X129.376 Y74.802 E10.34802
G1 X129.149 Y75.216 E10.3506
G1 X128.653 Y76.117 E10.35619
G1 X128.342 Y76.599 E10.35935
G1 X127.811 Y77.421 E10.36471
G1 X127.438 Y77.917 E10.36809
G1 X126.889 Y78.647 E10.37302
G1 X126.437 Y79.167 E10.37674
G1 X125.891 Y79.796 E10.38121
G1 X125.347 Y80.34 E10.38531
G1 X124.802 Y80.886 E10.38944
G1 X124.175 Y81.431 E10.39398
G1 X123.654 Y81.883 E10.39774
G1 X122.924 Y82.431 E10.40266
G1 X122.42 Y82.81 E10.40607
G1 X121.606 Y83.335 E10.41134
G1 X121.128 Y83.644 E10.41445
G1 X120.223 Y84.142 E10.42007
G1 X119.808 Y84.37 E10.42266
G1 X118.784 Y84.844 E10.42877
G1 X118.391 Y85.026 E10.43116
G1 X117.296 Y85.438 E10.43751
G1 X116.979 Y85.558 E10.43934
G1 X115.77 Y85.921 E10.44612
G1 X115.491 Y86.005 E10.44773
G1 X114.214 Y86.29 E10.45476
G1 X114.012 Y86.336 E10.45591
G1 X112.631 Y86.545 E10.46345
G1 X112.507 Y86.564 E10.46417
G1 X111.7 Y86.627 E10.46864
G0 F6000 X111.299 Y86.843
G1 F600 X111.302 Y86.184 E10.48706
G1 X112.572 Y86.076 E10.52269
G1 X114.121 Y85.83 E10.56652
G1 X115.644 Y85.47 E10.61026
G1 X117.138 Y84.999 E10.65404
G1 X118.594 Y84.418 E10.69786
G1 X120.002 Y83.732 E10.74163
G1 X121.356 Y82.943 E10.78543
G1 X122.648 Y82.059 E10.82919
G1 X123.871 Y81.08 E10.87297
G1 X125.02 Y80.014 E10.91678
G1 X126.086 Y78.865 E10.96058
G1 X127.065 Y77.642 E11.00437
G1 X127.949 Y76.35 E11.04812
G1 X128.738 Y74.996 E11.09192
G1 X129.424 Y73.588 E11.13569
G1 X130.005 Y72.132 E11.17951
G1 X130.476 Y70.638 E11.22329
G1 X130.836 Y69.115 E11.26703
G1 X131.082 Y67.566 E11.31087
G1 X131.189 Y66.293 E11.34657
G1 X131.853 Y66.295 E11.36513
G1 X131.854 Y66.295 E11.36516
G1 X132.068 Y66.295 E11.37114
G1 X132.051 Y66.509 E11.37494
G1 X131.969 Y67.538 E11.40379
G1 X131.735 Y69.08 E11.44738
G1 X131.397 Y70.589 E11.4906
G1 X130.946 Y72.094 E11.53451
G1 X130.396 Y73.547 E11.57793
G1 X129.735 Y74.979 E11.62201
G1 X128.994 Y76.326 E11.66498
G1 X128.139 Y77.65 E11.70903
G1 X127.202 Y78.897 E11.75263
G1 X126.18 Y80.073 E11.79617
G1 X125.079 Y81.175 E11.83971
G1 X123.903 Y82.196 E11.88324
G1 X122.649 Y83.138 E11.92707
G1 X121.337 Y83.985 E11.97072
G1 X119.985 Y84.729 E12.01385
G1 X118.549 Y85.393 E12.05807
G1 X118.532 Y85.399 E12.05857
G1 X117.105 Y85.938 E12.10121
G1 X115.596 Y86.391 E12.14524
G1 X115.579 Y86.394 E12.14572
G1 X114.1 Y86.725 E12.18808
G1 X114.086 Y86.729 E12.18849
