;FLAVOR:Marlin
;TIME:6774
;Filament used: 5.48696m
;Layer height: 0.2
;MINX:58.248
;MINY:36.745
;MINZ:0.32
;MAXX:161.752
;MAXY:141.039
;MAXZ:9.92
;Generated with Cura_SteamEngine 4.4.0
M140 S80
M105
M190 S80
M104 S220
M105
M109 S220
M82 ;absolute extrusion mode
M201 X500.00 Y500.00 Z100.00 E5000.00 ;Setup machine max acceleration
M203 X500.00 Y500.00 Z10.00 E50.00 ;Setup machine max feedrate
M204 P500.00 R1000.00 T500.00 ;Setup Print/Retract/Travel acceleration
M205 X8.00 Y8.00 Z0.40 E5.00 ;Setup Jerk
M220 S100 ;Reset Feedrate
M221 S100 ;Reset Flowrate

G28 ;Home

G92 E0 ;Reset Extruder
G1 Z2.0 F3000 ;Move Z Axis up
G1 X10.1 Y20 Z0.28 F5000.0 ;Move to start position
G1 X10.1 Y200.0 Z0.28 F1500.0 E15 ;Draw the first line
G1 X10.4 Y200.0 Z0.28 F5000.0 ;Move to side a little
G1 X10.4 Y20 Z0.28 F1500.0 E30 ;Draw the second line
G92 E0 ;Reset Extruder
G1 Z2.0 F3000 ;Move Z Axis up

G92 E0
G92 E0
G1 F1500 E-2
;LAYER_COUNT:49
;LAYER:0
M107
G0 F6000 X109.649 Y131.479 Z0.32
;TYPE:SKIRT
G1 F1500 E0
G1 F600 X110.069 Y131.488 E0.03353
G1 X110.197 Y131.489 E0.04375
G1 X110.349 Y131.487 E0.05589
G1 X110.346 Y134.076 E0.26255
G1 X110.346 Y134.089 E0.26359
G1 X110.35 Y136.026 E0.41821
G1 X109.65 Y136.027 E0.47409
G1 X109.653 Y133.911 E0.64299
G1 X109.653 Y133.899 E0.64395
G1 X109.649 Y131.479 E0.83713
G0 F6000 X110.082 Y130.888
G1 F600 X110.19 Y130.889 E0.84575
G1 X110.95 Y130.88 E0.90642
G1 X110.946 Y134.077 E1.16162
G1 X110.946 Y134.087 E1.16242
G1 X110.951 Y136.621 E1.36469
G1 X110.8 Y136.626 E1.37675
G1 X109.243 Y136.627 E1.50104
G1 X109.049 Y136.621 E1.51653
G1 X109.053 Y133.91 E1.73294
G1 X109.053 Y133.9 E1.73373
G1 X109.049 Y130.866 E1.97592
G1 X110.082 Y130.888 E2.0584
G0 F6000 X110.095 Y130.288
G1 F600 X110.184 Y130.289 E2.0655
G1 X111.066 Y130.279 E2.13591
G1 X111.168 Y130.276 E2.14406
G1 X111.551 Y130.257 E2.17467
G1 X111.546 Y134.078 E2.47968
G1 X111.546 Y134.086 E2.48032
G1 X111.552 Y137.201 E2.72897
G1 X110.787 Y137.226 E2.79007
G1 X109.255 Y137.227 E2.91236
G1 X108.448 Y137.201 E2.97681
G1 X108.453 Y133.909 E3.23959
G1 X108.453 Y133.901 E3.24023
G1 X108.448 Y130.253 E3.53143
G1 X110.095 Y130.288 E3.66293
G0 F6000 X110.108 Y129.689
G1 F600 X110.177 Y129.689 E3.66844
G1 X111.059 Y129.679 E3.73885
G1 X111.139 Y129.676 E3.74524
G1 X112.151 Y129.626 E3.82612
G1 X112.146 Y134.079 E4.18158
G1 X112.146 Y134.085 E4.18206
G1 X112.153 Y137.783 E4.47725
G1 X110.807 Y137.826 E4.58475
G1 X109.237 Y137.827 E4.71007
G1 X107.847 Y137.783 E4.82108
G1 X107.853 Y133.908 E5.1304
G1 X107.853 Y133.902 E5.13088
G1 X107.847 Y129.636 E5.47141
G1 X108.32 Y129.65 E5.50918
G1 X108.337 Y129.651 E5.51054
G1 X110.108 Y129.689 E5.65194
G0 F6000 X110.121 Y129.089
G1 F600 X110.17 Y129.089 E5.65586
G1 X111.052 Y129.079 E5.72627
G1 X111.109 Y129.077 E5.73082
G1 X112.752 Y128.996 E5.86213
G1 X112.746 Y134.079 E6.26788
G1 X112.746 Y134.084 E6.26828
G1 X112.754 Y138.364 E6.60992
G1 X110.827 Y138.426 E6.76383
G1 X109.218 Y138.427 E6.89226
G1 X107.247 Y138.365 E7.04967
G1 X107.253 Y133.907 E7.40553
G1 X107.253 Y133.903 E7.40585
G1 X107.246 Y129.128 E7.78701
G1 X107.246 Y129.008 E7.79659
G1 X107.279 Y129.011 E7.79924
G1 X107.334 Y129.015 E7.80364
G1 X107.56 Y129.027 E7.8217
G1 X107.596 Y129.028 E7.82458
G1 X108.338 Y129.05 E7.88383
G1 X108.35 Y129.051 E7.8848
G1 X110.121 Y129.089 E8.0262
G0 F6000 X110.134 Y128.489
G1 F600 X110.163 Y128.489 E8.02851
G1 X111.045 Y128.479 E8.09892
G1 X111.079 Y128.478 E8.10164
G1 X112.922 Y128.387 E8.24893
G1 X112.948 Y128.385 E8.25101
G1 X113.353 Y128.353 E8.28344
G1 X113.346 Y134.08 E8.7406
G1 X113.346 Y134.083 E8.74084
G1 X113.356 Y139.046 E9.13701
G1 X113.186 Y138.996 E9.15115
G1 X112.903 Y138.959 E9.17393
G1 X110.815 Y139.026 E9.34069
G1 X109.23 Y139.027 E9.46721
G1 X107.117 Y138.96 E9.63597
G1 X106.834 Y138.997 E9.65875
G1 X106.646 Y139.052 E9.67439
G1 X106.653 Y133.906 E10.08516
G1 X106.653 Y133.904 E10.08532
G1 X106.646 Y129.128 E10.46656
G1 X106.646 Y128.351 E10.52859
G1 X107.333 Y128.413 E10.58365
G1 X107.366 Y128.416 E10.58629
G1 X107.592 Y128.428 E10.60436
G1 X107.613 Y128.429 E10.60604
G1 X108.355 Y128.451 E10.66529
G1 X108.363 Y128.451 E10.66593
G1 X110.134 Y128.489 E10.80733
G0 F6000 X110.147 Y127.889
G1 F600 X110.156 Y127.889 E10.80805
G1 X111.038 Y127.879 E10.87846
G1 X111.05 Y127.879 E10.87942
G1 X112.893 Y127.788 E11.02672
G1 X112.901 Y127.787 E11.02736
G1 X113.551 Y127.736 E11.0794
G1 X114.109 Y127.88 E11.12541
G1 X114.029 Y127.97 E11.13502
G1 X113.953 Y128.17 E11.1521
G1 X113.946 Y134.081 E11.62394
G1 X113.956 Y139.272 E12.03831
G1 X113.957 Y139.847 E12.08421
G1 X113.017 Y139.571 E12.16241
G1 X112.922 Y139.559 E12.17005
G1 X110.834 Y139.626 E12.33681
G1 X109.212 Y139.627 E12.46629
G1 X107.098 Y139.56 E12.63512
G1 X107.003 Y139.572 E12.64276
G1 X106.044 Y139.854 E12.72256
G1 X106.053 Y133.905 E13.19743
G1 X106.046 Y129.128 E13.57875
G1 X106.046 Y128.176 E13.65474
G1 X105.973 Y127.979 E13.67152
G1 X105.893 Y127.887 E13.68125
G1 X106.449 Y127.731 E13.72734
G1 X107.387 Y127.816 E13.80253
G1 X107.398 Y127.817 E13.80341
G1 X107.624 Y127.829 E13.82147
G1 X107.631 Y127.829 E13.82203
G1 X108.373 Y127.851 E13.88129
G1 X108.376 Y127.851 E13.88153
G1 X110.147 Y127.889 E14.02293
G1 F1500 E12.02293
;MESH:30ef9621-973c-4e08-86b3-6c64d82b0a2d.stl
G0 F6000 X115.94 Y132.993
G0 X116.115 Y134.26
G0 X116.4 Y134.508
;TYPE:WALL-INNER
G1 F1500 E14.02293
G1 F600 X117.235 Y134.393 E14.09021
G1 X118.842 Y134.11 E14.22046
G1 X120.469 Y133.763 E14.35326
G1 X122.083 Y133.359 E14.48607
G1 X123.681 Y132.898 E14.61883
G1 X125.263 Y132.379 E14.75173
G1 X126.823 Y131.805 E14.88442
G1 X128.364 Y131.175 E15.01731
G1 X129.879 Y130.49 E15.15003
G1 X131.371 Y129.751 E15.28294
G1 X132.833 Y128.96 E15.41563
G1 X134.268 Y128.117 E15.54848
G1 X135.645 Y127.239 E15.67884
G1 X137.014 Y126.295 E15.81158
G1 X138.35 Y125.306 E15.94427
G1 X139.651 Y124.266 E16.07723
G1 X140.913 Y123.182 E16.21002
G1 X142.135 Y122.052 E16.34288
G1 X143.314 Y120.88 E16.47558
G1 X144.453 Y119.667 E16.60841
G1 X145.548 Y118.412 E16.74136
G1 X146.595 Y117.122 E16.87398
G1 X147.597 Y115.792 E17.0069
G1 X148.532 Y114.455 E17.13714
G1 X149.436 Y113.058 E17.26996
G1 X150.29 Y111.63 E17.40278
G1 X151.093 Y110.173 E17.53558
G1 X151.842 Y108.688 E17.66834
G1 X152.538 Y107.177 E17.80114
G1 X153.181 Y105.643 E17.93391
G1 X153.767 Y104.085 E18.06678
G1 X154.297 Y102.507 E18.19966
G1 X154.77 Y100.912 E18.33246
G1 X155.186 Y99.303 E18.46512
G1 X155.537 Y97.708 E18.59549
G1 X155.837 Y96.072 E18.72826
G1 X156.079 Y94.428 E18.8609
G1 X156.263 Y92.774 E18.99375
G1 X156.386 Y91.115 E19.12654
G1 X156.45 Y89.452 E19.25939
G1 X156.453 Y87.788 E19.39221
G1 X156.399 Y86.125 E19.52503
G1 X156.284 Y84.466 E19.65778
G1 X156.11 Y82.81 E19.79069
G1 X155.876 Y81.163 E19.92349
G1 X155.589 Y79.556 E20.05379
G1 X155.24 Y77.93 E20.18654
G1 X154.834 Y76.317 E20.31932
G1 X154.368 Y74.72 E20.45211
G1 X153.846 Y73.14 E20.58494
G1 X153.268 Y71.579 E20.71781
G1 X152.634 Y70.041 E20.8506
G1 X151.947 Y68.526 E20.98339
G1 X151.203 Y67.037 E21.11626
G1 X150.409 Y65.576 E21.24899
G1 X149.563 Y64.143 E21.38183
G1 X148.665 Y62.743 E21.5146
G1 X147.736 Y61.401 E21.64488
G1 X146.742 Y60.066 E21.77774
G1 X145.701 Y58.769 E21.9105
G1 X144.613 Y57.511 E22.04327
G1 X143.482 Y56.291 E22.17606
G1 X142.306 Y55.112 E22.30899
G1 X141.091 Y53.977 E22.44171
G1 X139.834 Y52.886 E22.57457
G1 X138.54 Y51.839 E22.70744
G1 X137.209 Y50.842 E22.84019
G1 X135.843 Y49.892 E22.97301
G1 X134.471 Y49.009 E23.10325
G1 X133.042 Y48.157 E23.23605
G1 X131.582 Y47.358 E23.36891
G1 X130.095 Y46.611 E23.50174
G1 X128.582 Y45.919 E23.63455
G1 X127.046 Y45.281 E23.76731
G1 X125.487 Y44.698 E23.90018
G1 X123.91 Y44.171 E24.0329
G1 X122.314 Y43.702 E24.16569
G1 X120.701 Y43.289 E24.2986
G1 X119.076 Y42.936 E24.43134
G1 X117.472 Y42.646 E24.56145
G1 X115.825 Y42.407 E24.6943
G1 X114.171 Y42.228 E24.8271
G1 X112.512 Y42.108 E24.95987
G1 X110.848 Y42.048 E25.09279
G1 X109.186 Y42.048 E25.22546
G1 X107.522 Y42.106 E25.35837
G1 X105.862 Y42.225 E25.49121
G1 X104.209 Y42.403 E25.62393
G1 X102.562 Y42.64 E25.75675
G1 X100.924 Y42.936 E25.88962
G1 X99.33 Y43.283 E26.01984
G1 X97.717 Y43.694 E26.15271
G1 X96.121 Y44.162 E26.28548
G1 X94.542 Y44.687 E26.4183
G1 X92.983 Y45.27 E26.55117
G1 X91.447 Y45.907 E26.6839
G1 X89.933 Y46.597 E26.81671
G1 X88.446 Y47.343 E26.94951
G1 X86.986 Y48.141 E27.08233
G1 X85.555 Y48.992 E27.21523
G1 X84.157 Y49.892 E27.34795
G1 X82.816 Y50.824 E27.47831
G1 X81.486 Y51.821 E27.61099
G1 X80.191 Y52.866 E27.74382
G1 X78.933 Y53.956 E27.87669
G1 X77.716 Y55.091 E28.00953
G1 X76.541 Y56.268 E28.14229
G1 X75.408 Y57.487 E28.27513
G1 X74.32 Y58.745 E28.4079
G1 X73.278 Y60.041 E28.54064
G1 X72.282 Y61.375 E28.67354
G1 X71.334 Y62.743 E28.80639
G1 X70.455 Y64.117 E28.93659
G1 X69.607 Y65.548 E29.06937
G1 X68.811 Y67.009 E29.20218
G1 X68.067 Y68.498 E29.33505
G1 X67.378 Y70.012 E29.46783
G1 X66.744 Y71.549 E29.60055
G1 X66.164 Y73.11 E29.73348
G1 X65.642 Y74.69 E29.86631
G1 X65.175 Y76.286 E29.99905
G1 X64.767 Y77.899 E30.13186
G1 X64.416 Y79.525 E30.26464
G1 X64.124 Y81.163 E30.39746
G1 X63.895 Y82.777 E30.52759
G1 X63.719 Y84.432 E30.66044
G1 X63.603 Y86.091 E30.79319
G1 X63.547 Y87.755 E30.92609
G1 X63.55 Y89.419 E31.05892
G1 X63.612 Y91.081 E31.19168
G1 X63.734 Y92.74 E31.32447
G1 X63.917 Y94.394 E31.4573
G1 X64.157 Y96.04 E31.59008
G1 X64.456 Y97.677 E31.72292
G1 X64.814 Y99.303 E31.85582
G1 X65.222 Y100.882 E31.986
G1 X65.695 Y102.477 E32.1188
G1 X66.222 Y104.055 E32.25161
G1 X66.808 Y105.613 E32.38448
G1 X67.448 Y107.148 E32.51723
G1 X68.143 Y108.66 E32.65007
G1 X68.893 Y110.146 E32.78294
G1 X69.693 Y111.602 E32.91555
G1 X70.546 Y113.031 E33.0484
G1 X71.45 Y114.429 E33.18129
G1 X72.403 Y115.792 E33.31405
G1 X73.386 Y117.096 E33.4444
G1 X74.433 Y118.389 E33.57721
G1 X75.526 Y119.643 E33.70999
G1 X76.663 Y120.857 E33.84276
G1 X77.842 Y122.03 E33.97552
G1 X79.063 Y123.161 E34.10838
G1 X80.325 Y124.247 E34.24128
G1 X81.625 Y125.286 E34.37412
G1 X82.959 Y126.278 E34.50682
G1 X84.329 Y127.222 E34.63963
G1 X85.732 Y128.117 E34.77247
G1 X87.139 Y128.944 E34.90275
G1 X88.602 Y129.737 E35.03558
G1 X90.092 Y130.476 E35.16835
G1 X91.607 Y131.163 E35.30113
G1 X93.148 Y131.793 E35.43403
G1 X94.707 Y132.369 E35.56669
G1 X96.288 Y132.889 E35.69955
G1 X97.887 Y133.351 E35.83241
G1 X99.5 Y133.757 E35.96518
G1 X101.127 Y134.104 E36.09798
G1 X102.766 Y134.392 E36.23081
G1 X103.6 Y134.508 E36.29803
G1 X103.6 Y138.907 E36.64917
G1 X103.6 Y138.908 E36.64925
G1 X103.6 Y139.245 E36.67615
G1 X103.265 Y139.205 E36.69302
G1 X102.912 Y139.161 E36.72141
G1 X101.225 Y138.898 E36.8577
G1 X99.549 Y138.576 E36.99393
G1 X97.878 Y138.197 E37.13071
G1 X96.198 Y137.758 E37.26932
G1 X94.573 Y137.274 E37.40466
G1 X92.937 Y136.725 E37.54241
G1 X91.33 Y136.126 E37.67931
G1 X89.746 Y135.475 E37.81602
G1 X88.179 Y134.767 E37.95327
G1 X86.652 Y134.014 E38.08918
G1 X85.116 Y133.194 E38.22817
G1 X83.649 Y132.345 E38.36347
G1 X82.184 Y131.431 E38.5013
G1 X80.777 Y130.487 E38.63655
G1 X79.362 Y129.464 E38.77593
G1 X78.02 Y128.425 E38.91141
G1 X76.683 Y127.317 E39.05002
G1 X75.406 Y126.185 E39.18624
G1 X74.156 Y124.996 E39.32395
G1 X72.973 Y123.795 E39.45852
G1 X71.79 Y122.511 E39.59788
G1 X70.678 Y121.218 E39.73402
G1 X69.608 Y119.888 E39.87027
G1 X68.578 Y118.516 E40.00722
G1 X67.584 Y117.093 E40.14578
G1 X66.663 Y115.679 E40.28048
G1 X65.769 Y114.196 E40.41871
G1 X64.93 Y112.694 E40.55604
G1 X64.139 Y111.161 E40.69374
G1 X63.405 Y109.61 E40.83071
G1 X62.728 Y108.048 E40.96661
G1 X62.098 Y106.448 E41.10387
G1 X61.527 Y104.841 E41.24
G1 X61 Y103.187 E41.37857
G1 X60.54 Y101.555 E41.51392
G1 X60.127 Y99.878 E41.65179
G1 X59.776 Y98.209 E41.78793
G1 X59.476 Y96.503 E41.9262
G1 X59.238 Y94.82 E42.06188
G1 X59.053 Y93.094 E42.20045
G1 X58.929 Y91.413 E42.335
G1 X58.86 Y89.668 E42.4744
G1 X58.848 Y87.981 E42.60906
G1 X58.894 Y86.256 E42.74681
G1 X58.998 Y84.533 E42.8846
G1 X59.158 Y82.846 E43.01987
G1 X59.381 Y81.114 E43.15926
G1 X59.651 Y79.449 E43.29391
G1 X59.987 Y77.746 E43.43247
G1 X60.372 Y76.095 E43.56779
G1 X60.824 Y74.407 E43.70728
G1 X61.315 Y72.795 E43.8418
G1 X61.877 Y71.152 E43.98041
G1 X62.485 Y69.548 E44.11734
G1 X63.14 Y67.984 E44.25269
G1 X63.867 Y66.396 E44.3921
G1 X64.629 Y64.87 E44.52826
G1 X65.438 Y63.379 E44.66367
G1 X66.31 Y61.89 E44.80141
G1 X67.222 Y60.449 E44.93754
G1 X68.194 Y59.021 E45.07542
G1 X69.211 Y57.628 E45.2131
G1 X70.257 Y56.293 E45.34848
G1 X71.367 Y54.97 E45.48634
G1 X72.519 Y53.686 E45.62404
G1 X73.708 Y52.449 E45.761
G1 X74.938 Y51.251 E45.89806
G1 X76.207 Y50.096 E46.03503
G1 X77.514 Y48.985 E46.17196
G1 X78.858 Y47.917 E46.30899
G1 X80.228 Y46.901 E46.44514
G1 X81.657 Y45.915 E46.58373
G1 X83.075 Y45.004 E46.71827
G1 X84.576 Y44.111 E46.85768
G1 X86.071 Y43.289 E46.99387
G1 X87.583 Y42.519 E47.12931
G1 X89.164 Y41.781 E47.26859
G1 X90.733 Y41.113 E47.40471
G1 X92.334 Y40.493 E47.54176
G1 X93.945 Y39.93 E47.67798
G1 X95.593 Y39.416 E47.81578
G1 X97.234 Y38.963 E47.95167
G1 X98.905 Y38.563 E48.08883
G1 X100.596 Y38.218 E48.22659
G1 X102.277 Y37.932 E48.3627
G1 X103.996 Y37.699 E48.50118
G1 X105.679 Y37.528 E48.63621
G1 X107.398 Y37.412 E48.77374
G1 X109.133 Y37.354 E48.91232
G1 X110.821 Y37.351 E49.04706
G1 X112.554 Y37.408 E49.18547
G1 X114.276 Y37.522 E49.32323
G1 X115.953 Y37.691 E49.45777
G1 X117.663 Y37.922 E49.59551
G1 X119.376 Y38.211 E49.73418
G1 X121.027 Y38.547 E49.86867
G1 X122.725 Y38.953 E50.00804
G1 X124.377 Y39.405 E50.14475
G1 X125.99 Y39.907 E50.2796
G1 X127.63 Y40.479 E50.41825
G1 X129.241 Y41.101 E50.5561
G1 X130.801 Y41.764 E50.6914
G1 X132.366 Y42.493 E50.82922
G1 X133.887 Y43.265 E50.96537
G1 X135.408 Y44.101 E51.10392
G1 X136.865 Y44.966 E51.23917
G1 X138.327 Y45.904 E51.37783
G1 X139.725 Y46.866 E51.51329
G1 X141.096 Y47.88 E51.64941
G1 X142.457 Y48.96 E51.7881
G1 X143.749 Y50.057 E51.9234
G1 X145.027 Y51.217 E52.06117
G1 X146.252 Y52.407 E52.1975
G1 X147.441 Y53.642 E52.33434
G1 X148.589 Y54.918 E52.47135
G1 X149.699 Y56.24 E52.60915
G1 X150.766 Y57.597 E52.74694
G1 X151.767 Y58.965 E52.88226
G1 X152.745 Y60.4 E53.02088
G1 X153.664 Y61.849 E53.15784
G1 X154.523 Y63.311 E53.2932
G1 X155.347 Y64.827 E53.43093
G1 X156.12 Y66.371 E53.56877
G1 X156.828 Y67.912 E53.70414
G1 X157.496 Y69.503 E53.84188
G1 X158.103 Y71.098 E53.97811
G1 X158.666 Y72.74 E54.11667
G1 X159.167 Y74.38 E54.25355
G1 X159.61 Y76.029 E54.38985
G1 X159.999 Y77.689 E54.52595
G1 X160.337 Y79.392 E54.66454
G1 X160.611 Y81.066 E54.79994
G1 X160.834 Y82.788 E54.93855
G1 X160.996 Y84.487 E55.07479
G1 X161.101 Y86.19 E55.21098
G1 X161.151 Y87.925 E55.34954
G1 X161.143 Y89.62 E55.48484
G1 X161.075 Y91.365 E55.62424
G1 X160.953 Y93.046 E55.75878
G1 X160.77 Y94.772 E55.89733
G1 X160.534 Y96.452 E56.03275
G1 X160.236 Y98.157 E56.17091
G1 X159.885 Y99.831 E56.30744
G1 X159.479 Y101.489 E56.4437
G1 X159.016 Y103.141 E56.58065
G1 X158.49 Y104.796 E56.71928
G1 X157.923 Y106.394 E56.85463
G1 X157.291 Y108.004 E56.99269
G1 X156.615 Y109.567 E57.12863
G1 X155.883 Y111.118 E57.26553
G1 X155.089 Y112.661 E57.40405
G1 X154.264 Y114.143 E57.53944
G1 X153.368 Y115.629 E57.67796
G1 X152.435 Y117.067 E57.81479
G1 X151.464 Y118.46 E57.95033
G1 X150.424 Y119.848 E58.08878
G1 X149.36 Y121.174 E58.22449
G1 X148.243 Y122.475 E58.36137
G1 X147.075 Y123.746 E58.49916
G1 X145.864 Y124.976 E58.63694
G1 X144.628 Y126.152 E58.77313
G1 X143.354 Y127.285 E58.90922
G1 X142.018 Y128.395 E59.04787
G1 X140.67 Y129.441 E59.18407
G1 X139.28 Y130.446 E59.32099
G1 X137.848 Y131.41 E59.45879
G1 X136.395 Y132.318 E59.59556
G1 X134.916 Y133.176 E59.73204
G1 X133.413 Y133.981 E59.86814
G1 X131.857 Y134.749 E60.00666
G1 X130.302 Y135.453 E60.14291
G1 X128.707 Y136.11 E60.28061
G1 X127.108 Y136.708 E60.41688
G1 X125.471 Y137.258 E60.55473
G1 X123.829 Y137.75 E60.69156
G1 X122.189 Y138.18 E60.8269
G1 X120.499 Y138.564 E60.96524
G1 X118.82 Y138.887 E61.10172
G1 X117.115 Y139.156 E61.23951
G1 X116.739 Y139.203 E61.26976
G1 X116.403 Y139.245 E61.29678
G1 X116.403 Y138.907 E61.31365
G1 X116.403 Y138.906 E61.31373
G1 X116.4 Y134.508 E61.6648
G0 F6000 X115.8 Y133.986
;TYPE:WALL-OUTER
