;FLAVOR:Marlin
;TIME:371
;Filament used: 0.0943456m
;Layer height: 0.12
;MINX:64.952
;MINY:19.949
;MINZ:0.16
;MAXX:155.048
;MAXY:110.051
;MAXZ:0.28
;Generated with Cura_SteamEngine 4.4.0
M140 S80
M105
M190 S80
M104 S220
M105
M109 S220
M82 ;absolute extrusion mode
M201 X500.00 Y500.00 Z100.00 E5000.00 ;Setup machine max acceleration
M203 X500.00 Y500.00 Z10.00 E50.00 ;Setup machine max feedrate
M204 P500.00 R1000.00 T500.00 ;Setup Print/Retract/Travel acceleration
M205 X8.00 Y8.00 Z0.40 E5.00 ;Setup Jerk
M220 S100 ;Reset Feedrate
M221 S100 ;Reset Flowrate

G28 ;Home

G92 E0 ;Reset Extruder
G1 Z2.0 F3000 ;Move Z Axis up
G1 X10.1 Y20 Z0.28 F5000.0 ;Move to start position
G1 X10.1 Y200.0 Z0.28 F1500.0 E15 ;Draw the first line
G1 X10.4 Y200.0 Z0.28 F5000.0 ;Move to side a little
G1 X10.4 Y20 Z0.28 F1500.0 E30 ;Draw the second line
G92 E0 ;Reset Extruder
G1 Z2.0 F3000 ;Move Z Axis up

G92 E0
G92 E0
G1 F1500 E-2
;LAYER_COUNT:2
;LAYER:0
M107
;MESH:white.stl
G0 F6000 X95.566 Y23.483 Z0.16
;TYPE:WALL-INNER
G1 F1500 E0
G1 F600 X94.35 Y23.941 E0.03632
G1 X93.447 Y24.282 E0.06329
G1 X92.295 Y24.785 E0.09843
G1 X91.372 Y25.189 E0.12659
G1 X90.302 Y25.724 E0.16002
G1 X89.349 Y26.2 E0.1898
G1 X88.366 Y26.756 E0.22136
G1 X87.379 Y27.315 E0.25306
G1 X86.453 Y27.904 E0.28374
G1 X85.469 Y28.53 E0.31633
G1 X84.649 Y29.113 E0.34445
G1 X83.624 Y29.842 E0.37961
G1 X82.839 Y30.464 E0.4076
G1 X81.85 Y31.247 E0.44286
G1 X81.154 Y31.858 E0.46874
G1 X80.148 Y32.74 E0.50613
G1 X79.539 Y33.334 E0.52991
G1 X78.527 Y34.321 E0.56942
G1 X77.966 Y34.927 E0.5925
G1 X76.989 Y35.982 E0.63269
G1 X76.521 Y36.544 E0.65313
G1 X75.539 Y37.721 E0.69597
G1 X75.128 Y38.27 E0.71514
G1 X74.182 Y39.53 E0.75917
G1 X73.806 Y40.089 E0.778
G1 X72.917 Y41.409 E0.82248
G1 X72.626 Y41.895 E0.83832
G1 X71.753 Y43.349 E0.88572
G1 X71.488 Y43.846 E0.90146
G1 X70.688 Y45.348 E0.94902
G1 X70.49 Y45.772 E0.9621
G1 X69.729 Y47.398 E1.01228
G1 X69.558 Y47.819 E1.02498
G1 X68.877 Y49.494 E1.07551
G1 X68.756 Y49.843 E1.08584
G1 X68.133 Y51.631 E1.13876
G1 X68.042 Y51.944 E1.14787
G1 X67.5 Y53.805 E1.20204
G1 X67.445 Y54.04 E1.20879
G1 X66.979 Y56.008 E1.26531
G1 X66.937 Y56.241 E1.27193
G1 X66.575 Y58.235 E1.32857
G1 X66.552 Y58.415 E1.33364
G1 X66.284 Y60.48 E1.39184
G1 X66.275 Y60.606 E1.39537
G1 X66.108 Y62.737 E1.45511
G1 X66.107 Y62.788 E1.45654
G1 X66.051 Y65 E1.51838
G1 X66.106 Y67.211 E1.5802
G1 X66.108 Y67.263 E1.58165
G1 X66.274 Y69.393 E1.64136
G1 X66.284 Y69.52 E1.64492
G1 X66.551 Y71.584 E1.70309
G1 X66.575 Y71.765 E1.7082
G1 X66.936 Y73.758 E1.7648
G1 X66.979 Y73.992 E1.77145
G1 X67.44 Y75.945 E1.82754
G1 X67.5 Y76.195 E1.83472
G1 X68.042 Y78.059 E1.88898
G1 X68.133 Y78.369 E1.89801
G1 X68.752 Y80.148 E1.95065
G1 X68.877 Y80.506 E1.96125
G1 X69.557 Y82.18 E2.01175
G1 X69.729 Y82.602 E2.02449
G1 X70.484 Y84.217 E2.07432
G1 X70.688 Y84.652 E2.08774
G1 X71.487 Y86.153 E2.13527
G1 X71.753 Y86.651 E2.15105
G1 X72.612 Y88.082 E2.1977
G1 X72.917 Y88.591 E2.21428
G1 X73.815 Y89.925 E2.25923
G1 X74.182 Y90.47 E2.27759
G1 X75.127 Y91.729 E2.32159
G1 X75.539 Y92.279 E2.34079
G1 X76.511 Y93.445 E2.38322
G1 X76.989 Y94.018 E2.40408
G1 X77.965 Y95.072 E2.44423
G1 X78.527 Y95.679 E2.46735
G1 X79.532 Y96.659 E2.50658
G1 X80.148 Y97.26 E2.53063
G1 X81.153 Y98.141 E2.56799
G1 X81.85 Y98.753 E2.59391
G1 X82.838 Y99.535 E2.62913
G1 X83.624 Y100.158 E2.65716
G1 X84.639 Y100.88 E2.69197
G1 X85.469 Y101.47 E2.72043
G1 X86.452 Y102.095 E2.75299
G1 X87.379 Y102.685 E2.7837
G1 X88.365 Y103.243 E2.81537
G1 X89.349 Y103.8 E2.84697
G1 X90.3 Y104.275 E2.87668
G1 X91.372 Y104.811 E2.91018
G1 X92.294 Y105.214 E2.9383
G1 X93.447 Y105.718 E2.97347
G1 X94.349 Y106.058 E3.00041
G1 X95.566 Y106.517 E3.03676
G1 X96.438 Y106.795 E3.06235
G1 X97.722 Y107.204 E3.10001
G1 X98.529 Y107.416 E3.12333
G1 X99.911 Y107.781 E3.16328
G1 X100.703 Y107.947 E3.1859
G1 X102.126 Y108.245 E3.22653
G1 X102.864 Y108.359 E3.2474
G1 X104.364 Y108.593 E3.28983
G1 X105.057 Y108.664 E3.3093
G1 X106.615 Y108.825 E3.35308
G1 X107.219 Y108.856 E3.36998
G1 X108.876 Y108.942 E3.41636
G1 X109.463 Y108.942 E3.43276
G1 X111.138 Y108.942 E3.47958
G1 X111.664 Y108.915 E3.4943
G1 X113.399 Y108.825 E3.54285
G1 X113.875 Y108.776 E3.55623
G1 X115.651 Y108.593 E3.60613
G1 X116.043 Y108.533 E3.61721
G1 X117.888 Y108.245 E3.6694
G1 X118.249 Y108.17 E3.67971
G1 X120.104 Y107.781 E3.73268
G1 X120.407 Y107.702 E3.74143
G1 X122.293 Y107.204 E3.79595
G1 X122.53 Y107.129 E3.8029
G1 X124.448 Y106.517 E3.85917
G1 X124.61 Y106.456 E3.86401
G1 X126.567 Y105.718 E3.92246
G1 X126.704 Y105.658 E3.92664
G1 X128.641 Y104.811 E3.98573
G1 X128.721 Y104.771 E3.98823
G1 X130.666 Y103.8 E4.04899
G1 X130.684 Y103.79 E4.04957
G1 X132.625 Y102.691 E4.11191
G1 X132.636 Y102.685 E4.11226
G1 X134.507 Y101.494 E4.17425
G1 X134.545 Y101.47 E4.1755
G1 X136.28 Y100.237 E4.23499
G1 X136.39 Y100.158 E4.23878
G1 X138.025 Y98.864 E4.29705
G1 X138.165 Y98.753 E4.30205
G1 X139.705 Y97.402 E4.3593
G1 X139.866 Y97.26 E4.3653
G1 X141.272 Y95.889 E4.42019
G1 X141.487 Y95.679 E4.42859
G1 X142.811 Y94.249 E4.48306
G1 X143.025 Y94.018 E4.49186
G1 X144.216 Y92.589 E4.54385
G1 X144.475 Y92.279 E4.55514
G1 X145.579 Y90.809 E4.60652
G1 X145.833 Y90.47 E4.61836
G1 X146.821 Y89.003 E4.6678
G1 X147.098 Y88.591 E4.68167
G1 X147.967 Y87.142 E4.72889
G1 X148.261 Y86.651 E4.74489
G1 X149.044 Y85.18 E4.79146
G1 X149.326 Y84.652 E4.80819
G1 X150.013 Y83.185 E4.85347
G1 X150.286 Y82.602 E4.87146
G1 X150.863 Y81.179 E4.91438
G1 X151.137 Y80.506 E4.93469
G1 X151.628 Y79.096 E4.97642
G1 X151.882 Y78.369 E4.99794
G1 X152.286 Y76.977 E5.03845
G1 X152.514 Y76.195 E5.06122
G1 X152.827 Y74.868 E5.09932
G1 X153.035 Y73.992 E5.12449
G1 X153.276 Y72.666 E5.16216
G1 X153.44 Y71.766 E5.18772
G1 X153.601 Y70.52 E5.22284
G1 X153.731 Y69.52 E5.25102
G1 X153.823 Y68.325 E5.28452
G1 X153.906 Y67.263 E5.31429
G1 X153.935 Y66.08 E5.34737
G1 X153.963 Y65 E5.37756
G1 X153.935 Y63.881 E5.40885
G1 X153.906 Y62.737 E5.44083
G1 X153.826 Y61.706 E5.46973
G1 X153.731 Y60.48 E5.5041
G1 X153.602 Y59.479 E5.53231
G1 X153.44 Y58.234 E5.5674
G1 X153.275 Y57.325 E5.59322
G1 X153.035 Y56.008 E5.63064
G1 X152.828 Y55.133 E5.65577
G1 X152.514 Y53.805 E5.69391
G1 X152.287 Y53.024 E5.71664
G1 X151.882 Y51.631 E5.75718
G1 X151.629 Y50.905 E5.77867
G1 X151.137 Y49.494 E5.82044
G1 X150.864 Y48.822 E5.84071
G1 X150.286 Y47.398 E5.88366
G1 X150.01 Y46.807 E5.90189
G1 X149.326 Y45.348 E5.94693
G1 X149.045 Y44.821 E5.96362
G1 X148.261 Y43.349 E6.01023
G1 X147.968 Y42.859 E6.02619
G1 X147.098 Y41.409 E6.07345
G1 X146.822 Y40.998 E6.08729
G1 X145.833 Y39.53 E6.13676
G1 X145.58 Y39.192 E6.14856
G1 X144.475 Y37.721 E6.19998
G1 X144.217 Y37.412 E6.21123
G1 X143.025 Y35.982 E6.26326
G1 X142.812 Y35.752 E6.27203
G1 X141.487 Y34.321 E6.32653
G1 X141.266 Y34.105 E6.33517
G1 X139.866 Y32.74 E6.38982
G1 X139.706 Y32.599 E6.39578
G1 X138.165 Y31.247 E6.45308
G1 X138.026 Y31.137 E6.45803
G1 X136.39 Y29.842 E6.51635
G1 X136.273 Y29.759 E6.52036
G1 X134.545 Y28.53 E6.57962
G1 X134.504 Y28.504 E6.58098
G1 X132.636 Y27.315 E6.64287
G1 X132.625 Y27.309 E6.64322
G1 X130.714 Y26.228 E6.70458
G1 X130.666 Y26.2 E6.70613
G1 X128.694 Y25.216 E6.76773
G1 X128.641 Y25.189 E6.76939
G1 X126.707 Y24.343 E6.82839
G1 X126.567 Y24.282 E6.83266
G1 X124.606 Y23.543 E6.89123
G1 X124.448 Y23.483 E6.89595
G1 X122.531 Y22.872 E6.95219
G1 X122.293 Y22.796 E6.95917
G1 X120.408 Y22.299 E7.01366
G1 X120.104 Y22.219 E7.02244
G1 X118.25 Y21.831 E7.07538
G1 X117.888 Y21.755 E7.08572
G1 X116.044 Y21.468 E7.13788
G1 X115.651 Y21.407 E7.14899
G1 X113.876 Y21.225 E7.19886
G1 X113.399 Y21.175 E7.21227
G1 X111.665 Y21.086 E7.2608
G1 X111.138 Y21.058 E7.27555
G1 X109.463 Y21.058 E7.32236
G1 X108.876 Y21.058 E7.33877
G1 X107.22 Y21.143 E7.38511
G1 X106.615 Y21.175 E7.40205
G1 X105.058 Y21.335 E7.44579
G1 X104.364 Y21.407 E7.46529
G1 X102.865 Y21.64 E7.50769
G1 X102.126 Y21.755 E7.52859
G1 X100.706 Y22.052 E7.56914
G1 X99.911 Y22.219 E7.59185
G1 X98.53 Y22.583 E7.63176
G1 X97.722 Y22.796 E7.65512
G1 X96.439 Y23.204 E7.69274
G1 X95.566 Y23.483 E7.71836
G0 F6000 X95.697 Y23.861
G1 F600 X93.598 Y24.653 E7.78106
G1 X91.542 Y25.551 E7.84377
G1 X89.537 Y26.553 E7.90641
G1 X87.585 Y27.658 E7.96911
G1 X85.692 Y28.862 E8.03181
G1 X83.864 Y30.162 E8.0945
G1 X82.106 Y31.554 E8.15717
G1 X80.42 Y33.034 E8.21988
G1 X78.814 Y34.6 E8.28257
G1 X77.29 Y36.246 E8.34526
G1 X75.853 Y37.969 E8.40797
G1 X74.508 Y39.762 E8.47062
G1 X73.255 Y41.624 E8.53334
G1 X72.101 Y43.546 E8.596
G1 X71.046 Y45.527 E8.65873
G1 X70.096 Y47.558 E8.7214
G1 X69.251 Y49.635 E8.78407
G1 X68.514 Y51.753 E8.84675
G1 X67.887 Y53.907 E8.90945
G1 X67.371 Y56.09 E8.97214
G1 X66.97 Y58.296 E9.03481
G1 X66.682 Y60.521 E9.09751
G1 X66.508 Y62.758 E9.16022
G1 X66.451 Y65 E9.22291
G1 X66.508 Y67.242 E9.28559
G1 X66.682 Y69.479 E9.3483
G1 X66.97 Y71.704 E9.41101
G1 X67.371 Y73.91 E9.47367
G1 X67.887 Y76.093 E9.53637
G1 X68.514 Y78.247 E9.59907
G1 X69.251 Y80.365 E9.66174
G1 X70.096 Y82.442 E9.72442
G1 X71.046 Y84.473 E9.78708
G1 X72.101 Y86.454 E9.84981
G1 X73.255 Y88.376 E9.91247
G1 X74.508 Y90.238 E9.9752
G1 X75.853 Y92.031 E10.03784
G1 X77.29 Y93.754 E10.10055
G1 X78.814 Y95.4 E10.16324
G1 X80.42 Y96.966 E10.22594
G1 X82.106 Y98.446 E10.28864
G1 X83.864 Y99.838 E10.35131
G1 X85.692 Y101.138 E10.41401
G1 X87.585 Y102.342 E10.47671
G1 X89.537 Y103.447 E10.5394
G1 X91.542 Y104.449 E10.60205
G1 X93.598 Y105.347 E10.66475
G1 X95.697 Y106.139 E10.72745
G1 X97.834 Y106.82 E10.79014
G1 X100.003 Y107.392 E10.85283
G1 X102.198 Y107.851 E10.91551
G1 X104.415 Y108.196 E10.97822
G1 X106.646 Y108.426 E11.0409
G1 X108.886 Y108.542 E11.10359
G1 X111.128 Y108.542 E11.16626
G1 X113.368 Y108.426 E11.22895
G1 X115.6 Y108.196 E11.29166
G1 X117.816 Y107.851 E11.35434
G1 X120.012 Y107.392 E11.41704
G1 X122.181 Y106.82 E11.47974
G1 X124.317 Y106.139 E11.5424
G1 X126.416 Y105.347 E11.6051
G1 X128.471 Y104.449 E11.66778
G1 X130.478 Y103.447 E11.73048
G1 X132.43 Y102.342 E11.79317
G1 X134.322 Y101.138 E11.85585
G1 X136.15 Y99.838 E11.91854
G1 X137.909 Y98.446 E11.98123
G1 X139.594 Y96.966 E12.04392
G1 X141.2 Y95.4 E12.10661
G1 X142.724 Y93.754 E12.1693
G1 X144.161 Y92.031 E12.23201
G1 X145.507 Y90.238 E12.29467
G1 X146.76 Y88.376 E12.3574
G1 X147.913 Y86.454 E12.42004
G1 X148.968 Y84.473 E12.48277
G1 X149.919 Y82.442 E12.54545
G1 X150.763 Y80.365 E12.60811
G1 X151.501 Y78.247 E12.6708
G1 X152.127 Y76.093 E12.73349
G1 X152.643 Y73.91 E12.79619
G1 X153.045 Y71.704 E12.85886
G1 X153.333 Y69.479 E12.92156
G1 X153.506 Y67.242 E12.98427
G1 X153.563 Y65 E13.04695
G1 X153.506 Y62.758 E13.10964
G1 X153.333 Y60.521 E13.17235
G1 X153.045 Y58.296 E13.23505
G1 X152.643 Y56.09 E13.29772
G1 X152.127 Y53.907 E13.36042
G1 X151.501 Y51.753 E13.42311
G1 X150.763 Y49.635 E13.4858
G1 X149.919 Y47.558 E13.54846
G1 X148.968 Y45.527 E13.61114
G1 X147.913 Y43.546 E13.67387
G1 X146.76 Y41.624 E13.73651
G1 X145.507 Y39.762 E13.79924
G1 X144.161 Y37.969 E13.8619
G1 X142.724 Y36.246 E13.9246
G1 X141.2 Y34.6 E13.9873
G1 X139.594 Y33.034 E14.04999
G1 X137.909 Y31.554 E14.11267
G1 X136.15 Y30.162 E14.17537
G1 X134.322 Y28.862 E14.23806
G1 X132.43 Y27.658 E14.30074
G1 X130.478 Y26.553 E14.36343
G1 X128.471 Y25.551 E14.42613
G1 X126.416 Y24.653 E14.48881
G1 X124.317 Y23.861 E14.55151
G1 X122.181 Y23.18 E14.61417
G1 X120.012 Y22.608 E14.67687
G1 X117.816 Y22.149 E14.73957
G1 X115.6 Y21.804 E14.80225
G1 X113.368 Y21.574 E14.86496
G1 X111.128 Y21.458 E14.92765
G1 X108.886 Y21.458 E14.99031
G1 X106.646 Y21.574 E15.053
G1 X104.415 Y21.804 E15.11569
G1 X102.198 Y22.149 E15.1784
G1 X100.003 Y22.608 E15.24107
G1 X97.834 Y23.18 E15.30377
G1 X95.697 Y23.861 E15.36646
G0 F6000 X95.828 Y24.239
;TYPE:WALL-OUTER
G1 F600 X93.749 Y25.024 E15.42857
G1 X91.712 Y25.913 E15.49068
G1 X89.725 Y26.906 E15.55277
G1 X87.791 Y28.001 E15.61488
G1 X85.915 Y29.194 E15.67702
G1 X84.104 Y30.482 E15.73913
G1 X82.362 Y31.861 E15.80123
G1 X80.692 Y33.328 E15.86335
G1 X79.101 Y34.879 E15.92546
G1 X77.591 Y36.51 E15.98758
G1 X76.167 Y38.217 E16.04971
G1 X74.834 Y39.994 E16.11179
G1 X73.593 Y41.839 E16.17394
G1 X72.449 Y43.743 E16.23602
G1 X71.404 Y45.706 E16.29818
G1 X70.463 Y47.718 E16.36026
G1 X69.625 Y49.776 E16.42236
G1 X68.895 Y51.875 E16.48447
G1 X68.274 Y54.009 E16.54659
G1 X67.763 Y56.172 E16.60871
G1 X67.365 Y58.358 E16.67081
G1 X67.08 Y60.562 E16.73292
G1 X66.908 Y62.779 E16.79507
G1 X66.851 Y65 E16.85717
G1 X66.908 Y67.221 E16.91926
G1 X67.08 Y69.438 E16.98141
G1 X67.365 Y71.642 E17.04352
G1 X67.763 Y73.828 E17.10563
G1 X68.274 Y75.991 E17.16774
G1 X68.895 Y78.125 E17.22986
G1 X69.625 Y80.224 E17.29197
G1 X70.463 Y82.282 E17.35408
G1 X71.404 Y84.294 E17.41616
G1 X72.449 Y86.257 E17.47831
G1 X73.593 Y88.161 E17.5404
G1 X74.834 Y90.006 E17.60254
G1 X76.167 Y91.783 E17.66463
G1 X77.591 Y93.49 E17.72676
G1 X79.101 Y95.121 E17.78888
G1 X80.692 Y96.672 E17.85098
G1 X82.362 Y98.139 E17.91311
G1 X84.104 Y99.518 E17.9752
G1 X85.915 Y100.806 E18.03731
G1 X87.791 Y101.999 E18.09945
G1 X89.725 Y103.094 E18.16157
G1 X91.712 Y104.087 E18.22365
G1 X93.749 Y104.976 E18.28577
G1 X95.828 Y105.761 E18.34788
G1 X97.946 Y106.436 E18.41001
G1 X100.095 Y107.003 E18.47213
G1 X102.27 Y107.457 E18.53423
G1 X104.466 Y107.799 E18.59634
G1 X106.677 Y108.027 E18.65847
G1 X108.896 Y108.142 E18.72057
G1 X111.118 Y108.142 E18.78267
G1 X113.337 Y108.027 E18.84477
G1 X115.549 Y107.799 E18.90693
G1 X117.744 Y107.457 E18.96901
G1 X119.92 Y107.003 E19.03114
G1 X122.069 Y106.436 E19.09326
G1 X124.186 Y105.761 E19.15536
G1 X126.265 Y104.976 E19.21747
G1 X128.302 Y104.087 E19.27959
G1 X130.29 Y103.094 E19.3417
G1 X132.224 Y101.999 E19.40382
G1 X134.099 Y100.806 E19.46593
G1 X135.91 Y99.518 E19.52804
G1 X137.653 Y98.139 E19.59016
G1 X139.322 Y96.672 E19.65226
G1 X140.913 Y95.121 E19.71436
G1 X142.423 Y93.49 E19.77649
G1 X143.847 Y91.783 E19.83862
G1 X145.181 Y90.006 E19.90072
G1 X146.422 Y88.161 E19.96287
G1 X147.565 Y86.257 E20.02493
G1 X148.61 Y84.294 E20.08709
G1 X149.552 Y82.282 E20.14918
G1 X150.389 Y80.224 E20.21127
G1 X151.12 Y78.125 E20.27339
G1 X151.74 Y75.991 E20.3355
G1 X152.251 Y73.828 E20.39762
G1 X152.65 Y71.642 E20.45973
G1 X152.935 Y69.438 E20.52184
G1 X153.106 Y67.221 E20.58399
G1 X153.163 Y65 E20.64608
G1 X153.106 Y62.779 E20.70818
G1 X152.935 Y60.562 E20.77033
G1 X152.65 Y58.358 E20.83244
G1 X152.251 Y56.172 E20.89455
G1 X151.74 Y54.009 E20.95666
G1 X151.12 Y51.875 E21.01877
G1 X150.389 Y49.776 E21.0809
G1 X149.552 Y47.718 E21.14299
G1 X148.61 Y45.706 E21.20508
G1 X147.565 Y43.743 E21.26724
G1 X146.422 Y41.839 E21.3293
G1 X145.181 Y39.994 E21.39145
G1 X143.847 Y38.217 E21.45355
G1 X142.423 Y36.51 E21.51568
G1 X140.913 Y34.879 E21.5778
G1 X139.322 Y33.328 E21.63991
G1 X137.653 Y31.861 E21.70201
G1 X135.91 Y30.482 E21.76413
G1 X134.099 Y29.194 E21.82624
G1 X132.224 Y28.001 E21.88835
G1 X130.29 Y26.906 E21.95047
G1 X128.302 Y25.913 E22.01258
G1 X126.265 Y25.024 E22.0747
G1 X124.186 Y24.239 E22.13681
G1 X122.069 Y23.564 E22.19891
G1 X119.92 Y22.997 E22.26103
G1 X117.744 Y22.543 E22.32316
G1 X115.549 Y22.201 E22.38524
G1 X113.337 Y21.973 E22.44739
G1 X111.118 Y21.858 E22.5095
G1 X108.896 Y21.858 E22.5716
G1 X106.677 Y21.973 E22.6337
G1 X104.466 Y22.201 E22.69583
G1 X102.27 Y22.543 E22.75794
G1 X100.095 Y22.997 E22.82004
G1 X97.946 Y23.564 E22.88216
G1 X95.828 Y24.239 E22.94429
G0 F6000 X95.684 Y23.824
G1 F1500 E20.94429
G0 F6000 X91.611 Y25.696
G0 X89.613 Y26.694
G0 X87.668 Y27.795
G0 X85.781 Y28.995
G0 X83.96 Y30.291
G0 X82.209 Y31.677
G0 X80.529 Y33.152
G0 X78.93 Y34.712
G0 X77.411 Y36.352
G0 X75.979 Y38.069
G0 X74.639 Y39.855
G0 X73.391 Y41.711
G0 X72.241 Y43.625
G0 X71.19 Y45.6
G0 X70.244 Y47.622
G0 X69.401 Y49.691
G0 X68.666 Y51.802
G0 X68.043 Y53.948
G0 X67.528 Y56.123
G0 X67.128 Y58.321
G0 X66.842 Y60.537
G0 X66.669 Y62.767
G0 X66.611 Y65
G0 X66.669 Y67.233
G0 X66.842 Y69.463
G0 X67.128 Y71.679
G0 X67.528 Y73.877
G0 X68.043 Y76.052
G0 X68.666 Y78.198
G0 X72.347 Y88.242
;TYPE:WALL-INNER
G1 F1500 E22.94429
G1 F600 X71.505 Y86.796 E22.97923
G1 X71.215 Y86.299 E22.99126
G1 X70.433 Y84.785 E23.02679
G1 X70.207 Y84.348 E23.03704
