;FLAVOR:Marlin
;TIME:5933
;Filament used: 1.44048m
;Layer height: 0.12
;MINX:66.383
;MINY:20.855
;MINZ:0.16
;MAXX:153.604
;MAXY:109.144
;MAXZ:1.48
;Generated with Cura_SteamEngine 4.4.0
M140 S80
M105
M190 S80
M104 S220
M105
M109 S220
M82 ;absolute extrusion mode
M201 X500.00 Y500.00 Z100.00 E5000.00 ;Setup machine max acceleration
M203 X500.00 Y500.00 Z10.00 E50.00 ;Setup machine max feedrate
M204 P500.00 R1000.00 T500.00 ;Setup Print/Retract/Travel acceleration
M205 X8.00 Y8.00 Z0.40 E5.00 ;Setup Jerk
M220 S100 ;Reset Feedrate
M221 S100 ;Reset Flowrate

G28 ;Home

G92 E0 ;Reset Extruder
G1 Z2.0 F3000 ;Move Z Axis up
G1 X10.1 Y20 Z0.28 F5000.0 ;Move to start position
G1 X10.1 Y200.0 Z0.28 F1500.0 E15 ;Draw the first line
G1 X10.4 Y200.0 Z0.28 F5000.0 ;Move to side a little
G1 X10.4 Y20 Z0.28 F1500.0 E30 ;Draw the second line
G92 E0 ;Reset Extruder
G1 Z2.0 F3000 ;Move Z Axis up

G92 E0
G92 E0
G1 F1500 E-2
;LAYER_COUNT:12
;LAYER:0
M107
;MESH:black.stl
G0 F6000 X131.411 Y76.094 Z0.16
;TYPE:WALL-INNER
G1 F1500 E0
G1 F600 X131.574 Y75.78 E0.00989
G1 X132.065 Y74.704 E0.04294
G1 X132.271 Y74.253 E0.0568
G1 X132.86 Y72.68 E0.10375
G1 X132.863 Y72.668 E0.10409
G1 X133.341 Y71.067 E0.15079
G1 X133.704 Y69.434 E0.19755
G1 X133.708 Y69.42 E0.19795
G1 X133.959 Y67.756 E0.24499
G1 X134.096 Y66.017 E0.29374
G1 X134.074 Y65.727 E0.30187
G1 X134.073 Y65.717 E0.30215
G1 X134.096 Y65.717
G1 X134.199 Y65.717 E0.30385
G1 X133.995 Y62.62 E0.39059
G1 X133.777 Y60.979 E0.43686
G1 X133.443 Y59.356 E0.48317
G1 X133 Y57.761 E0.52944
G1 X132.62 Y56.672 E0.56167
G1 X132.446 Y56.195 E0.57586
G1 X131.993 Y55.137 E0.60803
G1 X131.786 Y54.673 E0.62223
G1 X131.113 Y53.359 E0.66349
G1 X130.939 Y53.056 E0.67326
G1 X130.353 Y52.077 E0.70515
G1 X130.162 Y51.783 E0.71495
G1 X129.511 Y50.847 E0.74681
G1 X129.216 Y50.442 E0.76082
G1 X128.496 Y49.544 E0.79299
G1 X128.172 Y49.159 E0.80705
G1 X127.393 Y48.316 E0.83913
G1 X127.047 Y47.955 E0.85311
G1 X126.209 Y47.162 E0.88535
G1 X125.836 Y46.826 E0.89938
G1 X124.948 Y46.094 E0.93155
G1 X124.555 Y45.787 E0.94549
G1 X123.621 Y45.117 E0.97761
G1 X123.207 Y44.835 E0.99161
G1 X122.225 Y44.229 E1.02386
G1 X121.79 Y43.979 E1.03789
G1 X120.776 Y43.443 E1.06994
G1 X120.324 Y43.221 E1.08402
G1 X119.273 Y42.755 E1.11615
G1 X118.809 Y42.566 E1.13015
G1 X117.726 Y42.172 E1.16236
G1 X117.251 Y42.017 E1.17633
G1 X116.145 Y41.697 E1.20851
G1 X115.658 Y41.574 E1.22255
G1 X114.536 Y41.332 E1.25463
G1 X114.04 Y41.242 E1.26872
G1 X112.902 Y41.076 E1.30086
G1 X112.403 Y41.023 E1.31488
G1 X111.023 Y40.918 E1.35356
G1 X110.685 Y40.936 E1.36302
G1 X110.297 Y41.061 E1.37442
G1 X110.005 Y41.234 E1.3839
G1 X109.712 Y41.061 E1.39341
G1 X109.326 Y40.936 E1.40475
G1 X109.002 Y40.918 E1.41382
G1 X108.74 Y40.933 E1.42116
G1 X107.561 Y41.027 E1.45421
G1 X107.062 Y41.08 E1.46824
G1 X105.883 Y41.257 E1.50156
G1 X105.387 Y41.347 E1.51565
G1 X104.225 Y41.606 E1.54892
G1 X103.736 Y41.728 E1.56301
G1 X102.591 Y42.07 E1.59641
G1 X102.115 Y42.228 E1.61043
G1 X100.999 Y42.648 E1.64375
G1 X100.534 Y42.837 E1.65778
G1 X99.449 Y43.337 E1.69117
G1 X98.997 Y43.559 E1.70525
G1 X97.956 Y44.131 E1.73844
G1 X97.52 Y44.382 E1.75251
G1 X96.518 Y45.03 E1.78586
G1 X96.1 Y45.312 E1.79995
G1 X95.143 Y46.03 E1.83339
G1 X94.748 Y46.342 E1.84746
G1 X93.85 Y47.119 E1.88065
G1 X93.474 Y47.458 E1.89479
G1 X92.633 Y48.302 E1.9281
G1 X92.283 Y48.662 E1.94213
G1 X91.502 Y49.561 E1.97541
G1 X91.178 Y49.948 E1.98952
G1 X90.46 Y50.902 E2.02289
G1 X90.165 Y51.31 E2.03696
G1 X89.34 Y52.589 E2.0795
G1 X89.165 Y52.894 E2.08933
G1 X88.598 Y53.921 E2.12212
G1 X88.434 Y54.238 E2.13209
G1 X87.738 Y55.758 E2.17882
G1 X87.149 Y57.337 E2.22592
G1 X87.146 Y57.349 E2.22626
G1 X86.668 Y58.95 E2.27296
G1 X86.303 Y60.596 E2.32008
G1 X86.302 Y60.608 E2.32042
G1 X86.05 Y62.26 E2.36713
G1 X85.913 Y64 E2.41591
G1 X85.939 Y64.339 E2.42541
G1 X86.057 Y64.715 E2.43643
G1 X86.231 Y65.008 E2.44595
G1 X86.058 Y65.301 E2.45546
G1 X85.939 Y65.675 E2.46643
G1 X85.913 Y66.013 E2.4759
G1 X86.028 Y67.545 E2.51884
G1 X86.228 Y69.004 E2.56
G1 X86.517 Y70.45 E2.60122
G1 X86.892 Y71.876 E2.64243
G1 X87.264 Y72.998 E2.67546
G1 X87.329 Y73.194 E2.68124
G1 X87.131 Y73.251 E2.68492
G1 X85.839 Y73.627 E2.72253
G1 X83.903 Y74.126 E2.7784
G1 X83.576 Y74.275 E2.78845
G1 X83.257 Y74.531 E2.79988
G1 X83.007 Y74.861 E2.81145
G1 X82.848 Y75.245 E2.82307
G1 X82.792 Y75.635 E2.83408
G1 X82.825 Y76.038 E2.84538
G1 X82.965 Y76.436 E2.85717
G1 X83.195 Y76.778 E2.86869
G1 X83.497 Y77.047 E2.88
G1 X83.85 Y77.237 E2.8912
G1 X84.256 Y77.339 E2.9029
G1 X84.559 Y77.335 E2.91137
G1 X85.553 Y77.232 E2.9393
G1 X86.817 Y77.061 E2.97495
G1 X87.574 Y76.936 E2.99639
G1 X88.091 Y76.84 E3.01109
G1 X88.915 Y76.672 E3.03459
G1 X89.109 Y77.032 E3.04602
G1 X89.28 Y77.326 E3.05553
G1 X90.095 Y78.606 E3.09794
G1 X90.389 Y79.011 E3.11193
G1 X91.105 Y79.978 E3.14556
G1 X91.43 Y80.364 E3.15966
G1 X92.21 Y81.275 E3.19318
G1 X92.561 Y81.639 E3.20731
G1 X93.404 Y82.492 E3.24083
G1 X93.778 Y82.83 E3.25492
G1 X94.683 Y83.621 E3.28851
G1 X95.08 Y83.932 E3.30261
G1 X96.036 Y84.658 E3.33616
G1 X96.454 Y84.94 E3.35025
G1 X97.46 Y85.596 E3.38382
G1 X97.896 Y85.848 E3.39789
G1 X98.946 Y86.431 E3.43146
G1 X99.4 Y86.652 E3.44557
G1 X100.49 Y87.16 E3.47918
G1 X100.957 Y87.347 E3.49324
G1 X102.079 Y87.776 E3.52682
G1 X102.558 Y87.933 E3.5409
G1 X103.707 Y88.28 E3.57445
G1 X104.197 Y88.402 E3.58856
G1 X105.369 Y88.665 E3.62214
G1 X105.865 Y88.754 E3.63622
G1 X107.053 Y88.934 E3.6698
G1 X107.555 Y88.986 E3.68391
G1 X108.994 Y89.099 E3.72425
G1 X109.327 Y89.076 E3.73358
G1 X109.711 Y88.958 E3.74481
G1 X110.002 Y88.781 E3.75433
G1 X110.303 Y88.958 E3.76409
G1 X110.681 Y89.076 E3.77515
G1 X111.001 Y89.098 E3.78412
G1 X111.271 Y89.082 E3.79168
G1 X112.447 Y88.989 E3.82465
G1 X112.947 Y88.936 E3.8387
G1 X114.126 Y88.759 E3.87202
G1 X114.622 Y88.669 E3.88611
G1 X115.784 Y88.409 E3.91939
G1 X116.273 Y88.288 E3.93347
G1 X117.416 Y87.946 E3.96682
G1 X117.894 Y87.788 E3.98089
G1 X119.009 Y87.368 E4.01419
G1 X119.476 Y87.178 E4.02828
G1 X120.559 Y86.678 E4.06162
G1 X121.009 Y86.458 E4.07562
G1 X122.054 Y85.883 E4.10895
G1 X122.49 Y85.632 E4.12302
G1 X123.491 Y84.985 E4.15633
G1 X123.91 Y84.703 E4.17044
G1 X124.865 Y83.985 E4.20384
G1 X125.259 Y83.677 E4.21781
G1 X126.161 Y82.896 E4.25116
G1 X126.536 Y82.557 E4.26529
G1 X127.377 Y81.714 E4.29857
G1 X127.727 Y81.352 E4.31264
G1 X128.507 Y80.453 E4.34591
G1 X128.832 Y80.068 E4.35999
G1 X129.549 Y79.112 E4.39339
G1 X129.844 Y78.705 E4.40744
G1 X130.671 Y77.426 E4.45001
G1 X130.846 Y77.122 E4.45981
G1 X131.411 Y76.094 E4.4926
G0 F6000 X131.058 Y75.906
G1 F600 X131.214 Y75.604 E4.5021
G1 X131.705 Y74.539 E4.53488
G1 X131.901 Y74.101 E4.54829
G1 X132.481 Y72.553 E4.59449
G1 X132.484 Y72.541 E4.59484
G1 X132.954 Y70.966 E4.64077
G1 X133.311 Y69.361 E4.68673
G1 X133.315 Y69.347 E4.68713
G1 X133.561 Y67.71 E4.7334
G1 X133.695 Y66.016 E4.7809
G1 X133.675 Y65.754 E4.78824
G1 X133.585 Y65.467 E4.79665
G1 X133.568 Y65.439 E4.79756
G1 X133.496 Y65.317 E4.80152
G1 X133.585 Y65.317 E4.80162
G1 X133.772 Y65.317 E4.80448
G1 X133.771 Y65.299
G1 X133.597 Y62.66 E4.8784
G1 X133.382 Y61.046 E4.92391
G1 X133.054 Y59.45 E4.96945
G1 X132.618 Y57.881 E5.01496
G1 X132.243 Y56.806 E5.04678
G1 X132.074 Y56.342 E5.06058
G1 X131.626 Y55.297 E5.09236
G1 X131.425 Y54.846 E5.10616
G1 X130.762 Y53.55 E5.14685
G1 X130.594 Y53.259 E5.15624
G1 X130.014 Y52.289 E5.18783
G1 X129.83 Y52.006 E5.19726
G1 X129.185 Y51.079 E5.22883
G1 X128.898 Y50.685 E5.24245
G1 X128.187 Y49.798 E5.27422
G1 X127.872 Y49.424 E5.28789
G1 X127.102 Y48.59 E5.31961
G1 X126.765 Y48.239 E5.33321
G1 X125.938 Y47.456 E5.36504
G1 X125.575 Y47.129 E5.3787
G1 X124.698 Y46.406 E5.41047
G1 X124.315 Y46.107 E5.42405
G1 X123.392 Y45.445 E5.45579
G1 X122.989 Y45.171 E5.46941
G1 X122.02 Y44.573 E5.50124
G1 X121.597 Y44.329 E5.51489
G1 X120.594 Y43.799 E5.54659
G1 X120.155 Y43.583 E5.56027
G1 X119.117 Y43.123 E5.592
G1 X118.665 Y42.939 E5.60564
G1 X117.595 Y42.55 E5.63746
G1 X117.133 Y42.399 E5.65104
G1 X116.04 Y42.083 E5.68284
G1 X115.567 Y41.963 E5.69648
G1 X114.458 Y41.724 E5.72819
G1 X113.976 Y41.637 E5.74188
G1 X112.852 Y41.473 E5.77363
G1 X112.367 Y41.421 E5.78726
G1 X111.019 Y41.319 E5.82504
G1 X110.758 Y41.333 E5.83235
G1 X110.462 Y41.428 E5.84104
G1 X110.207 Y41.579 E5.84932
G1 X110.005 Y41.772 E5.85713
G1 X109.802 Y41.579 E5.86496
G1 X109.547 Y41.428 E5.87324
G1 X109.252 Y41.333 E5.8819
G1 X109.002 Y41.319 E5.8889
G1 X108.767 Y41.332 E5.89548
G1 X107.598 Y41.425 E5.92825
G1 X107.113 Y41.477 E5.94189
G1 X105.948 Y41.652 E5.97481
G1 X105.466 Y41.739 E5.9885
G1 X104.317 Y41.995 E6.0214
G1 X103.842 Y42.114 E6.03509
G1 X102.711 Y42.452 E6.06808
G1 X102.248 Y42.605 E6.08171
G1 X101.145 Y43.02 E6.11465
G1 X100.693 Y43.204 E6.12829
G1 X99.621 Y43.698 E6.16128
G1 X99.182 Y43.914 E6.17495
G1 X98.152 Y44.48 E6.2078
G1 X97.728 Y44.724 E6.22147
G1 X96.738 Y45.364 E6.25442
G1 X96.332 Y45.638 E6.26811
G1 X95.387 Y46.347 E6.30113
G1 X95.003 Y46.65 E6.3148
G1 X94.115 Y47.419 E6.34763
G1 X93.75 Y47.748 E6.36137
G1 X92.918 Y48.582 E6.39429
G1 X92.578 Y48.933 E6.40795
G1 X91.806 Y49.821 E6.44083
G1 X91.491 Y50.197 E6.45454
G1 X90.782 Y51.139 E6.4875
G1 X90.495 Y51.536 E6.50119
G1 X89.682 Y52.797 E6.54312
G1 X89.514 Y53.09 E6.55256
G1 X88.951 Y54.11 E6.58512
G1 X88.794 Y54.413 E6.59466
G1 X88.108 Y55.911 E6.64071
G1 X87.528 Y57.464 E6.68704
G1 X87.525 Y57.476 E6.68739
G1 X87.055 Y59.051 E6.73333
G1 X86.7 Y60.655 E6.77924
G1 X86.696 Y60.669 E6.77965
G1 X86.695 Y60.682 E6.78001
G1 X86.448 Y62.306 E6.82593
G1 X86.314 Y64.001 E6.87345
G1 X86.334 Y64.263 E6.88079
G1 X86.425 Y64.551 E6.88923
G1 X86.576 Y64.806 E6.89752
G1 X86.769 Y65.008 E6.90532
G1 X86.576 Y65.211 E6.91315
G1 X86.425 Y65.466 E6.92144
G1 X86.334 Y65.752 E6.92982
G1 X86.314 Y66.013 E6.93714
G1 X86.426 Y67.503 E6.9789
G1 X86.623 Y68.938 E7.01939
G1 X86.907 Y70.36 E7.05991
G1 X87.276 Y71.762 E7.10043
G1 X87.726 Y73.12 E7.14042
G1 X87.732 Y73.139 E7.14098
G1 X87.854 Y73.444 E7.15016
G1 X87.858 Y73.454 E7.15046
G1 X87.834 Y73.461
G1 X87.724 Y73.496 E7.15109
G1 X87.704 Y73.501 E7.15167
G1 X85.945 Y74.012 E7.20287
G1 X84.037 Y74.504 E7.25794
G1 X83.788 Y74.618 E7.26559
G1 X83.546 Y74.812 E7.27426
G1 X83.357 Y75.061 E7.283
G1 X83.237 Y75.352 E7.29179
G1 X83.194 Y75.648 E7.30015
G1 X83.219 Y75.954 E7.30873
G1 X83.325 Y76.255 E7.31765
G1 X83.499 Y76.513 E7.32635
G1 X83.728 Y76.717 E7.33492
G1 X83.996 Y76.861 E7.34343
G1 X84.303 Y76.938 E7.35227
G1 X84.536 Y76.935 E7.35878
G1 X85.506 Y76.835 E7.38604
G1 X86.758 Y76.665 E7.42135
G1 X87.505 Y76.542 E7.44251
G1 X88.015 Y76.447 E7.45701
G1 X89.126 Y76.221 E7.4887
G1 X89.458 Y76.836 E7.50823
G1 X89.622 Y77.118 E7.51735
G1 X90.426 Y78.381 E7.55919
G1 X90.712 Y78.775 E7.5728
G1 X91.419 Y79.73 E7.60601
G1 X91.735 Y80.105 E7.61972
G1 X92.506 Y81.006 E7.65286
G1 X92.847 Y81.359 E7.66658
G1 X93.681 Y82.203 E7.69974
G1 X94.044 Y82.531 E7.71342
G1 X94.938 Y83.313 E7.74661
G1 X95.324 Y83.615 E7.76031
G1 X96.269 Y84.333 E7.79348
G1 X96.675 Y84.607 E7.80717
G1 X97.67 Y85.255 E7.84036
G1 X98.093 Y85.5 E7.85402
G1 X99.131 Y86.076 E7.8872
G1 X99.572 Y86.291 E7.90091
G1 X100.649 Y86.793 E7.93412
G1 X101.103 Y86.975 E7.94779
G1 X102.213 Y87.399 E7.981
G1 X102.678 Y87.551 E7.99468
G1 X103.813 Y87.894 E8.02781
G1 X104.289 Y88.013 E8.04153
G1 X105.448 Y88.273 E8.07473
G1 X105.93 Y88.359 E8.08841
G1 X107.104 Y88.537 E8.1216
G1 X107.591 Y88.588 E8.13528
G1 X108.996 Y88.698 E8.17467
G1 X109.253 Y88.68 E8.18187
G1 X109.546 Y88.59 E8.19044
G1 X109.799 Y88.436 E8.19872
G1 X110.005 Y88.245 E8.20657
G1 X110.206 Y88.437 E8.21434
G1 X110.466 Y88.59 E8.22277
G1 X110.755 Y88.68 E8.23123
G1 X111.003 Y88.697 E8.23818
G1 X111.244 Y88.683 E8.24492
G1 X112.41 Y88.591 E8.27761
G1 X112.896 Y88.539 E8.29127
G1 X114.061 Y88.364 E8.3242
G1 X114.543 Y88.277 E8.33789
G1 X115.692 Y88.02 E8.3708
G1 X116.167 Y87.902 E8.38448
G1 X117.296 Y87.564 E8.41741
G1 X117.761 Y87.411 E8.4311
G1 X118.863 Y86.995 E8.46402
G1 X119.317 Y86.811 E8.47771
G1 X120.387 Y86.317 E8.51065
G1 X120.825 Y86.103 E8.52427
G1 X121.858 Y85.534 E8.55723
G1 X122.282 Y85.29 E8.57091
G1 X123.271 Y84.651 E8.60382
G1 X123.678 Y84.377 E8.61753
G1 X124.622 Y83.668 E8.65053
G1 X125.005 Y83.368 E8.66412
G1 X125.896 Y82.596 E8.69707
G1 X126.26 Y82.267 E8.71079
G1 X127.092 Y81.434 E8.74369
G1 X127.432 Y81.082 E8.75737
G1 X128.203 Y80.193 E8.79026
G1 X128.519 Y79.819 E8.80394
G1 X129.227 Y78.875 E8.83692
G1 X129.514 Y78.479 E8.85059
G1 X130.329 Y77.218 E8.89256
G1 X130.497 Y76.926 E8.90197
G1 X131.058 Y75.906 E8.93451
G1 F1500 E6.93451
G0 F6000 X132.665 Y69.226
G0 X132.903 Y67.633
G0 X133.023 Y65.88
G0 X132.803 Y65.508
G0 X132.412 Y65.361
G0 X130.753 Y65.377
G0 X130.47 Y65.536
G0 X130.276 Y65.943
G0 X128.019 Y74.339
G0 X122.289 Y79.577
G0 X120.347 Y81.015
G0 X118.816 Y81.906
G0 X117.543 Y82.51
G0 X116.222 Y83.021
G0 X113.858 Y83.672
G0 X110 Y84.31
G0 X106.127 Y83.669
G0 X103.774 Y83.017
G0 X102.072 Y82.336
G0 X100.836 Y81.71
G0 X99.599 Y80.976
G0 X98.466 Y80.176
G0 X97.341 Y79.249
G0 X96.333 Y78.251
G0 X95.372 Y77.22
G0 X94.496 Y76.084
G0 X94.117 Y75.49
G0 X109.957 Y68.918
G0 X114.245 Y71.761
G0 X120.838 Y70.637
G1 F1500 E8.93451
G1 F600 X120.936 Y70.434 E8.94081
G1 X120.977 Y70.208 E8.94723
G1 X120.963 Y69.988 E8.95339
G1 X120.896 Y69.772 E8.95971
G1 X120.775 Y69.582 E8.96601
G1 X120.641 Y69.453 E8.97121
G1 X114.956 Y65.241 E9.16895
G1 X114.941 Y65.23 E9.16947
G1 X114.789 Y65.144 E9.17436
G1 X114.59 Y65.084 E9.18016
G1 X114.499 Y65.079 E9.18271
G1 X114.559 Y65.039
G1 X114.668 Y64.966 E9.18477
G1 X114.733 Y64.922 E9.18497
G1 X114.748 Y64.912 E9.18546
G1 X115.334 Y64.517 E9.20521
G1 X116.363 Y63.79 E9.24043
G1 X117.552 Y62.896 E9.282
G1 X118.329 Y62.271 E9.30987
G1 X118.712 Y61.955 E9.32375
G1 X119.699 Y61.092 E9.36039
G1 X120.653 Y60.186 E9.39717
G1 X121.578 Y59.224 E9.43447
G1 X121.692 Y59.061 E9.44003
G1 X121.772 Y58.846 E9.44644
G1 X121.798 Y58.614 E9.45296
G1 X121.76 Y58.382 E9.45953
G1 X121.666 Y58.17 E9.46601
G1 X121.524 Y57.992 E9.47238
G1 X121.336 Y57.849 E9.47898
G1 X121.119 Y57.764 E9.48549
G1 X120.931 Y57.739 E9.49079
G1 X115.808 Y57.739 E9.63398
G1 X115.788 Y57.733 E9.63456
G1 X115.631 Y57.705 E9.63902
G1 X115.426 Y57.717 E9.64476
G1 X115.229 Y57.786 E9.65059
G1 X115.087 Y57.879 E9.65534
G1 X114.699 Y58.227 E9.6699
G1 X112.921 Y60.001 E9.7401
G1 X111.859 Y60.996 E9.78078
G1 X110.763 Y61.963 E9.82163
G1 X110.507 Y62.174 E9.8309
G1 X110.494 Y62.185 E9.83137
G1 X110.42 Y62.246 E9.83405
G1 X110.33 Y62.321 E9.83733
G1 X110.323 Y62.13 E9.83952
G1 X110.26 Y61.903 E9.84468
G1 X110.251 Y61.888 E9.84516
G1 X110.135 Y61.7 E9.85133
G1 X109.996 Y61.566 E9.85673
G1 X105.01 Y57.876 E10.03009
G1 X104.873 Y57.795 E10.03454
G1 X104.693 Y57.736 E10.03984
G1 X104.534 Y57.718 E10.04431
G1 X104.435 Y57.718 E10.04707
G1 X99.045 Y57.731 E10.19772
G1 X98.858 Y57.756 E10.20299
G1 X98.65 Y57.839 E10.20925
G1 X98.466 Y57.972 E10.2156
G1 X98.322 Y58.147 E10.22193
G1 X98.227 Y58.349 E10.22817
G1 X98.182 Y58.572 E10.23453
G1 X98.197 Y58.799 E10.24089
G1 X98.265 Y59.012 E10.24714
G1 X98.384 Y59.202 E10.2534
G1 X98.52 Y59.333 E10.25868
G1 X106.196 Y64.99 E10.52519
G1 X106.354 Y65.106 E10.53066
G1 X106.477 Y65.176 E10.53462
G1 X106.423 Y65.211
G1 X106.259 Y65.318 E10.53854
G1 X105.659 Y65.711 E10.55859
G1 X104.255 Y66.553 E10.60434
G1 X102.887 Y67.35 E10.64859
G1 X101.502 Y68.12 E10.69288
G1 X100.574 Y68.614 E10.72227
G1 X99.159 Y69.34 E10.76672
G1 X97.716 Y70.041 E10.81155
G1 X96.273 Y70.705 E10.85595
G1 X94.814 Y71.339 E10.90041
G1 X93.65 Y71.82 E10.93561
G1 X92.702 Y72.192 E10.96407
G1 X91.501 Y72.645 E10.99995
G1 X91.154 Y71.782 E11.02595
G1 X90.7 Y70.356 E11.06777
G1 X90.697 Y70.342 E11.06817
G1 X90.362 Y68.929 E11.10876
G1 X90.357 Y68.91 E11.10931
G1 X90.123 Y67.45 E11.15064
G1 X89.992 Y65.907 E11.19392
G1 X89.961 Y65.731 E11.19891
G1 X89.864 Y65.519 E11.20543
G1 X89.72 Y65.346 E11.21172
G1 X89.539 Y65.21 E11.21805
G1 X89.399 Y65.154 E11.22226
G1 X89.321 Y65.122 E11.22462
G1 X89.3 Y65.12 E11.22521
G1 X89.131 Y65.1 E11.22996
G1 X87.582 Y65.1 E11.27326
G1 X87.436 Y65.117 E11.27736
